{"compressionlevel":-1,"type":"map","version":"1.10","tiledversion":"1.10.2","orientation":"orthogonal","renderorder":"right-down","infinite":false,"width":30,"height":36,"tilewidth":32,"tileheight":32,"nextlayerid":4,"nextobjectid":18,"properties":[{"name":"generator","type":"string","value":"tools/make_tiled_maps.py"}],"tilesets":[{"firstgid":1,"name":"core","image":"tilesets/core.png","imagewidth":512,"imageheight":480,"tilewidth":32,"tileheight":32,"tilecount":240,"columns":16,"margin":0,"spacing":0,"tiles":[{"id":0,"properties":[{"name":"ground","type":"string","value":"floor"}]},{"id":1,"probability":0.12,"properties":[{"name":"ground","type":"string","value":"floor"}]},{"id":2,"probability":0.12,"properties":[{"name":"ground","type":"string","value":"floor"}]},{"id":3,"probability":0.12,"properties":[{"name":"ground","type":"string","value":"floor"}]},{"id":4,"probability":0.12,"properties":[{"name":"ground","type":"string","value":"floor"}]},{"id":5,"probability":0.12,"properties":[{"name":"ground","type":"string","value":"floor"}]},{"id":6,"properties":[{"name":"ground","type":"string","value":"floor"}]},{"id":7,"properties":[{"name":"ground","type":"string","value":"floor"}]},{"id":8,"properties":[{"name":"ground","type":"string","value":"floor"}]},{"id":9,"properties":[{"name":"ground","type":"string","value":"floor"}]},{"id":10,"properties":[{"name":"ground","type":"string","value":"floor"}]},{"id":11,"properties":[{"name":"ground","type":"string","value":"floor"}]},{"id":12,"properties":[{"name":"collides","type":"bool","value":true},{"name":"ground","type":"string","value":"void"}],"objectgroup":{"draworder":"index","id":2,"name":"","opacity":1,"type":"objectgroup","visible":true,"x":0,"y":0,"objects":[{"id":1,"name":"","type":"collision","rotation":0,"visible":true,"x":0.0,"y":0.0,"width":32.0,"height":32.0}]}},{"id":13,"probability":0.12,"properties":[{"name":"collides","type":"bool","value":true},{"name":"ground","type":"string","value":"void"}],"objectgroup":{"draworder":"index","id":2,"name":"","opacity":1,"type":"objectgroup","visible":true,"x":0,"y":0,"objects":[{"id":1,"name":"","type":"collision","rotation":0,"visible":true,"x":0.0,"y":0.0,"width":32.0,"height":32.0}]}},{"id":14,"properties":[{"name":"ground","type":"string","value":"dais"}]},{"id":15,"properties":[{"name":"collides","type":"bool","value":true},{"name":"ground","type":"string","value":"root tangle"}],"objectgroup":{"draworder":"index","id":2,"name":"","opacity":1,"type":"objectgroup","visible":true,"x":0,"y":0,"objects":[{"id":1,"name":"","type":"collision","rotation":0,"visible":true,"x":0.0,"y":0.0,"width":32.0,"height":32.0}]}},{"id":16,"properties":[{"name":"blob","type":"string","value":"floor-void"}]},{"id":17,"properties":[{"name":"blob","type":"string","value":"floor-void"},{"name":"collides","type":"bool","value":true}],"objectgroup":{"draworder":"index","id":2,"name":"","opacity":1,"type":"objectgroup","visible":true,"x":0,"y":0,"objects":[{"id":1,"name":"","type":"collision","rotation":0,"visible":true,"x":0.0,"y":0.0,"width":16.0,"height":32.0}]}},{"id":18,"properties":[{"name":"blob","type":"string","value":"floor-void"},{"name":"collides","type":"bool","value":true}],"objectgroup":{"draworder":"index","id":2,"name":"","opacity":1,"type":"objectgroup","visible":true,"x":0,"y":0,"objects":[{"id":1,"name":"","type":"collision","rotation":0,"visible":true,"x":0.0,"y":16.0,"width":32.0,"height":16.0}]}},{"id":19,"properties":[{"name":"blob","type":"string","value":"floor-void"},{"name":"collides","type":"bool","value":true}],"objectgroup":{"draworder":"index","id":2,"name":"","opacity":1,"type":"objectgroup","visible":true,"x":0,"y":0,"objects":[{"id":1,"name":"","type":"collision","rotation":0,"visible":true,"x":16.0,"y":0.0,"width":16.0,"height":32.0}]}},{"id":20,"properties":[{"name":"blob","type":"string","value":"floor-void"},{"name":"collides","type":"bool","value":true}],"objectgroup":{"draworder":"index","id":2,"name":"","opacity":1,"type":"objectgroup","visible":true,"x":0,"y":0,"objects":[{"id":1,"name":"","type":"collision","rotation":0,"visible":true,"x":0.0,"y":0.0,"width":32.0,"height":16.0}]}},{"id":21,"properties":[{"name":"blob","type":"string","value":"floor-void"},{"name":"collides","type":"bool","value":true}],"objectgroup":{"draworder":"index","id":2,"name":"","opacity":1,"type":"objectgroup","visible":true,"x":0,"y":0,"objects":[{"id":1,"name":"","type":"collision","rotation":0,"visible":true,"x":0.0,"y":16.0,"width":32.0,"height":16.0},{"id":2,"name":"","type":"collision","rotation":0,"visible":true,"x":0.0,"y":0.0,"width":16.0,"height":16.0}]}},{"id":22,"properties":[{"name":"blob","type":"string","value":"floor-void"},{"name":"collides","type":"bool","value":true}],"objectgroup":{"draworder":"index","id":2,"name":"","opacity":1,"type":"objectgroup","visible":true,"x":0,"y":0,"objects":[{"id":1,"name":"","type":"collision","rotation":0,"visible":true,"x":0.0,"y":0.0,"width":32.0,"height":32.0}]}},{"id":23,"properties":[{"name":"blob","type":"string","value":"floor-void"},{"name":"collides","type":"bool","value":true}],"objectgroup":{"draworder":"index","id":2,"name":"","opacity":1,"type":"objectgroup","visible":true,"x":0,"y":0,"objects":[{"id":1,"name":"","type":"collision","rotation":0,"visible":true,"x":0.0,"y":16.0,"width":32.0,"height":16.0},{"id":2,"name":"","type":"collision","rotation":0,"visible":true,"x":16.0,"y":0.0,"width":16.0,"height":16.0}]}},{"id":24,"properties":[{"name":"blob","type":"string","value":"floor-void"},{"name":"collides","type":"bool","value":true}],"objectgroup":{"draworder":"index","id":2,"name":"","opacity":1,"type":"objectgroup","visible":true,"x":0,"y":0,"objects":[{"id":1,"name":"","type":"collision","rotation":0,"visible":true,"x":0.0,"y":0.0,"width":32.0,"height":16.0},{"id":2,"name":"","type":"collision","rotation":0,"visible":true,"x":0.0,"y":16.0,"width":16.0,"height":16.0}]}},{"id":25,"properties":[{"name":"blob","type":"string","value":"floor-void"},{"name":"collides","type":"bool","value":true}],"objectgroup":{"draworder":"index","id":2,"name":"","opacity":1,"type":"objectgroup","visible":true,"x":0,"y":0,"objects":[{"id":1,"name":"","type":"collision","rotation":0,"visible":true,"x":0.0,"y":0.0,"width":32.0,"height":32.0}]}},{"id":26,"properties":[{"name":"blob","type":"string","value":"floor-void"},{"name":"collides","type":"bool","value":true}],"objectgroup":{"draworder":"index","id":2,"name":"","opacity":1,"type":"objectgroup","visible":true,"x":0,"y":0,"objects":[{"id":1,"name":"","type":"collision","rotation":0,"visible":true,"x":0.0,"y":0.0,"width":32.0,"height":16.0},{"id":2,"name":"","type":"collision","rotation":0,"visible":true,"x":16.0,"y":16.0,"width":16.0,"height":16.0}]}},{"id":27,"properties":[{"name":"blob","type":"string","value":"floor-void"},{"name":"collides","type":"bool","value":true}],"objectgroup":{"draworder":"index","id":2,"name":"","opacity":1,"type":"objectgroup","visible":true,"x":0,"y":0,"objects":[{"id":1,"name":"","type":"collision","rotation":0,"visible":true,"x":0.0,"y":16.0,"width":32.0,"height":16.0},{"id":2,"name":"","type":"collision","rotation":0,"visible":true,"x":0.0,"y":0.0,"width":16.0,"height":16.0}]}},{"id":28,"properties":[{"name":"blob","type":"string","value":"floor-void"},{"name":"collides","type":"bool","value":true}],"objectgroup":{"draworder":"index","id":2,"name":"","opacity":1,"type":"objectgroup","visible":true,"x":0,"y":0,"objects":[{"id":1,"name":"","type":"collision","rotation":0,"visible":true,"x":0.0,"y":0.0,"width":32.0,"height":32.0}]}},{"id":29,"properties":[{"name":"blob","type":"string","value":"floor-void"},{"name":"collides","type":"bool","value":true}],"objectgroup":{"draworder":"index","id":2,"name":"","opacity":1,"type":"objectgroup","visible":true,"x":0,"y":0,"objects":[{"id":1,"name":"","type":"collision","rotation":0,"visible":true,"x":0.0,"y":16.0,"width":32.0,"height":16.0},{"id":2,"name":"","type":"collision","rotation":0,"visible":true,"x":16.0,"y":0.0,"width":16.0,"height":16.0}]}},{"id":30,"properties":[{"name":"blob","type":"string","value":"floor-void"},{"name":"collides","type":"bool","value":true}],"objectgroup":{"draworder":"index","id":2,"name":"","opacity":1,"type":"objectgroup","visible":true,"x":0,"y":0,"objects":[{"id":1,"name":"","type":"collision","rotation":0,"visible":true,"x":0.0,"y":0.0,"width":32.0,"height":16.0},{"id":2,"name":"","type":"collision","rotation":0,"visible":true,"x":0.0,"y":16.0,"width":16.0,"height":16.0}]}},{"id":31,"properties":[{"name":"blob","type":"string","value":"floor-void"},{"name":"collides","type":"bool","value":true}],"objectgroup":{"draworder":"index","id":2,"name":"","opacity":1,"type":"objectgroup","visible":true,"x":0,"y":0,"objects":[{"id":1,"name":"","type":"collision","rotation":0,"visible":true,"x":0.0,"y":0.0,"width":32.0,"height":32.0}]}},{"id":32,"properties":[{"name":"blob","type":"string","value":"floor-void"},{"name":"collides","type":"bool","value":true}],"objectgroup":{"draworder":"index","id":2,"name":"","opacity":1,"type":"objectgroup","visible":true,"x":0,"y":0,"objects":[{"id":1,"name":"","type":"collision","rotation":0,"visible":true,"x":0.0,"y":0.0,"width":32.0,"height":32.0}]}},{"id":33,"properties":[{"name":"blob","type":"string","value":"floor-void"},{"name":"collides","type":"bool","value":true}],"objectgroup":{"draworder":"index","id":2,"name":"","opacity":1,"type":"objectgroup","visible":true,"x":0,"y":0,"objects":[{"id":1,"name":"","type":"collision","rotation":0,"visible":true,"x":0.0,"y":0.0,"width":32.0,"height":32.0}]}},{"id":34,"properties":[{"name":"blob","type":"string","value":"floor-void"},{"name":"collides","type":"bool","value":true}],"objectgroup":{"draworder":"index","id":2,"name":"","opacity":1,"type":"objectgroup","visible":true,"x":0,"y":0,"objects":[{"id":1,"name":"","type":"collision","rotation":0,"visible":true,"x":0.0,"y":0.0,"width":32.0,"height":16.0},{"id":2,"name":"","type":"collision","rotation":0,"visible":true,"x":16.0,"y":16.0,"width":16.0,"height":16.0}]}},{"id":35,"properties":[{"name":"blob","type":"string","value":"floor-void"},{"name":"collides","type":"bool","value":true}],"objectgroup":{"draworder":"index","id":2,"name":"","opacity":1,"type":"objectgroup","visible":true,"x":0,"y":0,"objects":[{"id":1,"name":"","type":"collision","rotation":0,"visible":true,"x":0.0,"y":0.0,"width":32.0,"height":32.0}]}},{"id":36,"properties":[{"name":"blob","type":"string","value":"floor-void"},{"name":"collides","type":"bool","value":true}],"objectgroup":{"draworder":"index","id":2,"name":"","opacity":1,"type":"objectgroup","visible":true,"x":0,"y":0,"objects":[{"id":1,"name":"","type":"collision","rotation":0,"visible":true,"x":0.0,"y":0.0,"width":32.0,"height":32.0}]}},{"id":37,"properties":[{"name":"blob","type":"string","value":"floor-void"},{"name":"collides","type":"bool","value":true}],"objectgroup":{"draworder":"index","id":2,"name":"","opacity":1,"type":"objectgroup","visible":true,"x":0,"y":0,"objects":[{"id":1,"name":"","type":"collision","rotation":0,"visible":true,"x":0.0,"y":0.0,"width":32.0,"height":32.0}]}},{"id":38,"properties":[{"name":"blob","type":"string","value":"floor-void"},{"name":"collides","type":"bool","value":true}],"objectgroup":{"draworder":"index","id":2,"name":"","opacity":1,"type":"objectgroup","visible":true,"x":0,"y":0,"objects":[{"id":1,"name":"","type":"collision","rotation":0,"visible":true,"x":0.0,"y":0.0,"width":32.0,"height":32.0}]}},{"id":39,"properties":[{"name":"blob","type":"string","value":"floor-void"},{"name":"collides","type":"bool","value":true}],"objectgroup":{"draworder":"index","id":2,"name":"","opacity":1,"type":"objectgroup","visible":true,"x":0,"y":0,"objects":[{"id":1,"name":"","type":"collision","rotation":0,"visible":true,"x":0.0,"y":0.0,"width":32.0,"height":32.0}]}},{"id":40,"properties":[{"name":"blob","type":"string","value":"floor-void"},{"name":"collides","type":"bool","value":true}],"objectgroup":{"draworder":"index","id":2,"name":"","opacity":1,"type":"objectgroup","visible":true,"x":0,"y":0,"objects":[{"id":1,"name":"","type":"collision","rotation":0,"visible":true,"x":0.0,"y":0.0,"width":32.0,"height":32.0}]}},{"id":41,"properties":[{"name":"blob","type":"string","value":"floor-void"},{"name":"collides","type":"bool","value":true}],"objectgroup":{"draworder":"index","id":2,"name":"","opacity":1,"type":"objectgroup","visible":true,"x":0,"y":0,"objects":[{"id":1,"name":"","type":"collision","rotation":0,"visible":true,"x":0.0,"y":0.0,"width":32.0,"height":32.0}]}},{"id":42,"properties":[{"name":"blob","type":"string","value":"floor-void"},{"name":"collides","type":"bool","value":true}],"objectgroup":{"draworder":"index","id":2,"name":"","opacity":1,"type":"objectgroup","visible":true,"x":0,"y":0,"objects":[{"id":1,"name":"","type":"collision","rotation":0,"visible":true,"x":0.0,"y":0.0,"width":32.0,"height":32.0}]}},{"id":43,"properties":[{"name":"blob","type":"string","value":"floor-void"},{"name":"collides","type":"bool","value":true}],"objectgroup":{"draworder":"index","id":2,"name":"","opacity":1,"type":"objectgroup","visible":true,"x":0,"y":0,"objects":[{"id":1,"name":"","type":"collision","rotation":0,"visible":true,"x":0.0,"y":0.0,"width":32.0,"height":32.0}]}},{"id":44,"properties":[{"name":"blob","type":"string","value":"floor-void"},{"name":"collides","type":"bool","value":true}],"objectgroup":{"draworder":"index","id":2,"name":"","opacity":1,"type":"objectgroup","visible":true,"x":0,"y":0,"objects":[{"id":1,"name":"","type":"collision","rotation":0,"visible":true,"x":0.0,"y":0.0,"width":32.0,"height":32.0}]}},{"id":45,"properties":[{"name":"blob","type":"string","value":"floor-void"},{"name":"collides","type":"bool","value":true}],"objectgroup":{"draworder":"index","id":2,"name":"","opacity":1,"type":"objectgroup","visible":true,"x":0,"y":0,"objects":[{"id":1,"name":"","type":"collision","rotation":0,"visible":true,"x":0.0,"y":0.0,"width":32.0,"height":32.0}]}},{"id":46,"properties":[{"name":"blob","type":"string","value":"floor-void"},{"name":"collides","type":"bool","value":true}],"objectgroup":{"draworder":"index","id":2,"name":"","opacity":1,"type":"objectgroup","visible":true,"x":0,"y":0,"objects":[{"id":1,"name":"","type":"collision","rotation":0,"visible":true,"x":0.0,"y":0.0,"width":32.0,"height":32.0}]}},{"id":47,"properties":[{"name":"blob","type":"string","value":"floor-void"},{"name":"collides","type":"bool","value":true}],"objectgroup":{"draworder":"index","id":2,"name":"","opacity":1,"type":"objectgroup","visible":true,"x":0,"y":0,"objects":[{"id":1,"name":"","type":"collision","rotation":0,"visible":true,"x":0.0,"y":0.0,"width":32.0,"height":32.0}]}},{"id":48,"properties":[{"name":"blob","type":"string","value":"floor-void"},{"name":"collides","type":"bool","value":true}],"objectgroup":{"draworder":"index","id":2,"name":"","opacity":1,"type":"objectgroup","visible":true,"x":0,"y":0,"objects":[{"id":1,"name":"","type":"collision","rotation":0,"visible":true,"x":0.0,"y":0.0,"width":32.0,"height":32.0}]}},{"id":49,"properties":[{"name":"blob","type":"string","value":"floor-void"},{"name":"collides","type":"bool","value":true}],"objectgroup":{"draworder":"index","id":2,"name":"","opacity":1,"type":"objectgroup","visible":true,"x":0,"y":0,"objects":[{"id":1,"name":"","type":"collision","rotation":0,"visible":true,"x":0.0,"y":0.0,"width":32.0,"height":32.0}]}},{"id":50,"properties":[{"name":"blob","type":"string","value":"floor-void"},{"name":"collides","type":"bool","value":true}],"objectgroup":{"draworder":"index","id":2,"name":"","opacity":1,"type":"objectgroup","visible":true,"x":0,"y":0,"objects":[{"id":1,"name":"","type":"collision","rotation":0,"visible":true,"x":0.0,"y":0.0,"width":32.0,"height":32.0}]}},{"id":51,"properties":[{"name":"blob","type":"string","value":"floor-void"},{"name":"collides","type":"bool","value":true}],"objectgroup":{"draworder":"index","id":2,"name":"","opacity":1,"type":"objectgroup","visible":true,"x":0,"y":0,"objects":[{"id":1,"name":"","type":"collision","rotation":0,"visible":true,"x":0.0,"y":0.0,"width":32.0,"height":32.0}]}},{"id":52,"properties":[{"name":"blob","type":"string","value":"floor-void"},{"name":"collides","type":"bool","value":true}],"objectgroup":{"draworder":"index","id":2,"name":"","opacity":1,"type":"objectgroup","visible":true,"x":0,"y":0,"objects":[{"id":1,"name":"","type":"collision","rotation":0,"visible":true,"x":0.0,"y":0.0,"width":32.0,"height":32.0}]}},{"id":53,"properties":[{"name":"blob","type":"string","value":"floor-void"},{"name":"collides","type":"bool","value":true}],"objectgroup":{"draworder":"index","id":2,"name":"","opacity":1,"type":"objectgroup","visible":true,"x":0,"y":0,"objects":[{"id":1,"name":"","type":"collision","rotation":0,"visible":true,"x":0.0,"y":0.0,"width":32.0,"height":32.0}]}},{"id":54,"properties":[{"name":"blob","type":"string","value":"floor-void"},{"name":"collides","type":"bool","value":true}],"objectgroup":{"draworder":"index","id":2,"name":"","opacity":1,"type":"objectgroup","visible":true,"x":0,"y":0,"objects":[{"id":1,"name":"","type":"collision","rotation":0,"visible":true,"x":0.0,"y":0.0,"width":32.0,"height":32.0}]}},{"id":55,"properties":[{"name":"blob","type":"string","value":"floor-void"},{"name":"collides","type":"bool","value":true}],"objectgroup":{"draworder":"index","id":2,"name":"","opacity":1,"type":"objectgroup","visible":true,"x":0,"y":0,"objects":[{"id":1,"name":"","type":"collision","rotation":0,"visible":true,"x":0.0,"y":0.0,"width":32.0,"height":32.0}]}},{"id":56,"properties":[{"name":"blob","type":"string","value":"floor-void"},{"name":"collides","type":"bool","value":true}],"objectgroup":{"draworder":"index","id":2,"name":"","opacity":1,"type":"objectgroup","visible":true,"x":0,"y":0,"objects":[{"id":1,"name":"","type":"collision","rotation":0,"visible":true,"x":0.0,"y":0.0,"width":32.0,"height":32.0}]}},{"id":57,"properties":[{"name":"blob","type":"string","value":"floor-void"},{"name":"collides","type":"bool","value":true}],"objectgroup":{"draworder":"index","id":2,"name":"","opacity":1,"type":"objectgroup","visible":true,"x":0,"y":0,"objects":[{"id":1,"name":"","type":"collision","rotation":0,"visible":true,"x":0.0,"y":0.0,"width":32.0,"height":32.0}]}},{"id":58,"properties":[{"name":"blob","type":"string","value":"floor-void"},{"name":"collides","type":"bool","value":true}],"objectgroup":{"draworder":"index","id":2,"name":"","opacity":1,"type":"objectgroup","visible":true,"x":0,"y":0,"objects":[{"id":1,"name":"","type":"collision","rotation":0,"visible":true,"x":0.0,"y":0.0,"width":32.0,"height":32.0}]}},{"id":59,"properties":[{"name":"blob","type":"string","value":"floor-void"},{"name":"collides","type":"bool","value":true}],"objectgroup":{"draworder":"index","id":2,"name":"","opacity":1,"type":"objectgroup","visible":true,"x":0,"y":0,"objects":[{"id":1,"name":"","type":"collision","rotation":0,"visible":true,"x":0.0,"y":0.0,"width":32.0,"height":32.0}]}},{"id":60,"properties":[{"name":"blob","type":"string","value":"floor-void"},{"name":"collides","type":"bool","value":true}],"objectgroup":{"draworder":"index","id":2,"name":"","opacity":1,"type":"objectgroup","visible":true,"x":0,"y":0,"objects":[{"id":1,"name":"","type":"collision","rotation":0,"visible":true,"x":0.0,"y":0.0,"width":32.0,"height":32.0}]}},{"id":61,"properties":[{"name":"blob","type":"string","value":"floor-void"},{"name":"collides","type":"bool","value":true}],"objectgroup":{"draworder":"index","id":2,"name":"","opacity":1,"type":"objectgroup","visible":true,"x":0,"y":0,"objects":[{"id":1,"name":"","type":"collision","rotation":0,"visible":true,"x":0.0,"y":0.0,"width":32.0,"height":32.0}]}},{"id":62,"properties":[{"name":"blob","type":"string","value":"floor-void"},{"name":"collides","type":"bool","value":true}],"objectgroup":{"draworder":"index","id":2,"name":"","opacity":1,"type":"objectgroup","visible":true,"x":0,"y":0,"objects":[{"id":1,"name":"","type":"collision","rotation":0,"visible":true,"x":0.0,"y":0.0,"width":32.0,"height":32.0}]}},{"id":64,"properties":[{"name":"blob","type":"string","value":"floor-dais"}]},{"id":65,"properties":[{"name":"blob","type":"string","value":"floor-dais"}]},{"id":66,"properties":[{"name":"blob","type":"string","value":"floor-dais"}]},{"id":67,"properties":[{"name":"blob","type":"string","value":"floor-dais"}]},{"id":68,"properties":[{"name":"blob","type":"string","value":"floor-dais"}]},{"id":69,"properties":[{"name":"blob","type":"string","value":"floor-dais"}]},{"id":70,"properties":[{"name":"blob","type":"string","value":"floor-dais"}]},{"id":71,"properties":[{"name":"blob","type":"string","value":"floor-dais"}]},{"id":72,"properties":[{"name":"blob","type":"string","value":"floor-dais"}]},{"id":73,"properties":[{"name":"blob","type":"string","value":"floor-dais"}]},{"id":74,"properties":[{"name":"blob","type":"string","value":"floor-dais"}]},{"id":75,"properties":[{"name":"blob","type":"string","value":"floor-dais"}]},{"id":76,"properties":[{"name":"blob","type":"string","value":"floor-dais"}]},{"id":77,"properties":[{"name":"blob","type":"string","value":"floor-dais"}]},{"id":78,"properties":[{"name":"blob","type":"string","value":"floor-dais"}]},{"id":79,"properties":[{"name":"blob","type":"string","value":"floor-dais"}]},{"id":80,"properties":[{"name":"blob","type":"string","value":"floor-dais"}]},{"id":81,"properties":[{"name":"blob","type":"string","value":"floor-dais"}]},{"id":82,"properties":[{"name":"blob","type":"string","value":"floor-dais"}]},{"id":83,"properties":[{"name":"blob","type":"string","value":"floor-dais"}]},{"id":84,"properties":[{"name":"blob","type":"string","value":"floor-dais"}]},{"id":85,"properties":[{"name":"blob","type":"string","value":"floor-dais"}]},{"id":86,"properties":[{"name":"blob","type":"string","value":"floor-dais"}]},{"id":87,"properties":[{"name":"blob","type":"string","value":"floor-dais"}]},{"id":88,"properties":[{"name":"blob","type":"string","value":"floor-dais"}]},{"id":89,"properties":[{"name":"blob","type":"string","value":"floor-dais"}]},{"id":90,"properties":[{"name":"blob","type":"string","value":"floor-dais"}]},{"id":91,"properties":[{"name":"blob","type":"string","value":"floor-dais"}]},{"id":92,"properties":[{"name":"blob","type":"string","value":"floor-dais"}]},{"id":93,"properties":[{"name":"blob","type":"string","value":"floor-dais"}]},{"id":94,"properties":[{"name":"blob","type":"string","value":"floor-dais"}]},{"id":95,"properties":[{"name":"blob","type":"string","value":"floor-dais"}]},{"id":96,"properties":[{"name":"blob","type":"string","value":"floor-dais"}]},{"id":97,"properties":[{"name":"blob","type":"string","value":"floor-dais"}]},{"id":98,"properties":[{"name":"blob","type":"string","value":"floor-dais"}]},{"id":99,"properties":[{"name":"blob","type":"string","value":"floor-dais"}]},{"id":100,"properties":[{"name":"blob","type":"string","value":"floor-dais"}]},{"id":101,"properties":[{"name":"blob","type":"string","value":"floor-dais"}]},{"id":102,"properties":[{"name":"blob","type":"string","value":"floor-dais"}]},{"id":103,"properties":[{"name":"blob","type":"string","value":"floor-dais"}]},{"id":104,"properties":[{"name":"blob","type":"string","value":"floor-dais"}]},{"id":105,"properties":[{"name":"blob","type":"string","value":"floor-dais"}]},{"id":106,"properties":[{"name":"blob","type":"string","value":"floor-dais"}]},{"id":107,"properties":[{"name":"blob","type":"string","value":"floor-dais"}]},{"id":108,"properties":[{"name":"blob","type":"string","value":"floor-dais"}]},{"id":109,"properties":[{"name":"blob","type":"string","value":"floor-dais"}]},{"id":110,"properties":[{"name":"blob","type":"string","value":"floor-dais"}]},{"id":112,"properties":[{"name":"blob","type":"string","value":"floor-roots"}]},{"id":113,"properties":[{"name":"blob","type":"string","value":"floor-roots"},{"name":"collides","type":"bool","value":true}],"objectgroup":{"draworder":"index","id":2,"name":"","opacity":1,"type":"objectgroup","visible":true,"x":0,"y":0,"objects":[{"id":1,"name":"","type":"collision","rotation":0,"visible":true,"x":0.0,"y":0.0,"width":16.0,"height":32.0}]}},{"id":114,"properties":[{"name":"blob","type":"string","value":"floor-roots"},{"name":"collides","type":"bool","value":true}],"objectgroup":{"draworder":"index","id":2,"name":"","opacity":1,"type":"objectgroup","visible":true,"x":0,"y":0,"objects":[{"id":1,"name":"","type":"collision","rotation":0,"visible":true,"x":0.0,"y":16.0,"width":32.0,"height":16.0}]}},{"id":115,"properties":[{"name":"blob","type":"string","value":"floor-roots"},{"name":"collides","type":"bool","value":true}],"objectgroup":{"draworder":"index","id":2,"name":"","opacity":1,"type":"objectgroup","visible":true,"x":0,"y":0,"objects":[{"id":1,"name":"","type":"collision","rotation":0,"visible":true,"x":16.0,"y":0.0,"width":16.0,"height":32.0}]}},{"id":116,"properties":[{"name":"blob","type":"string","value":"floor-roots"},{"name":"collides","type":"bool","value":true}],"objectgroup":{"draworder":"index","id":2,"name":"","opacity":1,"type":"objectgroup","visible":true,"x":0,"y":0,"objects":[{"id":1,"name":"","type":"collision","rotation":0,"visible":true,"x":0.0,"y":0.0,"width":32.0,"height":16.0}]}},{"id":117,"properties":[{"name":"blob","type":"string","value":"floor-roots"},{"name":"collides","type":"bool","value":true}],"objectgroup":{"draworder":"index","id":2,"name":"","opacity":1,"type":"objectgroup","visible":true,"x":0,"y":0,"objects":[{"id":1,"name":"","type":"collision","rotation":0,"visible":true,"x":0.0,"y":16.0,"width":32.0,"height":16.0},{"id":2,"name":"","type":"collision","rotation":0,"visible":true,"x":0.0,"y":0.0,"width":16.0,"height":16.0}]}},{"id":118,"properties":[{"name":"blob","type":"string","value":"floor-roots"},{"name":"collides","type":"bool","value":true}],"objectgroup":{"draworder":"index","id":2,"name":"","opacity":1,"type":"objectgroup","visible":true,"x":0,"y":0,"objects":[{"id":1,"name":"","type":"collision","rotation":0,"visible":true,"x":0.0,"y":0.0,"width":32.0,"height":32.0}]}},{"id":119,"properties":[{"name":"blob","type":"string","value":"floor-roots"},{"name":"collides","type":"bool","value":true}],"objectgroup":{"draworder":"index","id":2,"name":"","opacity":1,"type":"objectgroup","visible":true,"x":0,"y":0,"objects":[{"id":1,"name":"","type":"collision","rotation":0,"visible":true,"x":0.0,"y":16.0,"width":32.0,"height":16.0},{"id":2,"name":"","type":"collision","rotation":0,"visible":true,"x":16.0,"y":0.0,"width":16.0,"height":16.0}]}},{"id":120,"properties":[{"name":"blob","type":"string","value":"floor-roots"},{"name":"collides","type":"bool","value":true}],"objectgroup":{"draworder":"index","id":2,"name":"","opacity":1,"type":"objectgroup","visible":true,"x":0,"y":0,"objects":[{"id":1,"name":"","type":"collision","rotation":0,"visible":true,"x":0.0,"y":0.0,"width":32.0,"height":16.0},{"id":2,"name":"","type":"collision","rotation":0,"visible":true,"x":0.0,"y":16.0,"width":16.0,"height":16.0}]}},{"id":121,"properties":[{"name":"blob","type":"string","value":"floor-roots"},{"name":"collides","type":"bool","value":true}],"objectgroup":{"draworder":"index","id":2,"name":"","opacity":1,"type":"objectgroup","visible":true,"x":0,"y":0,"objects":[{"id":1,"name":"","type":"collision","rotation":0,"visible":true,"x":0.0,"y":0.0,"width":32.0,"height":32.0}]}},{"id":122,"properties":[{"name":"blob","type":"string","value":"floor-roots"},{"name":"collides","type":"bool","value":true}],"objectgroup":{"draworder":"index","id":2,"name":"","opacity":1,"type":"objectgroup","visible":true,"x":0,"y":0,"objects":[{"id":1,"name":"","type":"collision","rotation":0,"visible":true,"x":0.0,"y":0.0,"width":32.0,"height":16.0},{"id":2,"name":"","type":"collision","rotation":0,"visible":true,"x":16.0,"y":16.0,"width":16.0,"height":16.0}]}},{"id":123,"properties":[{"name":"blob","type":"string","value":"floor-roots"},{"name":"collides","type":"bool","value":true}],"objectgroup":{"draworder":"index","id":2,"name":"","opacity":1,"type":"objectgroup","visible":true,"x":0,"y":0,"objects":[{"id":1,"name":"","type":"collision","rotation":0,"visible":true,"x":0.0,"y":16.0,"width":32.0,"height":16.0},{"id":2,"name":"","type":"collision","rotation":0,"visible":true,"x":0.0,"y":0.0,"width":16.0,"height":16.0}]}},{"id":124,"properties":[{"name":"blob","type":"string","value":"floor-roots"},{"name":"collides","type":"bool","value":true}],"objectgroup":{"draworder":"index","id":2,"name":"","opacity":1,"type":"objectgroup","visible":true,"x":0,"y":0,"objects":[{"id":1,"name":"","type":"collision","rotation":0,"visible":true,"x":0.0,"y":0.0,"width":32.0,"height":32.0}]}},{"id":125,"properties":[{"name":"blob","type":"string","value":"floor-roots"},{"name":"collides","type":"bool","value":true}],"objectgroup":{"draworder":"index","id":2,"name":"","opacity":1,"type":"objectgroup","visible":true,"x":0,"y":0,"objects":[{"id":1,"name":"","type":"collision","rotation":0,"visible":true,"x":0.0,"y":16.0,"width":32.0,"height":16.0},{"id":2,"name":"","type":"collision","rotation":0,"visible":true,"x":16.0,"y":0.0,"width":16.0,"height":16.0}]}},{"id":126,"properties":[{"name":"blob","type":"string","value":"floor-roots"},{"name":"collides","type":"bool","value":true}],"objectgroup":{"draworder":"index","id":2,"name":"","opacity":1,"type":"objectgroup","visible":true,"x":0,"y":0,"objects":[{"id":1,"name":"","type":"collision","rotation":0,"visible":true,"x":0.0,"y":0.0,"width":32.0,"height":16.0},{"id":2,"name":"","type":"collision","rotation":0,"visible":true,"x":0.0,"y":16.0,"width":16.0,"height":16.0}]}},{"id":127,"properties":[{"name":"blob","type":"string","value":"floor-roots"},{"name":"collides","type":"bool","value":true}],"objectgroup":{"draworder":"index","id":2,"name":"","opacity":1,"type":"objectgroup","visible":true,"x":0,"y":0,"objects":[{"id":1,"name":"","type":"collision","rotation":0,"visible":true,"x":0.0,"y":0.0,"width":32.0,"height":32.0}]}},{"id":128,"properties":[{"name":"blob","type":"string","value":"floor-roots"},{"name":"collides","type":"bool","value":true}],"objectgroup":{"draworder":"index","id":2,"name":"","opacity":1,"type":"objectgroup","visible":true,"x":0,"y":0,"objects":[{"id":1,"name":"","type":"collision","rotation":0,"visible":true,"x":0.0,"y":0.0,"width":32.0,"height":32.0}]}},{"id":129,"properties":[{"name":"blob","type":"string","value":"floor-roots"},{"name":"collides","type":"bool","value":true}],"objectgroup":{"draworder":"index","id":2,"name":"","opacity":1,"type":"objectgroup","visible":true,"x":0,"y":0,"objects":[{"id":1,"name":"","type":"collision","rotation":0,"visible":true,"x":0.0,"y":0.0,"width":32.0,"height":32.0}]}},{"id":130,"properties":[{"name":"blob","type":"string","value":"floor-roots"},{"name":"collides","type":"bool","value":true}],"objectgroup":{"draworder":"index","id":2,"name":"","opacity":1,"type":"objectgroup","visible":true,"x":0,"y":0,"objects":[{"id":1,"name":"","type":"collision","rotation":0,"visible":true,"x":0.0,"y":0.0,"width":32.0,"height":16.0},{"id":2,"name":"","type":"collision","rotation":0,"visible":true,"x":16.0,"y":16.0,"width":16.0,"height":16.0}]}},{"id":131,"properties":[{"name":"blob","type":"string","value":"floor-roots"},{"name":"collides","type":"bool","value":true}],"objectgroup":{"draworder":"index","id":2,"name":"","opacity":1,"type":"objectgroup","visible":true,"x":0,"y":0,"objects":[{"id":1,"name":"","type":"collision","rotation":0,"visible":true,"x":0.0,"y":0.0,"width":32.0,"height":32.0}]}},{"id":132,"properties":[{"name":"blob","type":"string","value":"floor-roots"},{"name":"collides","type":"bool","value":true}],"objectgroup":{"draworder":"index","id":2,"name":"","opacity":1,"type":"objectgroup","visible":true,"x":0,"y":0,"objects":[{"id":1,"name":"","type":"collision","rotation":0,"visible":true,"x":0.0,"y":0.0,"width":32.0,"height":32.0}]}},{"id":133,"properties":[{"name":"blob","type":"string","value":"floor-roots"},{"name":"collides","type":"bool","value":true}],"objectgroup":{"draworder":"index","id":2,"name":"","opacity":1,"type":"objectgroup","visible":true,"x":0,"y":0,"objects":[{"id":1,"name":"","type":"collision","rotation":0,"visible":true,"x":0.0,"y":0.0,"width":32.0,"height":32.0}]}},{"id":134,"properties":[{"name":"blob","type":"string","value":"floor-roots"},{"name":"collides","type":"bool","value":true}],"objectgroup":{"draworder":"index","id":2,"name":"","opacity":1,"type":"objectgroup","visible":true,"x":0,"y":0,"objects":[{"id":1,"name":"","type":"collision","rotation":0,"visible":true,"x":0.0,"y":0.0,"width":32.0,"height":32.0}]}},{"id":135,"properties":[{"name":"blob","type":"string","value":"floor-roots"},{"name":"collides","type":"bool","value":true}],"objectgroup":{"draworder":"index","id":2,"name":"","opacity":1,"type":"objectgroup","visible":true,"x":0,"y":0,"objects":[{"id":1,"name":"","type":"collision","rotation":0,"visible":true,"x":0.0,"y":0.0,"width":32.0,"height":32.0}]}},{"id":136,"properties":[{"name":"blob","type":"string","value":"floor-roots"},{"name":"collides","type":"bool","value":true}],"objectgroup":{"draworder":"index","id":2,"name":"","opacity":1,"type":"objectgroup","visible":true,"x":0,"y":0,"objects":[{"id":1,"name":"","type":"collision","rotation":0,"visible":true,"x":0.0,"y":0.0,"width":32.0,"height":32.0}]}},{"id":137,"properties":[{"name":"blob","type":"string","value":"floor-roots"},{"name":"collides","type":"bool","value":true}],"objectgroup":{"draworder":"index","id":2,"name":"","opacity":1,"type":"objectgroup","visible":true,"x":0,"y":0,"objects":[{"id":1,"name":"","type":"collision","rotation":0,"visible":true,"x":0.0,"y":0.0,"width":32.0,"height":32.0}]}},{"id":138,"properties":[{"name":"blob","type":"string","value":"floor-roots"},{"name":"collides","type":"bool","value":true}],"objectgroup":{"draworder":"index","id":2,"name":"","opacity":1,"type":"objectgroup","visible":true,"x":0,"y":0,"objects":[{"id":1,"name":"","type":"collision","rotation":0,"visible":true,"x":0.0,"y":0.0,"width":32.0,"height":32.0}]}},{"id":139,"properties":[{"name":"blob","type":"string","value":"floor-roots"},{"name":"collides","type":"bool","value":true}],"objectgroup":{"draworder":"index","id":2,"name":"","opacity":1,"type":"objectgroup","visible":true,"x":0,"y":0,"objects":[{"id":1,"name":"","type":"collision","rotation":0,"visible":true,"x":0.0,"y":0.0,"width":32.0,"height":32.0}]}},{"id":140,"properties":[{"name":"blob","type":"string","value":"floor-roots"},{"name":"collides","type":"bool","value":true}],"objectgroup":{"draworder":"index","id":2,"name":"","opacity":1,"type":"objectgroup","visible":true,"x":0,"y":0,"objects":[{"id":1,"name":"","type":"collision","rotation":0,"visible":true,"x":0.0,"y":0.0,"width":32.0,"height":32.0}]}},{"id":141,"properties":[{"name":"blob","type":"string","value":"floor-roots"},{"name":"collides","type":"bool","value":true}],"objectgroup":{"draworder":"index","id":2,"name":"","opacity":1,"type":"objectgroup","visible":true,"x":0,"y":0,"objects":[{"id":1,"name":"","type":"collision","rotation":0,"visible":true,"x":0.0,"y":0.0,"width":32.0,"height":32.0}]}},{"id":142,"properties":[{"name":"blob","type":"string","value":"floor-roots"},{"name":"collides","type":"bool","value":true}],"objectgroup":{"draworder":"index","id":2,"name":"","opacity":1,"type":"objectgroup","visible":true,"x":0,"y":0,"objects":[{"id":1,"name":"","type":"collision","rotation":0,"visible":true,"x":0.0,"y":0.0,"width":32.0,"height":32.0}]}},{"id":143,"properties":[{"name":"blob","type":"string","value":"floor-roots"},{"name":"collides","type":"bool","value":true}],"objectgroup":{"draworder":"index","id":2,"name":"","opacity":1,"type":"objectgroup","visible":true,"x":0,"y":0,"objects":[{"id":1,"name":"","type":"collision","rotation":0,"visible":true,"x":0.0,"y":0.0,"width":32.0,"height":32.0}]}},{"id":144,"properties":[{"name":"blob","type":"string","value":"floor-roots"},{"name":"collides","type":"bool","value":true}],"objectgroup":{"draworder":"index","id":2,"name":"","opacity":1,"type":"objectgroup","visible":true,"x":0,"y":0,"objects":[{"id":1,"name":"","type":"collision","rotation":0,"visible":true,"x":0.0,"y":0.0,"width":32.0,"height":32.0}]}},{"id":145,"properties":[{"name":"blob","type":"string","value":"floor-roots"},{"name":"collides","type":"bool","value":true}],"objectgroup":{"draworder":"index","id":2,"name":"","opacity":1,"type":"objectgroup","visible":true,"x":0,"y":0,"objects":[{"id":1,"name":"","type":"collision","rotation":0,"visible":true,"x":0.0,"y":0.0,"width":32.0,"height":32.0}]}},{"id":146,"properties":[{"name":"blob","type":"string","value":"floor-roots"},{"name":"collides","type":"bool","value":true}],"objectgroup":{"draworder":"index","id":2,"name":"","opacity":1,"type":"objectgroup","visible":true,"x":0,"y":0,"objects":[{"id":1,"name":"","type":"collision","rotation":0,"visible":true,"x":0.0,"y":0.0,"width":32.0,"height":32.0}]}},{"id":147,"properties":[{"name":"blob","type":"string","value":"floor-roots"},{"name":"collides","type":"bool","value":true}],"objectgroup":{"draworder":"index","id":2,"name":"","opacity":1,"type":"objectgroup","visible":true,"x":0,"y":0,"objects":[{"id":1,"name":"","type":"collision","rotation":0,"visible":true,"x":0.0,"y":0.0,"width":32.0,"height":32.0}]}},{"id":148,"properties":[{"name":"blob","type":"string","value":"floor-roots"},{"name":"collides","type":"bool","value":true}],"objectgroup":{"draworder":"index","id":2,"name":"","opacity":1,"type":"objectgroup","visible":true,"x":0,"y":0,"objects":[{"id":1,"name":"","type":"collision","rotation":0,"visible":true,"x":0.0,"y":0.0,"width":32.0,"height":32.0}]}},{"id":149,"properties":[{"name":"blob","type":"string","value":"floor-roots"},{"name":"collides","type":"bool","value":true}],"objectgroup":{"draworder":"index","id":2,"name":"","opacity":1,"type":"objectgroup","visible":true,"x":0,"y":0,"objects":[{"id":1,"name":"","type":"collision","rotation":0,"visible":true,"x":0.0,"y":0.0,"width":32.0,"height":32.0}]}},{"id":150,"properties":[{"name":"blob","type":"string","value":"floor-roots"},{"name":"collides","type":"bool","value":true}],"objectgroup":{"draworder":"index","id":2,"name":"","opacity":1,"type":"objectgroup","visible":true,"x":0,"y":0,"objects":[{"id":1,"name":"","type":"collision","rotation":0,"visible":true,"x":0.0,"y":0.0,"width":32.0,"height":32.0}]}},{"id":151,"properties":[{"name":"blob","type":"string","value":"floor-roots"},{"name":"collides","type":"bool","value":true}],"objectgroup":{"draworder":"index","id":2,"name":"","opacity":1,"type":"objectgroup","visible":true,"x":0,"y":0,"objects":[{"id":1,"name":"","type":"collision","rotation":0,"visible":true,"x":0.0,"y":0.0,"width":32.0,"height":32.0}]}},{"id":152,"properties":[{"name":"blob","type":"string","value":"floor-roots"},{"name":"collides","type":"bool","value":true}],"objectgroup":{"draworder":"index","id":2,"name":"","opacity":1,"type":"objectgroup","visible":true,"x":0,"y":0,"objects":[{"id":1,"name":"","type":"collision","rotation":0,"visible":true,"x":0.0,"y":0.0,"width":32.0,"height":32.0}]}},{"id":153,"properties":[{"name":"blob","type":"string","value":"floor-roots"},{"name":"collides","type":"bool","value":true}],"objectgroup":{"draworder":"index","id":2,"name":"","opacity":1,"type":"objectgroup","visible":true,"x":0,"y":0,"objects":[{"id":1,"name":"","type":"collision","rotation":0,"visible":true,"x":0.0,"y":0.0,"width":32.0,"height":32.0}]}},{"id":154,"properties":[{"name":"blob","type":"string","value":"floor-roots"},{"name":"collides","type":"bool","value":true}],"objectgroup":{"draworder":"index","id":2,"name":"","opacity":1,"type":"objectgroup","visible":true,"x":0,"y":0,"objects":[{"id":1,"name":"","type":"collision","rotation":0,"visible":true,"x":0.0,"y":0.0,"width":32.0,"height":32.0}]}},{"id":155,"properties":[{"name":"blob","type":"string","value":"floor-roots"},{"name":"collides","type":"bool","value":true}],"objectgroup":{"draworder":"index","id":2,"name":"","opacity":1,"type":"objectgroup","visible":true,"x":0,"y":0,"objects":[{"id":1,"name":"","type":"collision","rotation":0,"visible":true,"x":0.0,"y":0.0,"width":32.0,"height":32.0}]}},{"id":156,"properties":[{"name":"blob","type":"string","value":"floor-roots"},{"name":"collides","type":"bool","value":true}],"objectgroup":{"draworder":"index","id":2,"name":"","opacity":1,"type":"objectgroup","visible":true,"x":0,"y":0,"objects":[{"id":1,"name":"","type":"collision","rotation":0,"visible":true,"x":0.0,"y":0.0,"width":32.0,"height":32.0}]}},{"id":157,"properties":[{"name":"blob","type":"string","value":"floor-roots"},{"name":"collides","type":"bool","value":true}],"objectgroup":{"draworder":"index","id":2,"name":"","opacity":1,"type":"objectgroup","visible":true,"x":0,"y":0,"objects":[{"id":1,"name":"","type":"collision","rotation":0,"visible":true,"x":0.0,"y":0.0,"width":32.0,"height":32.0}]}},{"id":158,"properties":[{"name":"blob","type":"string","value":"floor-roots"},{"name":"collides","type":"bool","value":true}],"objectgroup":{"draworder":"index","id":2,"name":"","opacity":1,"type":"objectgroup","visible":true,"x":0,"y":0,"objects":[{"id":1,"name":"","type":"collision","rotation":0,"visible":true,"x":0.0,"y":0.0,"width":32.0,"height":32.0}]}},{"id":192,"properties":[{"name":"collides","type":"bool","value":true},{"name":"prop","type":"string","value":"orb_pylon"}],"objectgroup":{"draworder":"index","id":2,"name":"","opacity":1,"type":"objectgroup","visible":true,"x":0,"y":0,"objects":[{"id":1,"name":"","type":"collision","rotation":0,"visible":true,"x":2.0,"y":2.0,"width":30.0,"height":30.0}]}},{"id":193,"properties":[{"name":"collides","type":"bool","value":true},{"name":"prop","type":"string","value":"orb_pylon_large"}],"objectgroup":{"draworder":"index","id":2,"name":"","opacity":1,"type":"objectgroup","visible":true,"x":0,"y":0,"objects":[{"id":1,"name":"","type":"collision","rotation":0,"visible":true,"x":2.0,"y":2.0,"width":30.0,"height":30.0}]}},{"id":194,"properties":[{"name":"collides","type":"bool","value":true},{"name":"prop","type":"string","value":"orb_pylon_large"}],"objectgroup":{"draworder":"index","id":2,"name":"","opacity":1,"type":"objectgroup","visible":true,"x":0,"y":0,"objects":[{"id":1,"name":"","type":"collision","rotation":0,"visible":true,"x":0.0,"y":2.0,"width":32.0,"height":30.0}]}},{"id":195,"properties":[{"name":"collides","type":"bool","value":true},{"name":"prop","type":"string","value":"core_terminal"}],"objectgroup":{"draworder":"index","id":2,"name":"","opacity":1,"type":"objectgroup","visible":true,"x":0,"y":0,"objects":[{"id":1,"name":"","type":"collision","rotation":0,"visible":true,"x":4.0,"y":2.0,"width":26.0,"height":30.0}]}},{"id":196,"properties":[{"name":"collides","type":"bool","value":true},{"name":"prop","type":"string","value":"core_console"}],"objectgroup":{"draworder":"index","id":2,"name":"","opacity":1,"type":"objectgroup","visible":true,"x":0,"y":0,"objects":[{"id":1,"name":"","type":"collision","rotation":0,"visible":true,"x":1.0,"y":3.0,"width":31.0,"height":29.0}]}},{"id":197,"properties":[{"name":"collides","type":"bool","value":true},{"name":"prop","type":"string","value":"core_console"}],"objectgroup":{"draworder":"index","id":2,"name":"","opacity":1,"type":"objectgroup","visible":true,"x":0,"y":0,"objects":[{"id":1,"name":"","type":"collision","rotation":0,"visible":true,"x":0.0,"y":3.0,"width":32.0,"height":29.0}]}},{"id":198,"properties":[{"name":"collides","type":"bool","value":true},{"name":"prop","type":"string","value":"data_crystals"}],"objectgroup":{"draworder":"index","id":2,"name":"","opacity":1,"type":"objectgroup","visible":true,"x":0,"y":0,"objects":[{"id":1,"name":"","type":"collision","rotation":0,"visible":true,"x":4.0,"y":5.0,"width":27.0,"height":27.0}]}},{"id":199,"properties":[{"name":"collides","type":"bool","value":true},{"name":"prop","type":"string","value":"gold_glyph_stone"}],"objectgroup":{"draworder":"index","id":2,"name":"","opacity":1,"type":"objectgroup","visible":true,"x":0,"y":0,"objects":[{"id":1,"name":"","type":"collision","rotation":0,"visible":true,"x":4.0,"y":4.0,"width":26.0,"height":27.0}]}},{"id":200,"properties":[{"name":"collides","type":"bool","value":true},{"name":"prop","type":"string","value":"lattice_panel"}],"objectgroup":{"draworder":"index","id":2,"name":"","opacity":1,"type":"objectgroup","visible":true,"x":0,"y":0,"objects":[{"id":1,"name":"","type":"collision","rotation":0,"visible":true,"x":5.0,"y":0.0,"width":24.0,"height":32.0}]}},{"id":201,"properties":[{"name":"collides","type":"bool","value":true},{"name":"prop","type":"string","value":"sealed_door"}],"objectgroup":{"draworder":"index","id":2,"name":"","opacity":1,"type":"objectgroup","visible":true,"x":0,"y":0,"objects":[{"id":1,"name":"","type":"collision","rotation":0,"visible":true,"x":0.0,"y":3.0,"width":32.0,"height":29.0}]}},{"id":202,"properties":[{"name":"collides","type":"bool","value":true},{"name":"prop","type":"string","value":"sealed_door"}],"objectgroup":{"draworder":"index","id":2,"name":"","opacity":1,"type":"objectgroup","visible":true,"x":0,"y":0,"objects":[{"id":1,"name":"","type":"collision","rotation":0,"visible":true,"x":0.0,"y":3.0,"width":32.0,"height":29.0}]}},{"id":203,"properties":[{"name":"collides","type":"bool","value":true},{"name":"prop","type":"string","value":"sealed_door"}],"objectgroup":{"draworder":"index","id":2,"name":"","opacity":1,"type":"objectgroup","visible":true,"x":0,"y":0,"objects":[{"id":1,"name":"","type":"collision","rotation":0,"visible":true,"x":0.0,"y":3.0,"width":32.0,"height":29.0}]}},{"id":204,"properties":[{"name":"collides","type":"bool","value":true},{"name":"prop","type":"string","value":"root_bulb"}],"objectgroup":{"draworder":"index","id":2,"name":"","opacity":1,"type":"objectgroup","visible":true,"x":0,"y":0,"objects":[{"id":1,"name":"","type":"collision","rotation":0,"visible":true,"x":0.0,"y":7.0,"width":32.0,"height":25.0}]}},{"id":205,"properties":[{"name":"collides","type":"bool","value":true},{"name":"prop","type":"string","value":"conduit_junction"}],"objectgroup":{"draworder":"index","id":2,"name":"","opacity":1,"type":"objectgroup","visible":true,"x":0,"y":0,"objects":[{"id":1,"name":"","type":"collision","rotation":0,"visible":true,"x":6.0,"y":6.0,"width":22.0,"height":23.0}]}},{"id":206,"properties":[{"name":"collides","type":"bool","value":true},{"name":"prop","type":"string","value":"drone_wreck"}],"objectgroup":{"draworder":"index","id":2,"name":"","opacity":1,"type":"objectgroup","visible":true,"x":0,"y":0,"objects":[{"id":1,"name":"","type":"collision","rotation":0,"visible":true,"x":3.0,"y":3.0,"width":29.0,"height":29.0}]}},{"id":207,"properties":[{"name":"collides","type":"bool","value":true},{"name":"prop","type":"string","value":"energy_brazier"}],"objectgroup":{"draworder":"index","id":2,"name":"","opacity":1,"type":"objectgroup","visible":true,"x":0,"y":0,"objects":[{"id":1,"name":"","type":"collision","rotation":0,"visible":true,"x":4.0,"y":5.0,"width":26.0,"height":27.0}]}},{"id":208,"properties":[{"name":"collides","type":"bool","value":true},{"name":"prop","type":"string","value":"broken_pillar"}],"objectgroup":{"draworder":"index","id":2,"name":"","opacity":1,"type":"objectgroup","visible":true,"x":0,"y":0,"objects":[{"id":1,"name":"","type":"collision","rotation":0,"visible":true,"x":3.0,"y":3.0,"width":28.0,"height":29.0}]}},{"id":209,"properties":[{"name":"collides","type":"bool","value":true},{"name":"prop","type":"string","value":"orb_pylon_large"}],"objectgroup":{"draworder":"index","id":2,"name":"","opacity":1,"type":"objectgroup","visible":true,"x":0,"y":0,"objects":[{"id":1,"name":"","type":"collision","rotation":0,"visible":true,"x":2.0,"y":0.0,"width":30.0,"height":32.0}]}},{"id":210,"properties":[{"name":"collides","type":"bool","value":true},{"name":"prop","type":"string","value":"orb_pylon_large"}],"objectgroup":{"draworder":"index","id":2,"name":"","opacity":1,"type":"objectgroup","visible":true,"x":0,"y":0,"objects":[{"id":1,"name":"","type":"collision","rotation":0,"visible":true,"x":0.0,"y":0.0,"width":32.0,"height":32.0}]}},{"id":211,"properties":[{"name":"collides","type":"bool","value":true},{"name":"prop","type":"string","value":"memory_pedestal"}],"objectgroup":{"draworder":"index","id":2,"name":"","opacity":1,"type":"objectgroup","visible":true,"x":0,"y":0,"objects":[{"id":1,"name":"","type":"collision","rotation":0,"visible":true,"x":5.0,"y":1.0,"width":24.0,"height":31.0}]}},{"id":212,"properties":[{"name":"prop","type":"string","value":"floor_ring_marker"}]},{"id":213,"properties":[{"name":"prop","type":"string","value":"floor_ring_marker"}]},{"id":216,"properties":[{"name":"collides","type":"bool","value":true},{"name":"prop","type":"string","value":"lattice_panel"}],"objectgroup":{"draworder":"index","id":2,"name":"","opacity":1,"type":"objectgroup","visible":true,"x":0,"y":0,"objects":[{"id":1,"name":"","type":"collision","rotation":0,"visible":true,"x":5.0,"y":0.0,"width":24.0,"height":32.0}]}},{"id":228,"properties":[{"name":"prop","type":"string","value":"floor_ring_marker"}]},{"id":229,"properties":[{"name":"prop","type":"string","value":"floor_ring_marker"}]}],"wangsets":[{"name":"floor-void","type":"mixed","tile":62,"colors":[{"name":"floor","color":"#3070ff","tile":16,"probability":1.0},{"name":"void","color":"#ff3070","tile":62,"probability":1.0}],"wangtiles":[{"tileid":16,"wangid":[1,1,1,1,1,1,1,1]},{"tileid":17,"wangid":[1,1,1,1,1,1,2,1]},{"tileid":18,"wangid":[1,1,1,1,2,1,1,1]},{"tileid":19,"wangid":[1,1,2,1,1,1,1,1]},{"tileid":20,"wangid":[2,1,1,1,1,1,1,1]},{"tileid":21,"wangid":[1,1,1,1,2,1,2,1]},{"tileid":22,"wangid":[1,1,2,1,1,1,2,1]},{"tileid":23,"wangid":[1,1,2,1,2,1,1,1]},{"tileid":24,"wangid":[2,1,1,1,1,1,2,1]},{"tileid":25,"wangid":[2,1,1,1,2,1,1,1]},{"tileid":26,"wangid":[2,1,2,1,1,1,1,1]},{"tileid":27,"wangid":[1,1,1,1,2,2,2,1]},{"tileid":28,"wangid":[1,1,2,1,2,1,2,1]},{"tileid":29,"wangid":[1,1,2,2,2,1,1,1]},{"tileid":30,"wangid":[2,1,1,1,1,1,2,2]},{"tileid":31,"wangid":[2,1,1,1,2,1,2,1]},{"tileid":32,"wangid":[2,1,2,1,1,1,2,1]},{"tileid":33,"wangid":[2,1,2,1,2,1,1,1]},{"tileid":34,"wangid":[2,2,2,1,1,1,1,1]},{"tileid":35,"wangid":[1,1,2,1,2,2,2,1]},{"tileid":36,"wangid":[1,1,2,2,2,1,2,1]},{"tileid":37,"wangid":[2,1,1,1,2,1,2,2]},{"tileid":38,"wangid":[2,1,1,1,2,2,2,1]},{"tileid":39,"wangid":[2,1,2,1,1,1,2,2]},{"tileid":40,"wangid":[2,1,2,1,2,1,2,1]},{"tileid":41,"wangid":[2,1,2,2,2,1,1,1]},{"tileid":42,"wangid":[2,2,2,1,1,1,2,1]},{"tileid":43,"wangid":[2,2,2,1,2,1,1,1]},{"tileid":44,"wangid":[1,1,2,2,2,2,2,1]},{"tileid":45,"wangid":[2,1,1,1,2,2,2,2]},{"tileid":46,"wangid":[2,1,2,1,2,1,2,2]},{"tileid":47,"wangid":[2,1,2,1,2,2,2,1]},{"tileid":48,"wangid":[2,1,2,2,2,1,2,1]},{"tileid":49,"wangid":[2,2,2,1,1,1,2,2]},{"tileid":50,"wangid":[2,2,2,1,2,1,2,1]},{"tileid":51,"wangid":[2,2,2,2,2,1,1,1]},{"tileid":52,"wangid":[2,1,2,1,2,2,2,2]},{"tileid":53,"wangid":[2,1,2,2,2,1,2,2]},{"tileid":54,"wangid":[2,1,2,2,2,2,2,1]},{"tileid":55,"wangid":[2,2,2,1,2,1,2,2]},{"tileid":56,"wangid":[2,2,2,1,2,2,2,1]},{"tileid":57,"wangid":[2,2,2,2,2,1,2,1]},{"tileid":58,"wangid":[2,1,2,2,2,2,2,2]},{"tileid":59,"wangid":[2,2,2,1,2,2,2,2]},{"tileid":60,"wangid":[2,2,2,2,2,1,2,2]},{"tileid":61,"wangid":[2,2,2,2,2,2,2,1]},{"tileid":62,"wangid":[2,2,2,2,2,2,2,2]},{"tileid":1,"wangid":[1,1,1,1,1,1,1,1]},{"tileid":2,"wangid":[1,1,1,1,1,1,1,1]},{"tileid":3,"wangid":[1,1,1,1,1,1,1,1]},{"tileid":4,"wangid":[1,1,1,1,1,1,1,1]},{"tileid":5,"wangid":[1,1,1,1,1,1,1,1]},{"tileid":13,"wangid":[2,2,2,2,2,2,2,2]}]},{"name":"floor-dais","type":"mixed","tile":110,"colors":[{"name":"floor","color":"#3070ff","tile":64,"probability":1.0},{"name":"dais","color":"#ff3070","tile":110,"probability":1.0}],"wangtiles":[{"tileid":64,"wangid":[1,1,1,1,1,1,1,1]},{"tileid":65,"wangid":[1,1,1,1,1,1,2,1]},{"tileid":66,"wangid":[1,1,1,1,2,1,1,1]},{"tileid":67,"wangid":[1,1,2,1,1,1,1,1]},{"tileid":68,"wangid":[2,1,1,1,1,1,1,1]},{"tileid":69,"wangid":[1,1,1,1,2,1,2,1]},{"tileid":70,"wangid":[1,1,2,1,1,1,2,1]},{"tileid":71,"wangid":[1,1,2,1,2,1,1,1]},{"tileid":72,"wangid":[2,1,1,1,1,1,2,1]},{"tileid":73,"wangid":[2,1,1,1,2,1,1,1]},{"tileid":74,"wangid":[2,1,2,1,1,1,1,1]},{"tileid":75,"wangid":[1,1,1,1,2,2,2,1]},{"tileid":76,"wangid":[1,1,2,1,2,1,2,1]},{"tileid":77,"wangid":[1,1,2,2,2,1,1,1]},{"tileid":78,"wangid":[2,1,1,1,1,1,2,2]},{"tileid":79,"wangid":[2,1,1,1,2,1,2,1]},{"tileid":80,"wangid":[2,1,2,1,1,1,2,1]},{"tileid":81,"wangid":[2,1,2,1,2,1,1,1]},{"tileid":82,"wangid":[2,2,2,1,1,1,1,1]},{"tileid":83,"wangid":[1,1,2,1,2,2,2,1]},{"tileid":84,"wangid":[1,1,2,2,2,1,2,1]},{"tileid":85,"wangid":[2,1,1,1,2,1,2,2]},{"tileid":86,"wangid":[2,1,1,1,2,2,2,1]},{"tileid":87,"wangid":[2,1,2,1,1,1,2,2]},{"tileid":88,"wangid":[2,1,2,1,2,1,2,1]},{"tileid":89,"wangid":[2,1,2,2,2,1,1,1]},{"tileid":90,"wangid":[2,2,2,1,1,1,2,1]},{"tileid":91,"wangid":[2,2,2,1,2,1,1,1]},{"tileid":92,"wangid":[1,1,2,2,2,2,2,1]},{"tileid":93,"wangid":[2,1,1,1,2,2,2,2]},{"tileid":94,"wangid":[2,1,2,1,2,1,2,2]},{"tileid":95,"wangid":[2,1,2,1,2,2,2,1]},{"tileid":96,"wangid":[2,1,2,2,2,1,2,1]},{"tileid":97,"wangid":[2,2,2,1,1,1,2,2]},{"tileid":98,"wangid":[2,2,2,1,2,1,2,1]},{"tileid":99,"wangid":[2,2,2,2,2,1,1,1]},{"tileid":100,"wangid":[2,1,2,1,2,2,2,2]},{"tileid":101,"wangid":[2,1,2,2,2,1,2,2]},{"tileid":102,"wangid":[2,1,2,2,2,2,2,1]},{"tileid":103,"wangid":[2,2,2,1,2,1,2,2]},{"tileid":104,"wangid":[2,2,2,1,2,2,2,1]},{"tileid":105,"wangid":[2,2,2,2,2,1,2,1]},{"tileid":106,"wangid":[2,1,2,2,2,2,2,2]},{"tileid":107,"wangid":[2,2,2,1,2,2,2,2]},{"tileid":108,"wangid":[2,2,2,2,2,1,2,2]},{"tileid":109,"wangid":[2,2,2,2,2,2,2,1]},{"tileid":110,"wangid":[2,2,2,2,2,2,2,2]},{"tileid":1,"wangid":[1,1,1,1,1,1,1,1]},{"tileid":2,"wangid":[1,1,1,1,1,1,1,1]},{"tileid":3,"wangid":[1,1,1,1,1,1,1,1]},{"tileid":4,"wangid":[1,1,1,1,1,1,1,1]},{"tileid":5,"wangid":[1,1,1,1,1,1,1,1]}]},{"name":"floor-roots","type":"mixed","tile":158,"colors":[{"name":"floor","color":"#3070ff","tile":112,"probability":1.0},{"name":"roots","color":"#ff3070","tile":158,"probability":1.0}],"wangtiles":[{"tileid":112,"wangid":[1,1,1,1,1,1,1,1]},{"tileid":113,"wangid":[1,1,1,1,1,1,2,1]},{"tileid":114,"wangid":[1,1,1,1,2,1,1,1]},{"tileid":115,"wangid":[1,1,2,1,1,1,1,1]},{"tileid":116,"wangid":[2,1,1,1,1,1,1,1]},{"tileid":117,"wangid":[1,1,1,1,2,1,2,1]},{"tileid":118,"wangid":[1,1,2,1,1,1,2,1]},{"tileid":119,"wangid":[1,1,2,1,2,1,1,1]},{"tileid":120,"wangid":[2,1,1,1,1,1,2,1]},{"tileid":121,"wangid":[2,1,1,1,2,1,1,1]},{"tileid":122,"wangid":[2,1,2,1,1,1,1,1]},{"tileid":123,"wangid":[1,1,1,1,2,2,2,1]},{"tileid":124,"wangid":[1,1,2,1,2,1,2,1]},{"tileid":125,"wangid":[1,1,2,2,2,1,1,1]},{"tileid":126,"wangid":[2,1,1,1,1,1,2,2]},{"tileid":127,"wangid":[2,1,1,1,2,1,2,1]},{"tileid":128,"wangid":[2,1,2,1,1,1,2,1]},{"tileid":129,"wangid":[2,1,2,1,2,1,1,1]},{"tileid":130,"wangid":[2,2,2,1,1,1,1,1]},{"tileid":131,"wangid":[1,1,2,1,2,2,2,1]},{"tileid":132,"wangid":[1,1,2,2,2,1,2,1]},{"tileid":133,"wangid":[2,1,1,1,2,1,2,2]},{"tileid":134,"wangid":[2,1,1,1,2,2,2,1]},{"tileid":135,"wangid":[2,1,2,1,1,1,2,2]},{"tileid":136,"wangid":[2,1,2,1,2,1,2,1]},{"tileid":137,"wangid":[2,1,2,2,2,1,1,1]},{"tileid":138,"wangid":[2,2,2,1,1,1,2,1]},{"tileid":139,"wangid":[2,2,2,1,2,1,1,1]},{"tileid":140,"wangid":[1,1,2,2,2,2,2,1]},{"tileid":141,"wangid":[2,1,1,1,2,2,2,2]},{"tileid":142,"wangid":[2,1,2,1,2,1,2,2]},{"tileid":143,"wangid":[2,1,2,1,2,2,2,1]},{"tileid":144,"wangid":[2,1,2,2,2,1,2,1]},{"tileid":145,"wangid":[2,2,2,1,1,1,2,2]},{"tileid":146,"wangid":[2,2,2,1,2,1,2,1]},{"tileid":147,"wangid":[2,2,2,2,2,1,1,1]},{"tileid":148,"wangid":[2,1,2,1,2,2,2,2]},{"tileid":149,"wangid":[2,1,2,2,2,1,2,2]},{"tileid":150,"wangid":[2,1,2,2,2,2,2,1]},{"tileid":151,"wangid":[2,2,2,1,2,1,2,2]},{"tileid":152,"wangid":[2,2,2,1,2,2,2,1]},{"tileid":153,"wangid":[2,2,2,2,2,1,2,1]},{"tileid":154,"wangid":[2,1,2,2,2,2,2,2]},{"tileid":155,"wangid":[2,2,2,1,2,2,2,2]},{"tileid":156,"wangid":[2,2,2,2,2,1,2,2]},{"tileid":157,"wangid":[2,2,2,2,2,2,2,1]},{"tileid":158,"wangid":[2,2,2,2,2,2,2,2]},{"tileid":1,"wangid":[1,1,1,1,1,1,1,1]},{"tileid":2,"wangid":[1,1,1,1,1,1,1,1]},{"tileid":3,"wangid":[1,1,1,1,1,1,1,1]},{"tileid":4,"wangid":[1,1,1,1,1,1,1,1]},{"tileid":5,"wangid":[1,1,1,1,1,1,1,1]}]},{"name":"roots","type":"edge","tile":175,"colors":[{"name":"none","color":"#808080","tile":160,"probability":1.0},{"name":"root","color":"#30ff90","tile":175,"probability":1.0}],"wangtiles":[{"tileid":160,"wangid":[1,0,1,0,1,0,1,0]},{"tileid":161,"wangid":[2,0,1,0,1,0,1,0]},{"tileid":162,"wangid":[1,0,2,0,1,0,1,0]},{"tileid":163,"wangid":[2,0,2,0,1,0,1,0]},{"tileid":164,"wangid":[1,0,1,0,2,0,1,0]},{"tileid":165,"wangid":[2,0,1,0,2,0,1,0]},{"tileid":166,"wangid":[1,0,2,0,2,0,1,0]},{"tileid":167,"wangid":[2,0,2,0,2,0,1,0]},{"tileid":168,"wangid":[1,0,1,0,1,0,2,0]},{"tileid":169,"wangid":[2,0,1,0,1,0,2,0]},{"tileid":170,"wangid":[1,0,2,0,1,0,2,0]},{"tileid":171,"wangid":[2,0,2,0,1,0,2,0]},{"tileid":172,"wangid":[1,0,1,0,2,0,2,0]},{"tileid":173,"wangid":[2,0,1,0,2,0,2,0]},{"tileid":174,"wangid":[1,0,2,0,2,0,2,0]},{"tileid":175,"wangid":[2,0,2,0,2,0,2,0]}]},{"name":"conduits","type":"edge","tile":191,"colors":[{"name":"none","color":"#808080","tile":176,"probability":1.0},{"name":"conduit","color":"#30ff90","tile":191,"probability":1.0}],"wangtiles":[{"tileid":176,"wangid":[1,0,1,0,1,0,1,0]},{"tileid":177,"wangid":[2,0,1,0,1,0,1,0]},{"tileid":178,"wangid":[1,0,2,0,1,0,1,0]},{"tileid":179,"wangid":[2,0,2,0,1,0,1,0]},{"tileid":180,"wangid":[1,0,1,0,2,0,1,0]},{"tileid":181,"wangid":[2,0,1,0,2,0,1,0]},{"tileid":182,"wangid":[1,0,2,0,2,0,1,0]},{"tileid":183,"wangid":[2,0,2,0,2,0,1,0]},{"tileid":184,"wangid":[1,0,1,0,1,0,2,0]},{"tileid":185,"wangid":[2,0,1,0,1,0,2,0]},{"tileid":186,"wangid":[1,0,2,0,1,0,2,0]},{"tileid":187,"wangid":[2,0,2,0,1,0,2,0]},{"tileid":188,"wangid":[1,0,1,0,2,0,2,0]},{"tileid":189,"wangid":[2,0,1,0,2,0,2,0]},{"tileid":190,"wangid":[1,0,2,0,2,0,2,0]},{"tileid":191,"wangid":[2,0,2,0,2,0,2,0]}]}]},{"name":"buildings","columns":0,"margin":0,"spacing":0,"tilecount":7,"tilewidth":160,"tileheight":160,"grid":{"orientation":"orthogonal","width":1,"height":1},"objectalignment":"bottomleft","tiles":[{"id":0,"image":"buildings/noodle_shop.png","imagewidth":128,"imageheight":128,"type":"building","properties":[{"name":"building","type":"string","value":"noodle_shop"},{"name":"biome","type":"string","value":"city"},{"name":"door_x","type":"int","value":61},{"name":"door_y","type":"int","value":124}],"objectgroup":{"draworder":"index","id":2,"name":"","opacity":1,"type":"objectgroup","visible":true,"x":0,"y":0,"objects":[{"id":1,"name":"collision","type":"collision","x":12,"y":60,"width":104,"height":64,"rotation":0,"visible":true}]}},{"id":1,"image":"buildings/tea_house.png","imagewidth":128,"imageheight":128,"type":"building","properties":[{"name":"building","type":"string","value":"tea_house"},{"name":"biome","type":"string","value":"city"},{"name":"door_x","type":"int","value":64},{"name":"door_y","type":"int","value":124}],"objectgroup":{"draworder":"index","id":2,"name":"","opacity":1,"type":"objectgroup","visible":true,"x":0,"y":0,"objects":[{"id":1,"name":"collision","type":"collision","x":10,"y":60,"width":108,"height":64,"rotation":0,"visible":true}]}},{"id":2,"image":"buildings/greenhouse.png","imagewidth":128,"imageheight":128,"type":"building","properties":[{"name":"building","type":"string","value":"greenhouse"},{"name":"biome","type":"string","value":"city"},{"name":"door_x","type":"int","value":63},{"name":"door_y","type":"int","value":124}],"objectgroup":{"draworder":"index","id":2,"name":"","opacity":1,"type":"objectgroup","visible":true,"x":0,"y":0,"objects":[{"id":1,"name":"collision","type":"collision","x":12,"y":60,"width":104,"height":64,"rotation":0,"visible":true}]}},{"id":3,"image":"buildings/apartment_block.png","imagewidth":160,"imageheight":160,"type":"building","properties":[{"name":"building","type":"string","value":"apartment_block"},{"name":"biome","type":"string","value":"city"},{"name":"door_x","type":"int","value":80},{"name":"door_y","type":"int","value":142}],"objectgroup":{"draworder":"index","id":2,"name":"","opacity":1,"type":"objectgroup","visible":true,"x":0,"y":0,"objects":[{"id":1,"name":"collision","type":"collision","x":0,"y":78,"width":160,"height":64,"rotation":0,"visible":true}]}},{"id":4,"image":"buildings/archive_library.png","imagewidth":160,"imageheight":160,"type":"building","properties":[{"name":"building","type":"string","value":"archive_library"},{"name":"biome","type":"string","value":"city"},{"name":"door_x","type":"int","value":80},{"name":"door_y","type":"int","value":146}],"objectgroup":{"draworder":"index","id":2,"name":"","opacity":1,"type":"objectgroup","visible":true,"x":0,"y":0,"objects":[{"id":1,"name":"collision","type":"collision","x":8,"y":82,"width":142,"height":64,"rotation":0,"visible":true}]}},{"id":5,"image":"buildings/ranger_cabin.png","imagewidth":128,"imageheight":128,"type":"building","properties":[{"name":"building","type":"string","value":"ranger_cabin"},{"name":"biome","type":"string","value":"woods"},{"name":"door_x","type":"int","value":63},{"name":"door_y","type":"int","value":118}],"objectgroup":{"draworder":"index","id":2,"name":"","opacity":1,"type":"objectgroup","visible":true,"x":0,"y":0,"objects":[{"id":1,"name":"collision","type":"collision","x":6,"y":54,"width":108,"height":64,"rotation":0,"visible":true}]}},{"id":6,"image":"buildings/ruin_shrine.png","imagewidth":128,"imageheight":160,"type":"building","properties":[{"name":"building","type":"string","value":"ruin_shrine"},{"name":"biome","type":"string","value":"core"},{"name":"door_x","type":"int","value":64},{"name":"door_y","type":"int","value":152}],"objectgroup":{"draworder":"index","id":2,"name":"","opacity":1,"type":"objectgroup","visible":true,"x":0,"y":0,"objects":[{"id":1,"name":"collision","type":"collision","x":16,"y":88,"width":96,"height":64,"rotation":0,"visible":true}]}}],"firstgid":241}],"layers":[{"id":1,"name":"ground","type":"tilelayer","x":0,"y":0,"width":30,"height":36,"opacity":1,"visible":true,"data":[63,63,63,14,63,63,63,63,63,63,14,63,14,14,63,63,63,14,63,63,63,63,63,63,63,63,14,63,63,63,63,63,63,63,63,63,14,63,63,63,60,50,50,50,50,50,50,50,50,61,14,63,63,14,63,14,14,63,63,63,63,63,63,63,63,63,63,63,63,63,46,17,3,17,2,6,17,3,17,52,63,63,63,63,63,63,63,63,63,63,63,63,63,63,63,63,14,63,63,60,31,4,17,17,3,17,17,4,17,35,61,14,63,63,63,63,63,63,63,63,63,63,63,63,63,63,63,63,63,46,4,17,17,4,4,17,17,17,17,17,52,63,63,14,14,63,63,14,63,63,63,63,63,63,63,63,63,63,14,59,28,17,17,6,17,5,17,17,17,30,62,63,63,14,63,63,63,63,63,63,63,63,63,63,63,63,63,63,63,63,46,17,17,17,4,17,5,3,6,52,63,63,63,63,63,63,63,63,14,63,63,63,63,63,63,63,63,63,63,63,59,28,6,2,4,17,17,17,30,62,63,14,63,63,63,63,63,63,63,63,63,63,63,63,63,63,63,63,63,63,63,46,2,4,17,17,2,17,52,63,63,63,63,63,63,63,63,63,63,63,14,63,63,63,63,63,63,63,63,63,63,46,17,17,17,17,17,4,52,63,63,63,63,63,63,63,63,63,63,63,63,63,63,63,63,63,63,63,63,63,60,31,2,17,5,6,4,17,35,61,63,63,63,63,63,63,63,63,63,63,63,63,63,63,63,63,63,63,60,50,31,17,17,17,5,17,17,17,17,35,50,61,63,63,63,63,63,63,14,63,63,63,14,63,63,63,63,60,31,17,5,17,17,3,17,17,17,17,17,17,3,35,61,63,63,63,63,63,63,63,63,63,63,63,60,50,50,31,5,17,2,17,17,6,6,17,17,6,2,4,4,17,35,50,50,61,63,63,63,63,63,63,63,60,31,17,17,17,3,17,4,17,3,4,3,3,4,17,17,17,17,17,6,17,6,35,61,63,63,63,63,63,60,31,17,17,5,17,17,17,17,6,17,17,17,17,17,6,17,6,17,17,17,4,5,3,35,61,63,63,63,63,46,17,17,17,17,17,17,5,2,17,3,17,3,17,17,3,17,2,17,17,4,17,17,17,17,52,63,63,63,63,46,17,17,5,17,17,17,4,17,17,3,6,78,76,17,17,4,2,2,17,17,2,5,17,17,52,63,63,63,63,59,28,17,4,17,17,5,30,28,4,17,78,110,107,76,3,17,30,28,6,6,17,17,5,30,62,63,63,63,14,63,59,28,17,6,3,30,62,46,17,78,110,111,111,107,76,17,35,54,28,17,17,5,30,62,63,63,14,63,63,63,63,59,45,45,45,62,63,46,17,83,109,111,111,108,79,6,17,35,40,37,45,45,62,63,63,63,63,63,14,63,63,14,63,63,14,63,63,46,17,17,83,109,108,79,17,5,17,17,17,35,50,50,61,63,63,63,63,63,63,63,63,63,63,63,63,63,63,46,17,6,17,83,79,17,3,17,3,17,17,17,2,2,35,61,63,63,14,63,63,63,63,63,63,63,63,63,63,59,28,17,2,4,17,17,17,6,17,17,3,5,5,17,17,35,61,63,63,63,63,63,63,63,63,63,63,63,63,63,46,2,17,4,17,17,17,6,17,4,4,6,17,17,17,17,52,63,63,63,63,63,63,63,63,63,63,14,63,63,46,5,17,4,17,17,5,30,28,17,17,17,17,17,2,2,52,63,63,63,63,63,63,63,63,14,63,63,63,60,31,3,17,78,76,17,3,35,54,28,17,6,17,17,17,30,62,63,63,63,14,63,63,63,63,63,14,14,63,46,17,78,93,110,107,93,76,5,52,59,28,2,17,17,30,62,63,63,63,63,63,63,63,63,63,63,63,63,63,46,17,100,111,111,111,111,94,17,52,63,59,45,45,45,62,63,63,63,63,63,63,63,14,63,63,63,63,63,63,46,78,110,111,111,111,111,107,76,52,63,14,63,63,63,63,63,63,14,63,63,63,63,63,63,63,14,14,63,63,46,83,109,111,111,111,111,108,79,52,63,63,63,14,63,63,63,63,63,63,63,63,14,63,63,14,63,63,63,63,46,17,100,111,111,111,111,94,17,52,63,63,63,63,63,63,63,63,63,63,63,63,63,63,14,63,14,63,14,63,46,17,83,98,109,108,98,79,3,52,63,63,63,63,63,63,63,63,63,63,63,63,63,63,14,63,63,63,63,63,59,28,17,17,83,79,17,17,30,62,63,63,63,63,63,63,63,63,63,63,63,63,63,63,63,63,63,63,63,63,63,59,45,45,45,45,45,45,62,63,63,63,63,14,63,14,63,63,14,63,63,14,63,63,63,63,63,63,63,63,63,63,63,63,63,63,63,63,14,63,63,63,63,63,63,63,63,14,63,63]},{"id":2,"name":"props","type":"tilelayer","x":0,"y":0,"width":30,"height":36,"opacity":1,"visible":true,"data":[0,0,0,0,0,0,0,0,0,0,0,0,0,0,0,0,0,0,0,0,0,0,0,0,0,0,0,0,0,0,0,0,0,0,0,0,0,0,0,0,0,0,0,0,0,0,0,0,0,0,0,0,0,0,0,0,0,0,0,0,0,0,0,0,0,0,0,0,0,0,0,0,0,0,0,0,0,197,198,0,0,0,0,0,0,0,0,0,0,0,0,0,0,0,0,0,0,0,0,0,0,208,0,0,0,0,0,0,0,0,0,0,0,0,0,0,0,0,0,0,0,0,0,0,0,0,0,0,0,0,0,209,0,0,0,0,0,0,0,0,0,0,0,0,0,0,0,0,0,0,0,0,0,0,0,0,0,0,0,0,0,209,0,0,0,0,0,0,193,0,0,0,0,0,0,0,0,0,0,0,0,0,0,0,0,0,0,0,0,0,0,0,0,0,0,0,0,0,0,0,0,0,0,0,0,0,0,0,0,0,0,0,0,0,0,0,0,0,0,0,0,0,0,0,0,0,0,0,0,0,0,0,0,0,0,0,0,0,0,0,0,0,0,0,0,0,0,0,0,0,0,0,0,0,0,0,0,0,0,0,0,0,0,0,0,0,0,0,0,0,0,0,0,0,0,0,0,0,0,0,0,0,0,0,0,0,0,0,0,0,0,0,0,0,0,0,0,0,0,0,0,0,0,0,0,0,0,0,0,0,0,0,0,0,0,0,0,0,0,0,0,0,0,0,0,0,0,0,0,0,0,0,0,0,0,0,0,0,0,0,0,0,0,0,0,0,0,0,0,0,0,0,0,0,0,0,0,0,0,0,0,0,0,0,0,0,0,0,0,0,0,0,0,0,0,0,0,0,0,0,0,0,0,0,0,0,0,0,0,0,0,0,0,0,0,0,0,0,0,0,0,0,0,0,0,0,0,0,0,0,0,0,0,0,0,0,0,0,0,0,0,0,0,0,0,0,0,0,0,0,0,0,0,0,0,0,0,0,0,0,0,0,0,0,0,0,0,0,0,0,0,0,0,0,0,0,0,0,0,0,0,0,0,0,0,0,0,0,0,0,0,0,0,0,0,0,0,0,0,0,0,0,0,196,0,0,0,0,0,0,0,0,0,0,0,0,0,0,0,0,0,0,0,0,0,0,0,0,0,0,0,0,0,0,0,0,0,0,0,0,0,209,213,214,0,0,0,0,0,0,0,0,0,0,0,0,0,0,0,0,0,0,0,0,0,0,0,0,0,0,0,0,229,230,0,0,0,0,200,0,0,0,0,0,0,0,0,0,0,0,0,0,0,0,0,0,0,0,0,0,0,201,0,0,0,0,0,0,0,0,0,0,0,0,0,0,0,0,0,0,0,0,0,0,0,0,0,0,0,0,0,217,0,0,0,0,0,0,213,214,0,0,0,0,0,0,0,0,0,0,0,0,0,0,0,0,0,0,0,0,0,213,214,0,0,0,0,0,229,230,0,0,0,0,0,0,0,0,0,0,0,0,0,0,0,0,0,0,0,0,0,229,230,0,0,0,0,0,0,0,0,0,0,0,0,0,0,0,0,0,0,0,0,0,0,0,0,0,0,0,0,0,0,0,0,0,0,0,213,214,0,0,0,0,0,0,0,0,0,0,0,0,0,0,0,0,0,0,0,0,0,0,0,0,0,0,0,0,229,230,0,0,0,0,0,0,212,0,0,0,0,0,0,0,0,0,0,0,0,0,0,0,0,0,0,0,0,0,0,0,0,0,0,0,0,0,212,0,0,0,0,0,0,0,0,0,0,0,0,0,0,0,0,0,0,0,0,0,0,0,0,0,0,0,0,0,0,0,0,0,0,0,0,0,0,0,0,0,0,0,0,0,0,0,0,0,0,0,199,0,0,0,0,0,0,0,0,0,0,0,0,0,0,0,0,0,0,0,0,0,0,196,0,0,0,0,0,0,0,0,0,0,0,0,0,0,0,0,0,0,0,0,0,0,0,0,0,0,0,0,0,0,0,0,0,0,0,0,0,0,0,0,0,0,0,0,0,0,0,0,0,0,0,0,0,0,0,0,0,0,0,0,0,0,0,0,0,0,208,0,0,0,0,0,0,0,0,0,0,0,0,0,0,0,0,0,0,0,0,0,0,200,208,0,0,0,0,208,0,0,0,0,0,0,0,0,0,0,0,0,0,0,0,0,0,0,0,0,0,0,0,193,0,0,0,0,0,208,205,0,0,0,0,0,0,0,0,0,0,0,0,0,0,0,0,0,0,0,0,0,0,0,0,0,199,0,0,208,0,0,0,0,0,0,0,0,0,0,0,0,0,0,0,0,0,0,0,0,0,0,0,0,0,0,0,0,0,0,0,0,0,0,0,0,0,0,0,0,0,0,0,0,0,0,0,0,0,0,0,0,0,0,0,0,0,0,0,0,0,0,0,0,0,0,0,0,0,0,0,0]},{"id":3,"name":"gameplay","type":"objectgroup","draworder":"topdown","x":0,"y":0,"opacity":1,"visible":true,"objects":[{"id":1,"name":"spawn","type":"","rotation":0,"visible":true,"x":464.0,"y":128.0,"width":32.0,"height":32.0},{"id":2,"name":"npc","type":"","rotation":0,"visible":true,"x":465.0,"y":625.0,"width":30.0,"height":30.0,"properties":[{"name":"name","type":"string","value":"gaia"}]},{"id":3,"name":"health","type":"","rotation":0,"visible":true,"x":472.0,"y":344.0,"width":16.0,"height":16.0},{"id":4,"name":"health","type":"","rotation":0,"visible":true,"x":472.0,"y":760.0,"width":16.0,"height":16.0},{"id":5,"name":"drone","type":"","rotation":0,"visible":true,"x":196.0,"y":532.0,"width":24.0,"height":24.0,"properties":[{"name":"startAngle","type":"float","value":1.2},{"name":"kind","type":"string","value":"sniper"}]},{"id":6,"name":"drone","type":"","rotation":0,"visible":true,"x":740.0,"y":532.0,"width":24.0,"height":24.0,"properties":[{"name":"startAngle","type":"float","value":4.0},{"name":"kind","type":"string","value":"swarm"}]},{"id":7,"name":"drone","type":"","rotation":0,"visible":true,"x":740.0,"y":788.0,"width":24.0,"height":24.0,"properties":[{"name":"startAngle","type":"float","value":2.5},{"name":"kind","type":"string","value":"shield"}]},{"id":8,"name":"portal","type":"","rotation":0,"visible":true,"x":452.0,"y":932.0,"width":56.0,"height":56.0},{"id":9,"name":"checkpoint","type":"","rotation":0,"visible":true,"x":464.0,"y":128.0,"width":32.0,"height":32.0,"properties":[{"name":"label","type":"string","value":"Core Threshold"}]},{"id":10,"name":"checkpoint","type":"","rotation":0,"visible":true,"x":464.0,"y":624.0,"width":32.0,"height":32.0,"properties":[{"name":"label","type":"string","value":"Core Record"}]},{"id":11,"name":"examine","type":"","rotation":0,"visible":true,"x":518.0,"y":172.0,"width":20.0,"height":20.0,"properties":[{"name":"id","type":"string","value":"core_console"},{"name":"title","type":"string","value":"CORE CONSOLE"},{"name":"text","type":"string","value":"Activation waits on a living neural match. A remote wipe is already queued."},{"name":"clue","type":"string","value":"core_console"}]},{"id":12,"name":"ambient","type":"","rotation":0,"visible":true,"x":548.0,"y":1052.0,"width":24.0,"height":24.0,"properties":[{"name":"kind","type":"string","value":"ember"}]},{"id":13,"name":"ambient","type":"","rotation":0,"visible":true,"x":580.0,"y":956.0,"width":24.0,"height":24.0,"properties":[{"name":"kind","type":"string","value":"ember"}]},{"id":14,"name":"ambient","type":"","rotation":0,"visible":true,"x":356.0,"y":92.0,"width":24.0,"height":24.0,"properties":[{"name":"kind","type":"string","value":"ember"}]},{"id":15,"name":"ambient","type":"","rotation":0,"visible":true,"x":548.0,"y":988.0,"width":24.0,"height":24.0,"properties":[{"name":"kind","type":"string","value":"ember"}]},{"id":16,"name":"ambient","type":"","rotation":0,"visible":true,"x":388.0,"y":988.0,"width":24.0,"height":24.0,"properties":[{"name":"kind","type":"string","value":"ember"}]},{"id":17,"name":"ambient","type":"","rotation":0,"visible":true,"x":548.0,"y":1020.0,"width":24.0,"height":24.0,"properties":[{"name":"kind","type":"string","value":"ember"}]}]}]}