{"compressionlevel":-1,"type":"map","version":"1.10","tiledversion":"1.10.2","orientation":"orthogonal","renderorder":"right-down","infinite":false,"width":28,"height":28,"tilewidth":32,"tileheight":32,"nextlayerid":4,"nextobjectid":12,"properties":[{"name":"generator","type":"string","value":"tools/make_tiled_maps.py"}],"tilesets":[{"firstgid":1,"name":"city","image":"tilesets/city.png","imagewidth":512,"imageheight":640,"tilewidth":32,"tileheight":32,"tilecount":320,"columns":16,"margin":0,"spacing":0,"tiles":[{"id":0,"properties":[{"name":"ground","type":"string","value":"road"}]},{"id":1,"probability":0.15,"properties":[{"name":"ground","type":"string","value":"road"}]},{"id":2,"probability":0.15,"properties":[{"name":"ground","type":"string","value":"road"}]},{"id":3,"probability":0.15,"properties":[{"name":"ground","type":"string","value":"road"}]},{"id":4,"properties":[{"name":"ground","type":"string","value":"road"}]},{"id":5,"properties":[{"name":"ground","type":"string","value":"road"}]},{"id":6,"properties":[{"name":"ground","type":"string","value":"road"}]},{"id":7,"properties":[{"name":"ground","type":"string","value":"road"}]},{"id":8,"properties":[{"name":"ground","type":"string","value":"road"}]},{"id":9,"properties":[{"name":"ground","type":"string","value":"sidewalk"}]},{"id":10,"probability":0.24,"properties":[{"name":"ground","type":"string","value":"sidewalk"}]},{"id":11,"probability":0.16,"properties":[{"name":"ground","type":"string","value":"sidewalk"}]},{"id":12,"properties":[{"name":"ground","type":"string","value":"plaza"}]},{"id":13,"probability":0.08,"properties":[{"name":"ground","type":"string","value":"plaza"}]},{"id":14,"probability":0.08,"properties":[{"name":"ground","type":"string","value":"plaza"}]},{"id":15,"properties":[{"name":"ground","type":"string","value":"grass"}]},{"id":16,"properties":[{"name":"collides","type":"bool","value":true},{"name":"ground","type":"string","value":"roof"}],"objectgroup":{"draworder":"index","id":2,"name":"","opacity":1,"type":"objectgroup","visible":true,"x":0,"y":0,"objects":[{"id":1,"name":"","type":"collision","rotation":0,"visible":true,"x":0.0,"y":0.0,"width":32.0,"height":32.0}]}},{"id":17,"probability":0.15,"properties":[{"name":"collides","type":"bool","value":true},{"name":"ground","type":"string","value":"roof"}],"objectgroup":{"draworder":"index","id":2,"name":"","opacity":1,"type":"objectgroup","visible":true,"x":0,"y":0,"objects":[{"id":1,"name":"","type":"collision","rotation":0,"visible":true,"x":0.0,"y":0.0,"width":32.0,"height":32.0}]}},{"id":18,"properties":[{"name":"collides","type":"bool","value":true},{"name":"ground","type":"string","value":"water"}],"objectgroup":{"draworder":"index","id":2,"name":"","opacity":1,"type":"objectgroup","visible":true,"x":0,"y":0,"objects":[{"id":1,"name":"","type":"collision","rotation":0,"visible":true,"x":0.0,"y":0.0,"width":32.0,"height":32.0}]}},{"id":19,"probability":0.15,"properties":[{"name":"collides","type":"bool","value":true},{"name":"ground","type":"string","value":"water"}],"objectgroup":{"draworder":"index","id":2,"name":"","opacity":1,"type":"objectgroup","visible":true,"x":0,"y":0,"objects":[{"id":1,"name":"","type":"collision","rotation":0,"visible":true,"x":0.0,"y":0.0,"width":32.0,"height":32.0}]}},{"id":20,"properties":[{"name":"ground","type":"string","value":"bridge (walkable, N-S)"}]},{"id":21,"properties":[{"name":"ground","type":"string","value":"bridge (walkable, E-W)"}]},{"id":22,"probability":0.15,"properties":[{"name":"ground","type":"string","value":"grass"}]},{"id":23,"probability":0.6,"properties":[{"name":"ground","type":"string","value":"sidewalk"}]},{"id":32,"properties":[{"name":"blob","type":"string","value":"road-sidewalk"}]},{"id":33,"properties":[{"name":"blob","type":"string","value":"road-sidewalk"}]},{"id":34,"properties":[{"name":"blob","type":"string","value":"road-sidewalk"}]},{"id":35,"properties":[{"name":"blob","type":"string","value":"road-sidewalk"}]},{"id":36,"properties":[{"name":"blob","type":"string","value":"road-sidewalk"}]},{"id":37,"properties":[{"name":"blob","type":"string","value":"road-sidewalk"}]},{"id":38,"properties":[{"name":"blob","type":"string","value":"road-sidewalk"}]},{"id":39,"properties":[{"name":"blob","type":"string","value":"road-sidewalk"}]},{"id":40,"properties":[{"name":"blob","type":"string","value":"road-sidewalk"}]},{"id":41,"properties":[{"name":"blob","type":"string","value":"road-sidewalk"}]},{"id":42,"properties":[{"name":"blob","type":"string","value":"road-sidewalk"}]},{"id":43,"properties":[{"name":"blob","type":"string","value":"road-sidewalk"}]},{"id":44,"properties":[{"name":"blob","type":"string","value":"road-sidewalk"}]},{"id":45,"properties":[{"name":"blob","type":"string","value":"road-sidewalk"}]},{"id":46,"properties":[{"name":"blob","type":"string","value":"road-sidewalk"}]},{"id":47,"properties":[{"name":"blob","type":"string","value":"road-sidewalk"}]},{"id":48,"properties":[{"name":"blob","type":"string","value":"road-sidewalk"}]},{"id":49,"properties":[{"name":"blob","type":"string","value":"road-sidewalk"}]},{"id":50,"properties":[{"name":"blob","type":"string","value":"road-sidewalk"}]},{"id":51,"properties":[{"name":"blob","type":"string","value":"road-sidewalk"}]},{"id":52,"properties":[{"name":"blob","type":"string","value":"road-sidewalk"}]},{"id":53,"properties":[{"name":"blob","type":"string","value":"road-sidewalk"}]},{"id":54,"properties":[{"name":"blob","type":"string","value":"road-sidewalk"}]},{"id":55,"properties":[{"name":"blob","type":"string","value":"road-sidewalk"}]},{"id":56,"properties":[{"name":"blob","type":"string","value":"road-sidewalk"}]},{"id":57,"properties":[{"name":"blob","type":"string","value":"road-sidewalk"}]},{"id":58,"properties":[{"name":"blob","type":"string","value":"road-sidewalk"}]},{"id":59,"properties":[{"name":"blob","type":"string","value":"road-sidewalk"}]},{"id":60,"properties":[{"name":"blob","type":"string","value":"road-sidewalk"}]},{"id":61,"properties":[{"name":"blob","type":"string","value":"road-sidewalk"}]},{"id":62,"properties":[{"name":"blob","type":"string","value":"road-sidewalk"}]},{"id":63,"properties":[{"name":"blob","type":"string","value":"road-sidewalk"}]},{"id":64,"properties":[{"name":"blob","type":"string","value":"road-sidewalk"}]},{"id":65,"properties":[{"name":"blob","type":"string","value":"road-sidewalk"}]},{"id":66,"properties":[{"name":"blob","type":"string","value":"road-sidewalk"}]},{"id":67,"properties":[{"name":"blob","type":"string","value":"road-sidewalk"}]},{"id":68,"properties":[{"name":"blob","type":"string","value":"road-sidewalk"}]},{"id":69,"properties":[{"name":"blob","type":"string","value":"road-sidewalk"}]},{"id":70,"properties":[{"name":"blob","type":"string","value":"road-sidewalk"}]},{"id":71,"properties":[{"name":"blob","type":"string","value":"road-sidewalk"}]},{"id":72,"properties":[{"name":"blob","type":"string","value":"road-sidewalk"}]},{"id":73,"properties":[{"name":"blob","type":"string","value":"road-sidewalk"}]},{"id":74,"properties":[{"name":"blob","type":"string","value":"road-sidewalk"}]},{"id":75,"properties":[{"name":"blob","type":"string","value":"road-sidewalk"}]},{"id":76,"properties":[{"name":"blob","type":"string","value":"road-sidewalk"}]},{"id":77,"properties":[{"name":"blob","type":"string","value":"road-sidewalk"}]},{"id":78,"properties":[{"name":"blob","type":"string","value":"road-sidewalk"}]},{"id":80,"properties":[{"name":"blob","type":"string","value":"sidewalk-building"}]},{"id":81,"properties":[{"name":"blob","type":"string","value":"sidewalk-building"},{"name":"collides","type":"bool","value":true}],"objectgroup":{"draworder":"index","id":2,"name":"","opacity":1,"type":"objectgroup","visible":true,"x":0,"y":0,"objects":[{"id":1,"name":"","type":"collision","rotation":0,"visible":true,"x":0.0,"y":0.0,"width":16.0,"height":32.0}]}},{"id":82,"properties":[{"name":"blob","type":"string","value":"sidewalk-building"},{"name":"collides","type":"bool","value":true}],"objectgroup":{"draworder":"index","id":2,"name":"","opacity":1,"type":"objectgroup","visible":true,"x":0,"y":0,"objects":[{"id":1,"name":"","type":"collision","rotation":0,"visible":true,"x":0.0,"y":16.0,"width":32.0,"height":16.0}]}},{"id":83,"properties":[{"name":"blob","type":"string","value":"sidewalk-building"},{"name":"collides","type":"bool","value":true}],"objectgroup":{"draworder":"index","id":2,"name":"","opacity":1,"type":"objectgroup","visible":true,"x":0,"y":0,"objects":[{"id":1,"name":"","type":"collision","rotation":0,"visible":true,"x":16.0,"y":0.0,"width":16.0,"height":32.0}]}},{"id":84,"properties":[{"name":"blob","type":"string","value":"sidewalk-building"},{"name":"collides","type":"bool","value":true}],"objectgroup":{"draworder":"index","id":2,"name":"","opacity":1,"type":"objectgroup","visible":true,"x":0,"y":0,"objects":[{"id":1,"name":"","type":"collision","rotation":0,"visible":true,"x":0.0,"y":0.0,"width":32.0,"height":16.0}]}},{"id":85,"properties":[{"name":"blob","type":"string","value":"sidewalk-building"},{"name":"collides","type":"bool","value":true}],"objectgroup":{"draworder":"index","id":2,"name":"","opacity":1,"type":"objectgroup","visible":true,"x":0,"y":0,"objects":[{"id":1,"name":"","type":"collision","rotation":0,"visible":true,"x":0.0,"y":16.0,"width":32.0,"height":16.0},{"id":2,"name":"","type":"collision","rotation":0,"visible":true,"x":0.0,"y":0.0,"width":16.0,"height":16.0}]}},{"id":86,"properties":[{"name":"blob","type":"string","value":"sidewalk-building"},{"name":"collides","type":"bool","value":true}],"objectgroup":{"draworder":"index","id":2,"name":"","opacity":1,"type":"objectgroup","visible":true,"x":0,"y":0,"objects":[{"id":1,"name":"","type":"collision","rotation":0,"visible":true,"x":0.0,"y":0.0,"width":32.0,"height":32.0}]}},{"id":87,"properties":[{"name":"blob","type":"string","value":"sidewalk-building"},{"name":"collides","type":"bool","value":true}],"objectgroup":{"draworder":"index","id":2,"name":"","opacity":1,"type":"objectgroup","visible":true,"x":0,"y":0,"objects":[{"id":1,"name":"","type":"collision","rotation":0,"visible":true,"x":0.0,"y":16.0,"width":32.0,"height":16.0},{"id":2,"name":"","type":"collision","rotation":0,"visible":true,"x":16.0,"y":0.0,"width":16.0,"height":16.0}]}},{"id":88,"properties":[{"name":"blob","type":"string","value":"sidewalk-building"},{"name":"collides","type":"bool","value":true}],"objectgroup":{"draworder":"index","id":2,"name":"","opacity":1,"type":"objectgroup","visible":true,"x":0,"y":0,"objects":[{"id":1,"name":"","type":"collision","rotation":0,"visible":true,"x":0.0,"y":0.0,"width":32.0,"height":16.0},{"id":2,"name":"","type":"collision","rotation":0,"visible":true,"x":0.0,"y":16.0,"width":16.0,"height":16.0}]}},{"id":89,"properties":[{"name":"blob","type":"string","value":"sidewalk-building"},{"name":"collides","type":"bool","value":true}],"objectgroup":{"draworder":"index","id":2,"name":"","opacity":1,"type":"objectgroup","visible":true,"x":0,"y":0,"objects":[{"id":1,"name":"","type":"collision","rotation":0,"visible":true,"x":0.0,"y":0.0,"width":32.0,"height":32.0}]}},{"id":90,"properties":[{"name":"blob","type":"string","value":"sidewalk-building"},{"name":"collides","type":"bool","value":true}],"objectgroup":{"draworder":"index","id":2,"name":"","opacity":1,"type":"objectgroup","visible":true,"x":0,"y":0,"objects":[{"id":1,"name":"","type":"collision","rotation":0,"visible":true,"x":0.0,"y":0.0,"width":32.0,"height":16.0},{"id":2,"name":"","type":"collision","rotation":0,"visible":true,"x":16.0,"y":16.0,"width":16.0,"height":16.0}]}},{"id":91,"properties":[{"name":"blob","type":"string","value":"sidewalk-building"},{"name":"collides","type":"bool","value":true}],"objectgroup":{"draworder":"index","id":2,"name":"","opacity":1,"type":"objectgroup","visible":true,"x":0,"y":0,"objects":[{"id":1,"name":"","type":"collision","rotation":0,"visible":true,"x":0.0,"y":16.0,"width":32.0,"height":16.0},{"id":2,"name":"","type":"collision","rotation":0,"visible":true,"x":0.0,"y":0.0,"width":16.0,"height":16.0}]}},{"id":92,"properties":[{"name":"blob","type":"string","value":"sidewalk-building"},{"name":"collides","type":"bool","value":true}],"objectgroup":{"draworder":"index","id":2,"name":"","opacity":1,"type":"objectgroup","visible":true,"x":0,"y":0,"objects":[{"id":1,"name":"","type":"collision","rotation":0,"visible":true,"x":0.0,"y":0.0,"width":32.0,"height":32.0}]}},{"id":93,"properties":[{"name":"blob","type":"string","value":"sidewalk-building"},{"name":"collides","type":"bool","value":true}],"objectgroup":{"draworder":"index","id":2,"name":"","opacity":1,"type":"objectgroup","visible":true,"x":0,"y":0,"objects":[{"id":1,"name":"","type":"collision","rotation":0,"visible":true,"x":0.0,"y":16.0,"width":32.0,"height":16.0},{"id":2,"name":"","type":"collision","rotation":0,"visible":true,"x":16.0,"y":0.0,"width":16.0,"height":16.0}]}},{"id":94,"properties":[{"name":"blob","type":"string","value":"sidewalk-building"},{"name":"collides","type":"bool","value":true}],"objectgroup":{"draworder":"index","id":2,"name":"","opacity":1,"type":"objectgroup","visible":true,"x":0,"y":0,"objects":[{"id":1,"name":"","type":"collision","rotation":0,"visible":true,"x":0.0,"y":0.0,"width":32.0,"height":16.0},{"id":2,"name":"","type":"collision","rotation":0,"visible":true,"x":0.0,"y":16.0,"width":16.0,"height":16.0}]}},{"id":95,"properties":[{"name":"blob","type":"string","value":"sidewalk-building"},{"name":"collides","type":"bool","value":true}],"objectgroup":{"draworder":"index","id":2,"name":"","opacity":1,"type":"objectgroup","visible":true,"x":0,"y":0,"objects":[{"id":1,"name":"","type":"collision","rotation":0,"visible":true,"x":0.0,"y":0.0,"width":32.0,"height":32.0}]}},{"id":96,"properties":[{"name":"blob","type":"string","value":"sidewalk-building"},{"name":"collides","type":"bool","value":true}],"objectgroup":{"draworder":"index","id":2,"name":"","opacity":1,"type":"objectgroup","visible":true,"x":0,"y":0,"objects":[{"id":1,"name":"","type":"collision","rotation":0,"visible":true,"x":0.0,"y":0.0,"width":32.0,"height":32.0}]}},{"id":97,"properties":[{"name":"blob","type":"string","value":"sidewalk-building"},{"name":"collides","type":"bool","value":true}],"objectgroup":{"draworder":"index","id":2,"name":"","opacity":1,"type":"objectgroup","visible":true,"x":0,"y":0,"objects":[{"id":1,"name":"","type":"collision","rotation":0,"visible":true,"x":0.0,"y":0.0,"width":32.0,"height":32.0}]}},{"id":98,"properties":[{"name":"blob","type":"string","value":"sidewalk-building"},{"name":"collides","type":"bool","value":true}],"objectgroup":{"draworder":"index","id":2,"name":"","opacity":1,"type":"objectgroup","visible":true,"x":0,"y":0,"objects":[{"id":1,"name":"","type":"collision","rotation":0,"visible":true,"x":0.0,"y":0.0,"width":32.0,"height":16.0},{"id":2,"name":"","type":"collision","rotation":0,"visible":true,"x":16.0,"y":16.0,"width":16.0,"height":16.0}]}},{"id":99,"properties":[{"name":"blob","type":"string","value":"sidewalk-building"},{"name":"collides","type":"bool","value":true}],"objectgroup":{"draworder":"index","id":2,"name":"","opacity":1,"type":"objectgroup","visible":true,"x":0,"y":0,"objects":[{"id":1,"name":"","type":"collision","rotation":0,"visible":true,"x":0.0,"y":0.0,"width":32.0,"height":32.0}]}},{"id":100,"properties":[{"name":"blob","type":"string","value":"sidewalk-building"},{"name":"collides","type":"bool","value":true}],"objectgroup":{"draworder":"index","id":2,"name":"","opacity":1,"type":"objectgroup","visible":true,"x":0,"y":0,"objects":[{"id":1,"name":"","type":"collision","rotation":0,"visible":true,"x":0.0,"y":0.0,"width":32.0,"height":32.0}]}},{"id":101,"properties":[{"name":"blob","type":"string","value":"sidewalk-building"},{"name":"collides","type":"bool","value":true}],"objectgroup":{"draworder":"index","id":2,"name":"","opacity":1,"type":"objectgroup","visible":true,"x":0,"y":0,"objects":[{"id":1,"name":"","type":"collision","rotation":0,"visible":true,"x":0.0,"y":0.0,"width":32.0,"height":32.0}]}},{"id":102,"properties":[{"name":"blob","type":"string","value":"sidewalk-building"},{"name":"collides","type":"bool","value":true}],"objectgroup":{"draworder":"index","id":2,"name":"","opacity":1,"type":"objectgroup","visible":true,"x":0,"y":0,"objects":[{"id":1,"name":"","type":"collision","rotation":0,"visible":true,"x":0.0,"y":0.0,"width":32.0,"height":32.0}]}},{"id":103,"properties":[{"name":"blob","type":"string","value":"sidewalk-building"},{"name":"collides","type":"bool","value":true}],"objectgroup":{"draworder":"index","id":2,"name":"","opacity":1,"type":"objectgroup","visible":true,"x":0,"y":0,"objects":[{"id":1,"name":"","type":"collision","rotation":0,"visible":true,"x":0.0,"y":0.0,"width":32.0,"height":32.0}]}},{"id":104,"properties":[{"name":"blob","type":"string","value":"sidewalk-building"},{"name":"collides","type":"bool","value":true}],"objectgroup":{"draworder":"index","id":2,"name":"","opacity":1,"type":"objectgroup","visible":true,"x":0,"y":0,"objects":[{"id":1,"name":"","type":"collision","rotation":0,"visible":true,"x":0.0,"y":0.0,"width":32.0,"height":32.0}]}},{"id":105,"properties":[{"name":"blob","type":"string","value":"sidewalk-building"},{"name":"collides","type":"bool","value":true}],"objectgroup":{"draworder":"index","id":2,"name":"","opacity":1,"type":"objectgroup","visible":true,"x":0,"y":0,"objects":[{"id":1,"name":"","type":"collision","rotation":0,"visible":true,"x":0.0,"y":0.0,"width":32.0,"height":32.0}]}},{"id":106,"properties":[{"name":"blob","type":"string","value":"sidewalk-building"},{"name":"collides","type":"bool","value":true}],"objectgroup":{"draworder":"index","id":2,"name":"","opacity":1,"type":"objectgroup","visible":true,"x":0,"y":0,"objects":[{"id":1,"name":"","type":"collision","rotation":0,"visible":true,"x":0.0,"y":0.0,"width":32.0,"height":32.0}]}},{"id":107,"properties":[{"name":"blob","type":"string","value":"sidewalk-building"},{"name":"collides","type":"bool","value":true}],"objectgroup":{"draworder":"index","id":2,"name":"","opacity":1,"type":"objectgroup","visible":true,"x":0,"y":0,"objects":[{"id":1,"name":"","type":"collision","rotation":0,"visible":true,"x":0.0,"y":0.0,"width":32.0,"height":32.0}]}},{"id":108,"properties":[{"name":"blob","type":"string","value":"sidewalk-building"},{"name":"collides","type":"bool","value":true}],"objectgroup":{"draworder":"index","id":2,"name":"","opacity":1,"type":"objectgroup","visible":true,"x":0,"y":0,"objects":[{"id":1,"name":"","type":"collision","rotation":0,"visible":true,"x":0.0,"y":0.0,"width":32.0,"height":32.0}]}},{"id":109,"properties":[{"name":"blob","type":"string","value":"sidewalk-building"},{"name":"collides","type":"bool","value":true}],"objectgroup":{"draworder":"index","id":2,"name":"","opacity":1,"type":"objectgroup","visible":true,"x":0,"y":0,"objects":[{"id":1,"name":"","type":"collision","rotation":0,"visible":true,"x":0.0,"y":0.0,"width":32.0,"height":32.0}]}},{"id":110,"properties":[{"name":"blob","type":"string","value":"sidewalk-building"},{"name":"collides","type":"bool","value":true}],"objectgroup":{"draworder":"index","id":2,"name":"","opacity":1,"type":"objectgroup","visible":true,"x":0,"y":0,"objects":[{"id":1,"name":"","type":"collision","rotation":0,"visible":true,"x":0.0,"y":0.0,"width":32.0,"height":32.0}]}},{"id":111,"properties":[{"name":"blob","type":"string","value":"sidewalk-building"},{"name":"collides","type":"bool","value":true}],"objectgroup":{"draworder":"index","id":2,"name":"","opacity":1,"type":"objectgroup","visible":true,"x":0,"y":0,"objects":[{"id":1,"name":"","type":"collision","rotation":0,"visible":true,"x":0.0,"y":0.0,"width":32.0,"height":32.0}]}},{"id":112,"properties":[{"name":"blob","type":"string","value":"sidewalk-building"},{"name":"collides","type":"bool","value":true}],"objectgroup":{"draworder":"index","id":2,"name":"","opacity":1,"type":"objectgroup","visible":true,"x":0,"y":0,"objects":[{"id":1,"name":"","type":"collision","rotation":0,"visible":true,"x":0.0,"y":0.0,"width":32.0,"height":32.0}]}},{"id":113,"properties":[{"name":"blob","type":"string","value":"sidewalk-building"},{"name":"collides","type":"bool","value":true}],"objectgroup":{"draworder":"index","id":2,"name":"","opacity":1,"type":"objectgroup","visible":true,"x":0,"y":0,"objects":[{"id":1,"name":"","type":"collision","rotation":0,"visible":true,"x":0.0,"y":0.0,"width":32.0,"height":32.0}]}},{"id":114,"properties":[{"name":"blob","type":"string","value":"sidewalk-building"},{"name":"collides","type":"bool","value":true}],"objectgroup":{"draworder":"index","id":2,"name":"","opacity":1,"type":"objectgroup","visible":true,"x":0,"y":0,"objects":[{"id":1,"name":"","type":"collision","rotation":0,"visible":true,"x":0.0,"y":0.0,"width":32.0,"height":32.0}]}},{"id":115,"properties":[{"name":"blob","type":"string","value":"sidewalk-building"},{"name":"collides","type":"bool","value":true}],"objectgroup":{"draworder":"index","id":2,"name":"","opacity":1,"type":"objectgroup","visible":true,"x":0,"y":0,"objects":[{"id":1,"name":"","type":"collision","rotation":0,"visible":true,"x":0.0,"y":0.0,"width":32.0,"height":32.0}]}},{"id":116,"properties":[{"name":"blob","type":"string","value":"sidewalk-building"},{"name":"collides","type":"bool","value":true}],"objectgroup":{"draworder":"index","id":2,"name":"","opacity":1,"type":"objectgroup","visible":true,"x":0,"y":0,"objects":[{"id":1,"name":"","type":"collision","rotation":0,"visible":true,"x":0.0,"y":0.0,"width":32.0,"height":32.0}]}},{"id":117,"properties":[{"name":"blob","type":"string","value":"sidewalk-building"},{"name":"collides","type":"bool","value":true}],"objectgroup":{"draworder":"index","id":2,"name":"","opacity":1,"type":"objectgroup","visible":true,"x":0,"y":0,"objects":[{"id":1,"name":"","type":"collision","rotation":0,"visible":true,"x":0.0,"y":0.0,"width":32.0,"height":32.0}]}},{"id":118,"properties":[{"name":"blob","type":"string","value":"sidewalk-building"},{"name":"collides","type":"bool","value":true}],"objectgroup":{"draworder":"index","id":2,"name":"","opacity":1,"type":"objectgroup","visible":true,"x":0,"y":0,"objects":[{"id":1,"name":"","type":"collision","rotation":0,"visible":true,"x":0.0,"y":0.0,"width":32.0,"height":32.0}]}},{"id":119,"properties":[{"name":"blob","type":"string","value":"sidewalk-building"},{"name":"collides","type":"bool","value":true}],"objectgroup":{"draworder":"index","id":2,"name":"","opacity":1,"type":"objectgroup","visible":true,"x":0,"y":0,"objects":[{"id":1,"name":"","type":"collision","rotation":0,"visible":true,"x":0.0,"y":0.0,"width":32.0,"height":32.0}]}},{"id":120,"properties":[{"name":"blob","type":"string","value":"sidewalk-building"},{"name":"collides","type":"bool","value":true}],"objectgroup":{"draworder":"index","id":2,"name":"","opacity":1,"type":"objectgroup","visible":true,"x":0,"y":0,"objects":[{"id":1,"name":"","type":"collision","rotation":0,"visible":true,"x":0.0,"y":0.0,"width":32.0,"height":32.0}]}},{"id":121,"properties":[{"name":"blob","type":"string","value":"sidewalk-building"},{"name":"collides","type":"bool","value":true}],"objectgroup":{"draworder":"index","id":2,"name":"","opacity":1,"type":"objectgroup","visible":true,"x":0,"y":0,"objects":[{"id":1,"name":"","type":"collision","rotation":0,"visible":true,"x":0.0,"y":0.0,"width":32.0,"height":32.0}]}},{"id":122,"properties":[{"name":"blob","type":"string","value":"sidewalk-building"},{"name":"collides","type":"bool","value":true}],"objectgroup":{"draworder":"index","id":2,"name":"","opacity":1,"type":"objectgroup","visible":true,"x":0,"y":0,"objects":[{"id":1,"name":"","type":"collision","rotation":0,"visible":true,"x":0.0,"y":0.0,"width":32.0,"height":32.0}]}},{"id":123,"properties":[{"name":"blob","type":"string","value":"sidewalk-building"},{"name":"collides","type":"bool","value":true}],"objectgroup":{"draworder":"index","id":2,"name":"","opacity":1,"type":"objectgroup","visible":true,"x":0,"y":0,"objects":[{"id":1,"name":"","type":"collision","rotation":0,"visible":true,"x":0.0,"y":0.0,"width":32.0,"height":32.0}]}},{"id":124,"properties":[{"name":"blob","type":"string","value":"sidewalk-building"},{"name":"collides","type":"bool","value":true}],"objectgroup":{"draworder":"index","id":2,"name":"","opacity":1,"type":"objectgroup","visible":true,"x":0,"y":0,"objects":[{"id":1,"name":"","type":"collision","rotation":0,"visible":true,"x":0.0,"y":0.0,"width":32.0,"height":32.0}]}},{"id":125,"properties":[{"name":"blob","type":"string","value":"sidewalk-building"},{"name":"collides","type":"bool","value":true}],"objectgroup":{"draworder":"index","id":2,"name":"","opacity":1,"type":"objectgroup","visible":true,"x":0,"y":0,"objects":[{"id":1,"name":"","type":"collision","rotation":0,"visible":true,"x":0.0,"y":0.0,"width":32.0,"height":32.0}]}},{"id":126,"properties":[{"name":"blob","type":"string","value":"sidewalk-building"},{"name":"collides","type":"bool","value":true}],"objectgroup":{"draworder":"index","id":2,"name":"","opacity":1,"type":"objectgroup","visible":true,"x":0,"y":0,"objects":[{"id":1,"name":"","type":"collision","rotation":0,"visible":true,"x":0.0,"y":0.0,"width":32.0,"height":32.0}]}},{"id":128,"properties":[{"name":"blob","type":"string","value":"plaza-water"}]},{"id":129,"properties":[{"name":"blob","type":"string","value":"plaza-water"},{"name":"collides","type":"bool","value":true}],"objectgroup":{"draworder":"index","id":2,"name":"","opacity":1,"type":"objectgroup","visible":true,"x":0,"y":0,"objects":[{"id":1,"name":"","type":"collision","rotation":0,"visible":true,"x":0.0,"y":0.0,"width":16.0,"height":32.0}]}},{"id":130,"properties":[{"name":"blob","type":"string","value":"plaza-water"},{"name":"collides","type":"bool","value":true}],"objectgroup":{"draworder":"index","id":2,"name":"","opacity":1,"type":"objectgroup","visible":true,"x":0,"y":0,"objects":[{"id":1,"name":"","type":"collision","rotation":0,"visible":true,"x":0.0,"y":16.0,"width":32.0,"height":16.0}]}},{"id":131,"properties":[{"name":"blob","type":"string","value":"plaza-water"},{"name":"collides","type":"bool","value":true}],"objectgroup":{"draworder":"index","id":2,"name":"","opacity":1,"type":"objectgroup","visible":true,"x":0,"y":0,"objects":[{"id":1,"name":"","type":"collision","rotation":0,"visible":true,"x":16.0,"y":0.0,"width":16.0,"height":32.0}]}},{"id":132,"properties":[{"name":"blob","type":"string","value":"plaza-water"},{"name":"collides","type":"bool","value":true}],"objectgroup":{"draworder":"index","id":2,"name":"","opacity":1,"type":"objectgroup","visible":true,"x":0,"y":0,"objects":[{"id":1,"name":"","type":"collision","rotation":0,"visible":true,"x":0.0,"y":0.0,"width":32.0,"height":16.0}]}},{"id":133,"properties":[{"name":"blob","type":"string","value":"plaza-water"},{"name":"collides","type":"bool","value":true}],"objectgroup":{"draworder":"index","id":2,"name":"","opacity":1,"type":"objectgroup","visible":true,"x":0,"y":0,"objects":[{"id":1,"name":"","type":"collision","rotation":0,"visible":true,"x":0.0,"y":16.0,"width":32.0,"height":16.0},{"id":2,"name":"","type":"collision","rotation":0,"visible":true,"x":0.0,"y":0.0,"width":16.0,"height":16.0}]}},{"id":134,"properties":[{"name":"blob","type":"string","value":"plaza-water"},{"name":"collides","type":"bool","value":true}],"objectgroup":{"draworder":"index","id":2,"name":"","opacity":1,"type":"objectgroup","visible":true,"x":0,"y":0,"objects":[{"id":1,"name":"","type":"collision","rotation":0,"visible":true,"x":0.0,"y":0.0,"width":32.0,"height":32.0}]}},{"id":135,"properties":[{"name":"blob","type":"string","value":"plaza-water"},{"name":"collides","type":"bool","value":true}],"objectgroup":{"draworder":"index","id":2,"name":"","opacity":1,"type":"objectgroup","visible":true,"x":0,"y":0,"objects":[{"id":1,"name":"","type":"collision","rotation":0,"visible":true,"x":0.0,"y":16.0,"width":32.0,"height":16.0},{"id":2,"name":"","type":"collision","rotation":0,"visible":true,"x":16.0,"y":0.0,"width":16.0,"height":16.0}]}},{"id":136,"properties":[{"name":"blob","type":"string","value":"plaza-water"},{"name":"collides","type":"bool","value":true}],"objectgroup":{"draworder":"index","id":2,"name":"","opacity":1,"type":"objectgroup","visible":true,"x":0,"y":0,"objects":[{"id":1,"name":"","type":"collision","rotation":0,"visible":true,"x":0.0,"y":0.0,"width":32.0,"height":16.0},{"id":2,"name":"","type":"collision","rotation":0,"visible":true,"x":0.0,"y":16.0,"width":16.0,"height":16.0}]}},{"id":137,"properties":[{"name":"blob","type":"string","value":"plaza-water"},{"name":"collides","type":"bool","value":true}],"objectgroup":{"draworder":"index","id":2,"name":"","opacity":1,"type":"objectgroup","visible":true,"x":0,"y":0,"objects":[{"id":1,"name":"","type":"collision","rotation":0,"visible":true,"x":0.0,"y":0.0,"width":32.0,"height":32.0}]}},{"id":138,"properties":[{"name":"blob","type":"string","value":"plaza-water"},{"name":"collides","type":"bool","value":true}],"objectgroup":{"draworder":"index","id":2,"name":"","opacity":1,"type":"objectgroup","visible":true,"x":0,"y":0,"objects":[{"id":1,"name":"","type":"collision","rotation":0,"visible":true,"x":0.0,"y":0.0,"width":32.0,"height":16.0},{"id":2,"name":"","type":"collision","rotation":0,"visible":true,"x":16.0,"y":16.0,"width":16.0,"height":16.0}]}},{"id":139,"properties":[{"name":"blob","type":"string","value":"plaza-water"},{"name":"collides","type":"bool","value":true}],"objectgroup":{"draworder":"index","id":2,"name":"","opacity":1,"type":"objectgroup","visible":true,"x":0,"y":0,"objects":[{"id":1,"name":"","type":"collision","rotation":0,"visible":true,"x":0.0,"y":16.0,"width":32.0,"height":16.0},{"id":2,"name":"","type":"collision","rotation":0,"visible":true,"x":0.0,"y":0.0,"width":16.0,"height":16.0}]}},{"id":140,"properties":[{"name":"blob","type":"string","value":"plaza-water"},{"name":"collides","type":"bool","value":true}],"objectgroup":{"draworder":"index","id":2,"name":"","opacity":1,"type":"objectgroup","visible":true,"x":0,"y":0,"objects":[{"id":1,"name":"","type":"collision","rotation":0,"visible":true,"x":0.0,"y":0.0,"width":32.0,"height":32.0}]}},{"id":141,"properties":[{"name":"blob","type":"string","value":"plaza-water"},{"name":"collides","type":"bool","value":true}],"objectgroup":{"draworder":"index","id":2,"name":"","opacity":1,"type":"objectgroup","visible":true,"x":0,"y":0,"objects":[{"id":1,"name":"","type":"collision","rotation":0,"visible":true,"x":0.0,"y":16.0,"width":32.0,"height":16.0},{"id":2,"name":"","type":"collision","rotation":0,"visible":true,"x":16.0,"y":0.0,"width":16.0,"height":16.0}]}},{"id":142,"properties":[{"name":"blob","type":"string","value":"plaza-water"},{"name":"collides","type":"bool","value":true}],"objectgroup":{"draworder":"index","id":2,"name":"","opacity":1,"type":"objectgroup","visible":true,"x":0,"y":0,"objects":[{"id":1,"name":"","type":"collision","rotation":0,"visible":true,"x":0.0,"y":0.0,"width":32.0,"height":16.0},{"id":2,"name":"","type":"collision","rotation":0,"visible":true,"x":0.0,"y":16.0,"width":16.0,"height":16.0}]}},{"id":143,"properties":[{"name":"blob","type":"string","value":"plaza-water"},{"name":"collides","type":"bool","value":true}],"objectgroup":{"draworder":"index","id":2,"name":"","opacity":1,"type":"objectgroup","visible":true,"x":0,"y":0,"objects":[{"id":1,"name":"","type":"collision","rotation":0,"visible":true,"x":0.0,"y":0.0,"width":32.0,"height":32.0}]}},{"id":144,"properties":[{"name":"blob","type":"string","value":"plaza-water"},{"name":"collides","type":"bool","value":true}],"objectgroup":{"draworder":"index","id":2,"name":"","opacity":1,"type":"objectgroup","visible":true,"x":0,"y":0,"objects":[{"id":1,"name":"","type":"collision","rotation":0,"visible":true,"x":0.0,"y":0.0,"width":32.0,"height":32.0}]}},{"id":145,"properties":[{"name":"blob","type":"string","value":"plaza-water"},{"name":"collides","type":"bool","value":true}],"objectgroup":{"draworder":"index","id":2,"name":"","opacity":1,"type":"objectgroup","visible":true,"x":0,"y":0,"objects":[{"id":1,"name":"","type":"collision","rotation":0,"visible":true,"x":0.0,"y":0.0,"width":32.0,"height":32.0}]}},{"id":146,"properties":[{"name":"blob","type":"string","value":"plaza-water"},{"name":"collides","type":"bool","value":true}],"objectgroup":{"draworder":"index","id":2,"name":"","opacity":1,"type":"objectgroup","visible":true,"x":0,"y":0,"objects":[{"id":1,"name":"","type":"collision","rotation":0,"visible":true,"x":0.0,"y":0.0,"width":32.0,"height":16.0},{"id":2,"name":"","type":"collision","rotation":0,"visible":true,"x":16.0,"y":16.0,"width":16.0,"height":16.0}]}},{"id":147,"properties":[{"name":"blob","type":"string","value":"plaza-water"},{"name":"collides","type":"bool","value":true}],"objectgroup":{"draworder":"index","id":2,"name":"","opacity":1,"type":"objectgroup","visible":true,"x":0,"y":0,"objects":[{"id":1,"name":"","type":"collision","rotation":0,"visible":true,"x":0.0,"y":0.0,"width":32.0,"height":32.0}]}},{"id":148,"properties":[{"name":"blob","type":"string","value":"plaza-water"},{"name":"collides","type":"bool","value":true}],"objectgroup":{"draworder":"index","id":2,"name":"","opacity":1,"type":"objectgroup","visible":true,"x":0,"y":0,"objects":[{"id":1,"name":"","type":"collision","rotation":0,"visible":true,"x":0.0,"y":0.0,"width":32.0,"height":32.0}]}},{"id":149,"properties":[{"name":"blob","type":"string","value":"plaza-water"},{"name":"collides","type":"bool","value":true}],"objectgroup":{"draworder":"index","id":2,"name":"","opacity":1,"type":"objectgroup","visible":true,"x":0,"y":0,"objects":[{"id":1,"name":"","type":"collision","rotation":0,"visible":true,"x":0.0,"y":0.0,"width":32.0,"height":32.0}]}},{"id":150,"properties":[{"name":"blob","type":"string","value":"plaza-water"},{"name":"collides","type":"bool","value":true}],"objectgroup":{"draworder":"index","id":2,"name":"","opacity":1,"type":"objectgroup","visible":true,"x":0,"y":0,"objects":[{"id":1,"name":"","type":"collision","rotation":0,"visible":true,"x":0.0,"y":0.0,"width":32.0,"height":32.0}]}},{"id":151,"properties":[{"name":"blob","type":"string","value":"plaza-water"},{"name":"collides","type":"bool","value":true}],"objectgroup":{"draworder":"index","id":2,"name":"","opacity":1,"type":"objectgroup","visible":true,"x":0,"y":0,"objects":[{"id":1,"name":"","type":"collision","rotation":0,"visible":true,"x":0.0,"y":0.0,"width":32.0,"height":32.0}]}},{"id":152,"properties":[{"name":"blob","type":"string","value":"plaza-water"},{"name":"collides","type":"bool","value":true}],"objectgroup":{"draworder":"index","id":2,"name":"","opacity":1,"type":"objectgroup","visible":true,"x":0,"y":0,"objects":[{"id":1,"name":"","type":"collision","rotation":0,"visible":true,"x":0.0,"y":0.0,"width":32.0,"height":32.0}]}},{"id":153,"properties":[{"name":"blob","type":"string","value":"plaza-water"},{"name":"collides","type":"bool","value":true}],"objectgroup":{"draworder":"index","id":2,"name":"","opacity":1,"type":"objectgroup","visible":true,"x":0,"y":0,"objects":[{"id":1,"name":"","type":"collision","rotation":0,"visible":true,"x":0.0,"y":0.0,"width":32.0,"height":32.0}]}},{"id":154,"properties":[{"name":"blob","type":"string","value":"plaza-water"},{"name":"collides","type":"bool","value":true}],"objectgroup":{"draworder":"index","id":2,"name":"","opacity":1,"type":"objectgroup","visible":true,"x":0,"y":0,"objects":[{"id":1,"name":"","type":"collision","rotation":0,"visible":true,"x":0.0,"y":0.0,"width":32.0,"height":32.0}]}},{"id":155,"properties":[{"name":"blob","type":"string","value":"plaza-water"},{"name":"collides","type":"bool","value":true}],"objectgroup":{"draworder":"index","id":2,"name":"","opacity":1,"type":"objectgroup","visible":true,"x":0,"y":0,"objects":[{"id":1,"name":"","type":"collision","rotation":0,"visible":true,"x":0.0,"y":0.0,"width":32.0,"height":32.0}]}},{"id":156,"properties":[{"name":"blob","type":"string","value":"plaza-water"},{"name":"collides","type":"bool","value":true}],"objectgroup":{"draworder":"index","id":2,"name":"","opacity":1,"type":"objectgroup","visible":true,"x":0,"y":0,"objects":[{"id":1,"name":"","type":"collision","rotation":0,"visible":true,"x":0.0,"y":0.0,"width":32.0,"height":32.0}]}},{"id":157,"properties":[{"name":"blob","type":"string","value":"plaza-water"},{"name":"collides","type":"bool","value":true}],"objectgroup":{"draworder":"index","id":2,"name":"","opacity":1,"type":"objectgroup","visible":true,"x":0,"y":0,"objects":[{"id":1,"name":"","type":"collision","rotation":0,"visible":true,"x":0.0,"y":0.0,"width":32.0,"height":32.0}]}},{"id":158,"properties":[{"name":"blob","type":"string","value":"plaza-water"},{"name":"collides","type":"bool","value":true}],"objectgroup":{"draworder":"index","id":2,"name":"","opacity":1,"type":"objectgroup","visible":true,"x":0,"y":0,"objects":[{"id":1,"name":"","type":"collision","rotation":0,"visible":true,"x":0.0,"y":0.0,"width":32.0,"height":32.0}]}},{"id":159,"properties":[{"name":"blob","type":"string","value":"plaza-water"},{"name":"collides","type":"bool","value":true}],"objectgroup":{"draworder":"index","id":2,"name":"","opacity":1,"type":"objectgroup","visible":true,"x":0,"y":0,"objects":[{"id":1,"name":"","type":"collision","rotation":0,"visible":true,"x":0.0,"y":0.0,"width":32.0,"height":32.0}]}},{"id":160,"properties":[{"name":"blob","type":"string","value":"plaza-water"},{"name":"collides","type":"bool","value":true}],"objectgroup":{"draworder":"index","id":2,"name":"","opacity":1,"type":"objectgroup","visible":true,"x":0,"y":0,"objects":[{"id":1,"name":"","type":"collision","rotation":0,"visible":true,"x":0.0,"y":0.0,"width":32.0,"height":32.0}]}},{"id":161,"properties":[{"name":"blob","type":"string","value":"plaza-water"},{"name":"collides","type":"bool","value":true}],"objectgroup":{"draworder":"index","id":2,"name":"","opacity":1,"type":"objectgroup","visible":true,"x":0,"y":0,"objects":[{"id":1,"name":"","type":"collision","rotation":0,"visible":true,"x":0.0,"y":0.0,"width":32.0,"height":32.0}]}},{"id":162,"properties":[{"name":"blob","type":"string","value":"plaza-water"},{"name":"collides","type":"bool","value":true}],"objectgroup":{"draworder":"index","id":2,"name":"","opacity":1,"type":"objectgroup","visible":true,"x":0,"y":0,"objects":[{"id":1,"name":"","type":"collision","rotation":0,"visible":true,"x":0.0,"y":0.0,"width":32.0,"height":32.0}]}},{"id":163,"properties":[{"name":"blob","type":"string","value":"plaza-water"},{"name":"collides","type":"bool","value":true}],"objectgroup":{"draworder":"index","id":2,"name":"","opacity":1,"type":"objectgroup","visible":true,"x":0,"y":0,"objects":[{"id":1,"name":"","type":"collision","rotation":0,"visible":true,"x":0.0,"y":0.0,"width":32.0,"height":32.0}]}},{"id":164,"properties":[{"name":"blob","type":"string","value":"plaza-water"},{"name":"collides","type":"bool","value":true}],"objectgroup":{"draworder":"index","id":2,"name":"","opacity":1,"type":"objectgroup","visible":true,"x":0,"y":0,"objects":[{"id":1,"name":"","type":"collision","rotation":0,"visible":true,"x":0.0,"y":0.0,"width":32.0,"height":32.0}]}},{"id":165,"properties":[{"name":"blob","type":"string","value":"plaza-water"},{"name":"collides","type":"bool","value":true}],"objectgroup":{"draworder":"index","id":2,"name":"","opacity":1,"type":"objectgroup","visible":true,"x":0,"y":0,"objects":[{"id":1,"name":"","type":"collision","rotation":0,"visible":true,"x":0.0,"y":0.0,"width":32.0,"height":32.0}]}},{"id":166,"properties":[{"name":"blob","type":"string","value":"plaza-water"},{"name":"collides","type":"bool","value":true}],"objectgroup":{"draworder":"index","id":2,"name":"","opacity":1,"type":"objectgroup","visible":true,"x":0,"y":0,"objects":[{"id":1,"name":"","type":"collision","rotation":0,"visible":true,"x":0.0,"y":0.0,"width":32.0,"height":32.0}]}},{"id":167,"properties":[{"name":"blob","type":"string","value":"plaza-water"},{"name":"collides","type":"bool","value":true}],"objectgroup":{"draworder":"index","id":2,"name":"","opacity":1,"type":"objectgroup","visible":true,"x":0,"y":0,"objects":[{"id":1,"name":"","type":"collision","rotation":0,"visible":true,"x":0.0,"y":0.0,"width":32.0,"height":32.0}]}},{"id":168,"properties":[{"name":"blob","type":"string","value":"plaza-water"},{"name":"collides","type":"bool","value":true}],"objectgroup":{"draworder":"index","id":2,"name":"","opacity":1,"type":"objectgroup","visible":true,"x":0,"y":0,"objects":[{"id":1,"name":"","type":"collision","rotation":0,"visible":true,"x":0.0,"y":0.0,"width":32.0,"height":32.0}]}},{"id":169,"properties":[{"name":"blob","type":"string","value":"plaza-water"},{"name":"collides","type":"bool","value":true}],"objectgroup":{"draworder":"index","id":2,"name":"","opacity":1,"type":"objectgroup","visible":true,"x":0,"y":0,"objects":[{"id":1,"name":"","type":"collision","rotation":0,"visible":true,"x":0.0,"y":0.0,"width":32.0,"height":32.0}]}},{"id":170,"properties":[{"name":"blob","type":"string","value":"plaza-water"},{"name":"collides","type":"bool","value":true}],"objectgroup":{"draworder":"index","id":2,"name":"","opacity":1,"type":"objectgroup","visible":true,"x":0,"y":0,"objects":[{"id":1,"name":"","type":"collision","rotation":0,"visible":true,"x":0.0,"y":0.0,"width":32.0,"height":32.0}]}},{"id":171,"properties":[{"name":"blob","type":"string","value":"plaza-water"},{"name":"collides","type":"bool","value":true}],"objectgroup":{"draworder":"index","id":2,"name":"","opacity":1,"type":"objectgroup","visible":true,"x":0,"y":0,"objects":[{"id":1,"name":"","type":"collision","rotation":0,"visible":true,"x":0.0,"y":0.0,"width":32.0,"height":32.0}]}},{"id":172,"properties":[{"name":"blob","type":"string","value":"plaza-water"},{"name":"collides","type":"bool","value":true}],"objectgroup":{"draworder":"index","id":2,"name":"","opacity":1,"type":"objectgroup","visible":true,"x":0,"y":0,"objects":[{"id":1,"name":"","type":"collision","rotation":0,"visible":true,"x":0.0,"y":0.0,"width":32.0,"height":32.0}]}},{"id":173,"properties":[{"name":"blob","type":"string","value":"plaza-water"},{"name":"collides","type":"bool","value":true}],"objectgroup":{"draworder":"index","id":2,"name":"","opacity":1,"type":"objectgroup","visible":true,"x":0,"y":0,"objects":[{"id":1,"name":"","type":"collision","rotation":0,"visible":true,"x":0.0,"y":0.0,"width":32.0,"height":32.0}]}},{"id":174,"properties":[{"name":"blob","type":"string","value":"plaza-water"},{"name":"collides","type":"bool","value":true}],"objectgroup":{"draworder":"index","id":2,"name":"","opacity":1,"type":"objectgroup","visible":true,"x":0,"y":0,"objects":[{"id":1,"name":"","type":"collision","rotation":0,"visible":true,"x":0.0,"y":0.0,"width":32.0,"height":32.0}]}},{"id":176,"properties":[{"name":"blob","type":"string","value":"sidewalk-grass"}]},{"id":177,"properties":[{"name":"blob","type":"string","value":"sidewalk-grass"}]},{"id":178,"properties":[{"name":"blob","type":"string","value":"sidewalk-grass"}]},{"id":179,"properties":[{"name":"blob","type":"string","value":"sidewalk-grass"}]},{"id":180,"properties":[{"name":"blob","type":"string","value":"sidewalk-grass"}]},{"id":181,"properties":[{"name":"blob","type":"string","value":"sidewalk-grass"}]},{"id":182,"properties":[{"name":"blob","type":"string","value":"sidewalk-grass"}]},{"id":183,"properties":[{"name":"blob","type":"string","value":"sidewalk-grass"}]},{"id":184,"properties":[{"name":"blob","type":"string","value":"sidewalk-grass"}]},{"id":185,"properties":[{"name":"blob","type":"string","value":"sidewalk-grass"}]},{"id":186,"properties":[{"name":"blob","type":"string","value":"sidewalk-grass"}]},{"id":187,"properties":[{"name":"blob","type":"string","value":"sidewalk-grass"}]},{"id":188,"properties":[{"name":"blob","type":"string","value":"sidewalk-grass"}]},{"id":189,"properties":[{"name":"blob","type":"string","value":"sidewalk-grass"}]},{"id":190,"properties":[{"name":"blob","type":"string","value":"sidewalk-grass"}]},{"id":191,"properties":[{"name":"blob","type":"string","value":"sidewalk-grass"}]},{"id":192,"properties":[{"name":"blob","type":"string","value":"sidewalk-grass"}]},{"id":193,"properties":[{"name":"blob","type":"string","value":"sidewalk-grass"}]},{"id":194,"properties":[{"name":"blob","type":"string","value":"sidewalk-grass"}]},{"id":195,"properties":[{"name":"blob","type":"string","value":"sidewalk-grass"}]},{"id":196,"properties":[{"name":"blob","type":"string","value":"sidewalk-grass"}]},{"id":197,"properties":[{"name":"blob","type":"string","value":"sidewalk-grass"}]},{"id":198,"properties":[{"name":"blob","type":"string","value":"sidewalk-grass"}]},{"id":199,"properties":[{"name":"blob","type":"string","value":"sidewalk-grass"}]},{"id":200,"properties":[{"name":"blob","type":"string","value":"sidewalk-grass"}]},{"id":201,"properties":[{"name":"blob","type":"string","value":"sidewalk-grass"}]},{"id":202,"properties":[{"name":"blob","type":"string","value":"sidewalk-grass"}]},{"id":203,"properties":[{"name":"blob","type":"string","value":"sidewalk-grass"}]},{"id":204,"properties":[{"name":"blob","type":"string","value":"sidewalk-grass"}]},{"id":205,"properties":[{"name":"blob","type":"string","value":"sidewalk-grass"}]},{"id":206,"properties":[{"name":"blob","type":"string","value":"sidewalk-grass"}]},{"id":207,"properties":[{"name":"blob","type":"string","value":"sidewalk-grass"}]},{"id":208,"properties":[{"name":"blob","type":"string","value":"sidewalk-grass"}]},{"id":209,"properties":[{"name":"blob","type":"string","value":"sidewalk-grass"}]},{"id":210,"properties":[{"name":"blob","type":"string","value":"sidewalk-grass"}]},{"id":211,"properties":[{"name":"blob","type":"string","value":"sidewalk-grass"}]},{"id":212,"properties":[{"name":"blob","type":"string","value":"sidewalk-grass"}]},{"id":213,"properties":[{"name":"blob","type":"string","value":"sidewalk-grass"}]},{"id":214,"properties":[{"name":"blob","type":"string","value":"sidewalk-grass"}]},{"id":215,"properties":[{"name":"blob","type":"string","value":"sidewalk-grass"}]},{"id":216,"properties":[{"name":"blob","type":"string","value":"sidewalk-grass"}]},{"id":217,"properties":[{"name":"blob","type":"string","value":"sidewalk-grass"}]},{"id":218,"properties":[{"name":"blob","type":"string","value":"sidewalk-grass"}]},{"id":219,"properties":[{"name":"blob","type":"string","value":"sidewalk-grass"}]},{"id":220,"properties":[{"name":"blob","type":"string","value":"sidewalk-grass"}]},{"id":221,"properties":[{"name":"blob","type":"string","value":"sidewalk-grass"}]},{"id":222,"properties":[{"name":"blob","type":"string","value":"sidewalk-grass"}]},{"id":224,"properties":[{"name":"collides","type":"bool","value":true},{"name":"prop","type":"string","value":"street_lamp"}],"objectgroup":{"draworder":"index","id":2,"name":"","opacity":1,"type":"objectgroup","visible":true,"x":0,"y":0,"objects":[{"id":1,"name":"","type":"collision","rotation":0,"visible":true,"x":10.0,"y":3.0,"width":12.0,"height":27.0}]}},{"id":225,"properties":[{"name":"collides","type":"bool","value":true},{"name":"prop","type":"string","value":"planter_tree"}],"objectgroup":{"draworder":"index","id":2,"name":"","opacity":1,"type":"objectgroup","visible":true,"x":0,"y":0,"objects":[{"id":1,"name":"","type":"collision","rotation":0,"visible":true,"x":5.0,"y":5.0,"width":27.0,"height":27.0}]}},{"id":226,"properties":[{"name":"collides","type":"bool","value":true},{"name":"prop","type":"string","value":"planter_tree"}],"objectgroup":{"draworder":"index","id":2,"name":"","opacity":1,"type":"objectgroup","visible":true,"x":0,"y":0,"objects":[{"id":1,"name":"","type":"collision","rotation":0,"visible":true,"x":0.0,"y":5.0,"width":30.0,"height":27.0}]}},{"id":227,"properties":[{"name":"collides","type":"bool","value":true},{"name":"prop","type":"string","value":"planter_small"}],"objectgroup":{"draworder":"index","id":2,"name":"","opacity":1,"type":"objectgroup","visible":true,"x":0,"y":0,"objects":[{"id":1,"name":"","type":"collision","rotation":0,"visible":true,"x":2.0,"y":6.0,"width":30.0,"height":25.0}]}},{"id":228,"properties":[{"name":"collides","type":"bool","value":true},{"name":"prop","type":"string","value":"bench"}],"objectgroup":{"draworder":"index","id":2,"name":"","opacity":1,"type":"objectgroup","visible":true,"x":0,"y":0,"objects":[{"id":1,"name":"","type":"collision","rotation":0,"visible":true,"x":2.0,"y":9.0,"width":30.0,"height":20.0}]}},{"id":229,"properties":[{"name":"collides","type":"bool","value":true},{"name":"prop","type":"string","value":"kiosk"}],"objectgroup":{"draworder":"index","id":2,"name":"","opacity":1,"type":"objectgroup","visible":true,"x":0,"y":0,"objects":[{"id":1,"name":"","type":"collision","rotation":0,"visible":true,"x":1.0,"y":3.0,"width":31.0,"height":29.0}]}},{"id":230,"properties":[{"name":"collides","type":"bool","value":true},{"name":"prop","type":"string","value":"kiosk"}],"objectgroup":{"draworder":"index","id":2,"name":"","opacity":1,"type":"objectgroup","visible":true,"x":0,"y":0,"objects":[{"id":1,"name":"","type":"collision","rotation":0,"visible":true,"x":0.0,"y":3.0,"width":32.0,"height":29.0}]}},{"id":231,"properties":[{"name":"collides","type":"bool","value":true},{"name":"prop","type":"string","value":"car_blue_v"}],"objectgroup":{"draworder":"index","id":2,"name":"","opacity":1,"type":"objectgroup","visible":true,"x":0,"y":0,"objects":[{"id":1,"name":"","type":"collision","rotation":0,"visible":true,"x":6.0,"y":3.0,"width":22.0,"height":29.0}]}},{"id":232,"properties":[{"name":"collides","type":"bool","value":true},{"name":"prop","type":"string","value":"car_purple_v"}],"objectgroup":{"draworder":"index","id":2,"name":"","opacity":1,"type":"objectgroup","visible":true,"x":0,"y":0,"objects":[{"id":1,"name":"","type":"collision","rotation":0,"visible":true,"x":6.0,"y":3.0,"width":22.0,"height":29.0}]}},{"id":233,"properties":[{"name":"collides","type":"bool","value":true},{"name":"prop","type":"string","value":"car_magenta_h"}],"objectgroup":{"draworder":"index","id":2,"name":"","opacity":1,"type":"objectgroup","visible":true,"x":0,"y":0,"objects":[{"id":1,"name":"","type":"collision","rotation":0,"visible":true,"x":3.0,"y":6.0,"width":29.0,"height":23.0}]}},{"id":234,"properties":[{"name":"collides","type":"bool","value":true},{"name":"prop","type":"string","value":"car_magenta_h"}],"objectgroup":{"draworder":"index","id":2,"name":"","opacity":1,"type":"objectgroup","visible":true,"x":0,"y":0,"objects":[{"id":1,"name":"","type":"collision","rotation":0,"visible":true,"x":0.0,"y":6.0,"width":31.0,"height":23.0}]}},{"id":235,"properties":[{"name":"collides","type":"bool","value":true},{"name":"prop","type":"string","value":"hover_taxi_v"}],"objectgroup":{"draworder":"index","id":2,"name":"","opacity":1,"type":"objectgroup","visible":true,"x":0,"y":0,"objects":[{"id":1,"name":"","type":"collision","rotation":0,"visible":true,"x":3.0,"y":3.0,"width":28.0,"height":29.0}]}},{"id":236,"properties":[{"name":"collides","type":"bool","value":true},{"name":"prop","type":"string","value":"rooftop_ac"}],"objectgroup":{"draworder":"index","id":2,"name":"","opacity":1,"type":"objectgroup","visible":true,"x":0,"y":0,"objects":[{"id":1,"name":"","type":"collision","rotation":0,"visible":true,"x":3.0,"y":5.0,"width":28.0,"height":25.0}]}},{"id":237,"properties":[{"name":"collides","type":"bool","value":true},{"name":"prop","type":"string","value":"rooftop_vent"}],"objectgroup":{"draworder":"index","id":2,"name":"","opacity":1,"type":"objectgroup","visible":true,"x":0,"y":0,"objects":[{"id":1,"name":"","type":"collision","rotation":0,"visible":true,"x":6.0,"y":6.0,"width":22.0,"height":23.0}]}},{"id":238,"properties":[{"name":"collides","type":"bool","value":true},{"name":"prop","type":"string","value":"solar_panel"}],"objectgroup":{"draworder":"index","id":2,"name":"","opacity":1,"type":"objectgroup","visible":true,"x":0,"y":0,"objects":[{"id":1,"name":"","type":"collision","rotation":0,"visible":true,"x":1.0,"y":3.0,"width":31.0,"height":29.0}]}},{"id":239,"properties":[{"name":"collides","type":"bool","value":true},{"name":"prop","type":"string","value":"solar_panel"}],"objectgroup":{"draworder":"index","id":2,"name":"","opacity":1,"type":"objectgroup","visible":true,"x":0,"y":0,"objects":[{"id":1,"name":"","type":"collision","rotation":0,"visible":true,"x":0.0,"y":3.0,"width":32.0,"height":29.0}]}},{"id":240,"properties":[{"name":"collides","type":"bool","value":true},{"name":"prop","type":"string","value":"bollard"}],"objectgroup":{"draworder":"index","id":2,"name":"","opacity":1,"type":"objectgroup","visible":true,"x":0,"y":0,"objects":[{"id":1,"name":"","type":"collision","rotation":0,"visible":true,"x":9.0,"y":9.0,"width":16.0,"height":17.0}]}},{"id":241,"properties":[{"name":"collides","type":"bool","value":true},{"name":"prop","type":"string","value":"planter_tree"}],"objectgroup":{"draworder":"index","id":2,"name":"","opacity":1,"type":"objectgroup","visible":true,"x":0,"y":0,"objects":[{"id":1,"name":"","type":"collision","rotation":0,"visible":true,"x":5.0,"y":0.0,"width":27.0,"height":31.0}]}},{"id":242,"properties":[{"name":"collides","type":"bool","value":true},{"name":"prop","type":"string","value":"planter_tree"}],"objectgroup":{"draworder":"index","id":2,"name":"","opacity":1,"type":"objectgroup","visible":true,"x":0,"y":0,"objects":[{"id":1,"name":"","type":"collision","rotation":0,"visible":true,"x":0.0,"y":0.0,"width":30.0,"height":31.0}]}},{"id":243,"properties":[{"name":"prop","type":"string","value":"helipad"}]},{"id":244,"properties":[{"name":"prop","type":"string","value":"helipad"}]},{"id":245,"properties":[{"name":"prop","type":"string","value":"helipad"}]},{"id":246,"properties":[{"name":"collides","type":"bool","value":true},{"name":"prop","type":"string","value":"trash_bin"}],"objectgroup":{"draworder":"index","id":2,"name":"","opacity":1,"type":"objectgroup","visible":true,"x":0,"y":0,"objects":[{"id":1,"name":"","type":"collision","rotation":0,"visible":true,"x":7.0,"y":5.0,"width":20.0,"height":27.0}]}},{"id":247,"properties":[{"name":"collides","type":"bool","value":true},{"name":"prop","type":"string","value":"car_blue_v"}],"objectgroup":{"draworder":"index","id":2,"name":"","opacity":1,"type":"objectgroup","visible":true,"x":0,"y":0,"objects":[{"id":1,"name":"","type":"collision","rotation":0,"visible":true,"x":6.0,"y":0.0,"width":22.0,"height":32.0}]}},{"id":248,"properties":[{"name":"collides","type":"bool","value":true},{"name":"prop","type":"string","value":"car_purple_v"}],"objectgroup":{"draworder":"index","id":2,"name":"","opacity":1,"type":"objectgroup","visible":true,"x":0,"y":0,"objects":[{"id":1,"name":"","type":"collision","rotation":0,"visible":true,"x":6.0,"y":0.0,"width":22.0,"height":32.0}]}},{"id":249,"properties":[{"name":"collides","type":"bool","value":true},{"name":"prop","type":"string","value":"neon_sign"}],"objectgroup":{"draworder":"index","id":2,"name":"","opacity":1,"type":"objectgroup","visible":true,"x":0,"y":0,"objects":[{"id":1,"name":"","type":"collision","rotation":0,"visible":true,"x":1.0,"y":5.0,"width":31.0,"height":25.0}]}},{"id":250,"properties":[{"name":"collides","type":"bool","value":true},{"name":"prop","type":"string","value":"neon_sign"}],"objectgroup":{"draworder":"index","id":2,"name":"","opacity":1,"type":"objectgroup","visible":true,"x":0,"y":0,"objects":[{"id":1,"name":"","type":"collision","rotation":0,"visible":true,"x":0.0,"y":5.0,"width":32.0,"height":25.0}]}},{"id":251,"properties":[{"name":"collides","type":"bool","value":true},{"name":"prop","type":"string","value":"hover_taxi_v"}],"objectgroup":{"draworder":"index","id":2,"name":"","opacity":1,"type":"objectgroup","visible":true,"x":0,"y":0,"objects":[{"id":1,"name":"","type":"collision","rotation":0,"visible":true,"x":3.0,"y":0.0,"width":28.0,"height":32.0}]}},{"id":252,"properties":[{"name":"collides","type":"bool","value":true},{"name":"prop","type":"string","value":"fountain"}],"objectgroup":{"draworder":"index","id":2,"name":"","opacity":1,"type":"objectgroup","visible":true,"x":0,"y":0,"objects":[{"id":1,"name":"","type":"collision","rotation":0,"visible":true,"x":6.0,"y":6.0,"width":26.0,"height":26.0}]}},{"id":253,"properties":[{"name":"collides","type":"bool","value":true},{"name":"prop","type":"string","value":"fountain"}],"objectgroup":{"draworder":"index","id":2,"name":"","opacity":1,"type":"objectgroup","visible":true,"x":0,"y":0,"objects":[{"id":1,"name":"","type":"collision","rotation":0,"visible":true,"x":0.0,"y":3.0,"width":32.0,"height":29.0}]}},{"id":254,"properties":[{"name":"collides","type":"bool","value":true},{"name":"prop","type":"string","value":"fountain"}],"objectgroup":{"draworder":"index","id":2,"name":"","opacity":1,"type":"objectgroup","visible":true,"x":0,"y":0,"objects":[{"id":1,"name":"","type":"collision","rotation":0,"visible":true,"x":0.0,"y":6.0,"width":27.0,"height":26.0}]}},{"id":255,"properties":[{"name":"collides","type":"bool","value":true},{"name":"prop","type":"string","value":"vending_machine"}],"objectgroup":{"draworder":"index","id":2,"name":"","opacity":1,"type":"objectgroup","visible":true,"x":0,"y":0,"objects":[{"id":1,"name":"","type":"collision","rotation":0,"visible":true,"x":4.0,"y":2.0,"width":26.0,"height":30.0}]}},{"id":256,"properties":[{"name":"collides","type":"bool","value":true},{"name":"prop","type":"string","value":"holo_billboard"}],"objectgroup":{"draworder":"index","id":2,"name":"","opacity":1,"type":"objectgroup","visible":true,"x":0,"y":0,"objects":[{"id":1,"name":"","type":"collision","rotation":0,"visible":true,"x":1.0,"y":2.0,"width":31.0,"height":30.0}]}},{"id":257,"properties":[{"name":"collides","type":"bool","value":true},{"name":"prop","type":"string","value":"holo_billboard"}],"objectgroup":{"draworder":"index","id":2,"name":"","opacity":1,"type":"objectgroup","visible":true,"x":0,"y":0,"objects":[{"id":1,"name":"","type":"collision","rotation":0,"visible":true,"x":0.0,"y":2.0,"width":32.0,"height":30.0}]}},{"id":258,"properties":[{"name":"collides","type":"bool","value":true},{"name":"prop","type":"string","value":"hydrant"}],"objectgroup":{"draworder":"index","id":2,"name":"","opacity":1,"type":"objectgroup","visible":true,"x":0,"y":0,"objects":[{"id":1,"name":"","type":"collision","rotation":0,"visible":true,"x":6.0,"y":9.0,"width":22.0,"height":17.0}]}},{"id":259,"properties":[{"name":"prop","type":"string","value":"helipad"}]},{"id":260,"properties":[{"name":"prop","type":"string","value":"helipad"}]},{"id":261,"properties":[{"name":"prop","type":"string","value":"helipad"}]},{"id":262,"properties":[{"name":"collides","type":"bool","value":true},{"name":"prop","type":"string","value":"road_barrier"}],"objectgroup":{"draworder":"index","id":2,"name":"","opacity":1,"type":"objectgroup","visible":true,"x":0,"y":0,"objects":[{"id":1,"name":"","type":"collision","rotation":0,"visible":true,"x":1.0,"y":9.0,"width":31.0,"height":22.0}]}},{"id":263,"properties":[{"name":"collides","type":"bool","value":true},{"name":"prop","type":"string","value":"road_barrier"}],"objectgroup":{"draworder":"index","id":2,"name":"","opacity":1,"type":"objectgroup","visible":true,"x":0,"y":0,"objects":[{"id":1,"name":"","type":"collision","rotation":0,"visible":true,"x":0.0,"y":9.0,"width":32.0,"height":22.0}]}},{"id":264,"properties":[{"name":"collides","type":"bool","value":true},{"name":"prop","type":"string","value":"bus_stop"}],"objectgroup":{"draworder":"index","id":2,"name":"","opacity":1,"type":"objectgroup","visible":true,"x":0,"y":0,"objects":[{"id":1,"name":"","type":"collision","rotation":0,"visible":true,"x":1.0,"y":3.0,"width":31.0,"height":28.0}]}},{"id":265,"properties":[{"name":"collides","type":"bool","value":true},{"name":"prop","type":"string","value":"bus_stop"}],"objectgroup":{"draworder":"index","id":2,"name":"","opacity":1,"type":"objectgroup","visible":true,"x":0,"y":0,"objects":[{"id":1,"name":"","type":"collision","rotation":0,"visible":true,"x":0.0,"y":3.0,"width":32.0,"height":28.0}]}},{"id":266,"properties":[{"name":"collides","type":"bool","value":true},{"name":"prop","type":"string","value":"traffic_light"}],"objectgroup":{"draworder":"index","id":2,"name":"","opacity":1,"type":"objectgroup","visible":true,"x":0,"y":0,"objects":[{"id":1,"name":"","type":"collision","rotation":0,"visible":true,"x":9.0,"y":2.0,"width":14.0,"height":28.0}]}},{"id":268,"properties":[{"name":"collides","type":"bool","value":true},{"name":"prop","type":"string","value":"fountain"}],"objectgroup":{"draworder":"index","id":2,"name":"","opacity":1,"type":"objectgroup","visible":true,"x":0,"y":0,"objects":[{"id":1,"name":"","type":"collision","rotation":0,"visible":true,"x":3.0,"y":0.0,"width":29.0,"height":32.0}]}},{"id":269,"properties":[{"name":"collides","type":"bool","value":true},{"name":"prop","type":"string","value":"fountain"}],"objectgroup":{"draworder":"index","id":2,"name":"","opacity":1,"type":"objectgroup","visible":true,"x":0,"y":0,"objects":[{"id":1,"name":"","type":"collision","rotation":0,"visible":true,"x":0.0,"y":0.0,"width":32.0,"height":32.0}]}},{"id":270,"properties":[{"name":"collides","type":"bool","value":true},{"name":"prop","type":"string","value":"fountain"}],"objectgroup":{"draworder":"index","id":2,"name":"","opacity":1,"type":"objectgroup","visible":true,"x":0,"y":0,"objects":[{"id":1,"name":"","type":"collision","rotation":0,"visible":true,"x":0.0,"y":0.0,"width":32.0,"height":32.0}]}},{"id":272,"properties":[{"name":"collides","type":"bool","value":true},{"name":"prop","type":"string","value":"archive_dome"}],"objectgroup":{"draworder":"index","id":2,"name":"","opacity":1,"type":"objectgroup","visible":true,"x":0,"y":0,"objects":[{"id":1,"name":"","type":"collision","rotation":0,"visible":true,"x":5.0,"y":5.0,"width":27.0,"height":27.0}]}},{"id":273,"properties":[{"name":"collides","type":"bool","value":true},{"name":"prop","type":"string","value":"archive_dome"}],"objectgroup":{"draworder":"index","id":2,"name":"","opacity":1,"type":"objectgroup","visible":true,"x":0,"y":0,"objects":[{"id":1,"name":"","type":"collision","rotation":0,"visible":true,"x":0.0,"y":2.0,"width":32.0,"height":30.0}]}},{"id":274,"properties":[{"name":"collides","type":"bool","value":true},{"name":"prop","type":"string","value":"archive_dome"}],"objectgroup":{"draworder":"index","id":2,"name":"","opacity":1,"type":"objectgroup","visible":true,"x":0,"y":0,"objects":[{"id":1,"name":"","type":"collision","rotation":0,"visible":true,"x":0.0,"y":5.0,"width":28.0,"height":27.0}]}},{"id":275,"properties":[{"name":"prop","type":"string","value":"helipad"}]},{"id":276,"properties":[{"name":"prop","type":"string","value":"helipad"}]},{"id":277,"properties":[{"name":"prop","type":"string","value":"helipad"}]},{"id":284,"properties":[{"name":"collides","type":"bool","value":true},{"name":"prop","type":"string","value":"fountain"}],"objectgroup":{"draworder":"index","id":2,"name":"","opacity":1,"type":"objectgroup","visible":true,"x":0,"y":0,"objects":[{"id":1,"name":"","type":"collision","rotation":0,"visible":true,"x":6.0,"y":0.0,"width":26.0,"height":29.0}]}},{"id":285,"properties":[{"name":"collides","type":"bool","value":true},{"name":"prop","type":"string","value":"fountain"}],"objectgroup":{"draworder":"index","id":2,"name":"","opacity":1,"type":"objectgroup","visible":true,"x":0,"y":0,"objects":[{"id":1,"name":"","type":"collision","rotation":0,"visible":true,"x":0.0,"y":0.0,"width":32.0,"height":32.0}]}},{"id":286,"properties":[{"name":"collides","type":"bool","value":true},{"name":"prop","type":"string","value":"fountain"}],"objectgroup":{"draworder":"index","id":2,"name":"","opacity":1,"type":"objectgroup","visible":true,"x":0,"y":0,"objects":[{"id":1,"name":"","type":"collision","rotation":0,"visible":true,"x":0.0,"y":0.0,"width":30.0,"height":31.0}]}},{"id":288,"properties":[{"name":"collides","type":"bool","value":true},{"name":"prop","type":"string","value":"archive_dome"}],"objectgroup":{"draworder":"index","id":2,"name":"","opacity":1,"type":"objectgroup","visible":true,"x":0,"y":0,"objects":[{"id":1,"name":"","type":"collision","rotation":0,"visible":true,"x":2.0,"y":0.0,"width":30.0,"height":32.0}]}},{"id":289,"properties":[{"name":"collides","type":"bool","value":true},{"name":"prop","type":"string","value":"archive_dome"}],"objectgroup":{"draworder":"index","id":2,"name":"","opacity":1,"type":"objectgroup","visible":true,"x":0,"y":0,"objects":[{"id":1,"name":"","type":"collision","rotation":0,"visible":true,"x":0.0,"y":0.0,"width":32.0,"height":32.0}]}},{"id":290,"properties":[{"name":"collides","type":"bool","value":true},{"name":"prop","type":"string","value":"archive_dome"}],"objectgroup":{"draworder":"index","id":2,"name":"","opacity":1,"type":"objectgroup","visible":true,"x":0,"y":0,"objects":[{"id":1,"name":"","type":"collision","rotation":0,"visible":true,"x":0.0,"y":0.0,"width":32.0,"height":32.0}]}},{"id":304,"properties":[{"name":"collides","type":"bool","value":true},{"name":"prop","type":"string","value":"archive_dome"}],"objectgroup":{"draworder":"index","id":2,"name":"","opacity":1,"type":"objectgroup","visible":true,"x":0,"y":0,"objects":[{"id":1,"name":"","type":"collision","rotation":0,"visible":true,"x":5.0,"y":0.0,"width":27.0,"height":30.0}]}},{"id":305,"properties":[{"name":"collides","type":"bool","value":true},{"name":"prop","type":"string","value":"archive_dome"}],"objectgroup":{"draworder":"index","id":2,"name":"","opacity":1,"type":"objectgroup","visible":true,"x":0,"y":0,"objects":[{"id":1,"name":"","type":"collision","rotation":0,"visible":true,"x":0.0,"y":0.0,"width":32.0,"height":32.0}]}},{"id":306,"properties":[{"name":"collides","type":"bool","value":true},{"name":"prop","type":"string","value":"archive_dome"}],"objectgroup":{"draworder":"index","id":2,"name":"","opacity":1,"type":"objectgroup","visible":true,"x":0,"y":0,"objects":[{"id":1,"name":"","type":"collision","rotation":0,"visible":true,"x":0.0,"y":0.0,"width":31.0,"height":32.0}]}}],"wangsets":[{"name":"road-sidewalk","type":"mixed","tile":78,"colors":[{"name":"asphalt","color":"#3070ff","tile":32,"probability":1.0},{"name":"sidewalk","color":"#ff3070","tile":78,"probability":1.0}],"wangtiles":[{"tileid":32,"wangid":[1,1,1,1,1,1,1,1]},{"tileid":33,"wangid":[1,1,1,1,1,1,2,1]},{"tileid":34,"wangid":[1,1,1,1,2,1,1,1]},{"tileid":35,"wangid":[1,1,2,1,1,1,1,1]},{"tileid":36,"wangid":[2,1,1,1,1,1,1,1]},{"tileid":37,"wangid":[1,1,1,1,2,1,2,1]},{"tileid":38,"wangid":[1,1,2,1,1,1,2,1]},{"tileid":39,"wangid":[1,1,2,1,2,1,1,1]},{"tileid":40,"wangid":[2,1,1,1,1,1,2,1]},{"tileid":41,"wangid":[2,1,1,1,2,1,1,1]},{"tileid":42,"wangid":[2,1,2,1,1,1,1,1]},{"tileid":43,"wangid":[1,1,1,1,2,2,2,1]},{"tileid":44,"wangid":[1,1,2,1,2,1,2,1]},{"tileid":45,"wangid":[1,1,2,2,2,1,1,1]},{"tileid":46,"wangid":[2,1,1,1,1,1,2,2]},{"tileid":47,"wangid":[2,1,1,1,2,1,2,1]},{"tileid":48,"wangid":[2,1,2,1,1,1,2,1]},{"tileid":49,"wangid":[2,1,2,1,2,1,1,1]},{"tileid":50,"wangid":[2,2,2,1,1,1,1,1]},{"tileid":51,"wangid":[1,1,2,1,2,2,2,1]},{"tileid":52,"wangid":[1,1,2,2,2,1,2,1]},{"tileid":53,"wangid":[2,1,1,1,2,1,2,2]},{"tileid":54,"wangid":[2,1,1,1,2,2,2,1]},{"tileid":55,"wangid":[2,1,2,1,1,1,2,2]},{"tileid":56,"wangid":[2,1,2,1,2,1,2,1]},{"tileid":57,"wangid":[2,1,2,2,2,1,1,1]},{"tileid":58,"wangid":[2,2,2,1,1,1,2,1]},{"tileid":59,"wangid":[2,2,2,1,2,1,1,1]},{"tileid":60,"wangid":[1,1,2,2,2,2,2,1]},{"tileid":61,"wangid":[2,1,1,1,2,2,2,2]},{"tileid":62,"wangid":[2,1,2,1,2,1,2,2]},{"tileid":63,"wangid":[2,1,2,1,2,2,2,1]},{"tileid":64,"wangid":[2,1,2,2,2,1,2,1]},{"tileid":65,"wangid":[2,2,2,1,1,1,2,2]},{"tileid":66,"wangid":[2,2,2,1,2,1,2,1]},{"tileid":67,"wangid":[2,2,2,2,2,1,1,1]},{"tileid":68,"wangid":[2,1,2,1,2,2,2,2]},{"tileid":69,"wangid":[2,1,2,2,2,1,2,2]},{"tileid":70,"wangid":[2,1,2,2,2,2,2,1]},{"tileid":71,"wangid":[2,2,2,1,2,1,2,2]},{"tileid":72,"wangid":[2,2,2,1,2,2,2,1]},{"tileid":73,"wangid":[2,2,2,2,2,1,2,1]},{"tileid":74,"wangid":[2,1,2,2,2,2,2,2]},{"tileid":75,"wangid":[2,2,2,1,2,2,2,2]},{"tileid":76,"wangid":[2,2,2,2,2,1,2,2]},{"tileid":77,"wangid":[2,2,2,2,2,2,2,1]},{"tileid":78,"wangid":[2,2,2,2,2,2,2,2]},{"tileid":1,"wangid":[1,1,1,1,1,1,1,1]},{"tileid":2,"wangid":[1,1,1,1,1,1,1,1]},{"tileid":3,"wangid":[1,1,1,1,1,1,1,1]},{"tileid":10,"wangid":[2,2,2,2,2,2,2,2]},{"tileid":11,"wangid":[2,2,2,2,2,2,2,2]},{"tileid":23,"wangid":[2,2,2,2,2,2,2,2]}]},{"name":"sidewalk-building","type":"mixed","tile":126,"colors":[{"name":"sidewalk","color":"#3070ff","tile":80,"probability":1.0},{"name":"building","color":"#ff3070","tile":126,"probability":1.0}],"wangtiles":[{"tileid":80,"wangid":[1,1,1,1,1,1,1,1]},{"tileid":81,"wangid":[1,1,1,1,1,1,2,1]},{"tileid":82,"wangid":[1,1,1,1,2,1,1,1]},{"tileid":83,"wangid":[1,1,2,1,1,1,1,1]},{"tileid":84,"wangid":[2,1,1,1,1,1,1,1]},{"tileid":85,"wangid":[1,1,1,1,2,1,2,1]},{"tileid":86,"wangid":[1,1,2,1,1,1,2,1]},{"tileid":87,"wangid":[1,1,2,1,2,1,1,1]},{"tileid":88,"wangid":[2,1,1,1,1,1,2,1]},{"tileid":89,"wangid":[2,1,1,1,2,1,1,1]},{"tileid":90,"wangid":[2,1,2,1,1,1,1,1]},{"tileid":91,"wangid":[1,1,1,1,2,2,2,1]},{"tileid":92,"wangid":[1,1,2,1,2,1,2,1]},{"tileid":93,"wangid":[1,1,2,2,2,1,1,1]},{"tileid":94,"wangid":[2,1,1,1,1,1,2,2]},{"tileid":95,"wangid":[2,1,1,1,2,1,2,1]},{"tileid":96,"wangid":[2,1,2,1,1,1,2,1]},{"tileid":97,"wangid":[2,1,2,1,2,1,1,1]},{"tileid":98,"wangid":[2,2,2,1,1,1,1,1]},{"tileid":99,"wangid":[1,1,2,1,2,2,2,1]},{"tileid":100,"wangid":[1,1,2,2,2,1,2,1]},{"tileid":101,"wangid":[2,1,1,1,2,1,2,2]},{"tileid":102,"wangid":[2,1,1,1,2,2,2,1]},{"tileid":103,"wangid":[2,1,2,1,1,1,2,2]},{"tileid":104,"wangid":[2,1,2,1,2,1,2,1]},{"tileid":105,"wangid":[2,1,2,2,2,1,1,1]},{"tileid":106,"wangid":[2,2,2,1,1,1,2,1]},{"tileid":107,"wangid":[2,2,2,1,2,1,1,1]},{"tileid":108,"wangid":[1,1,2,2,2,2,2,1]},{"tileid":109,"wangid":[2,1,1,1,2,2,2,2]},{"tileid":110,"wangid":[2,1,2,1,2,1,2,2]},{"tileid":111,"wangid":[2,1,2,1,2,2,2,1]},{"tileid":112,"wangid":[2,1,2,2,2,1,2,1]},{"tileid":113,"wangid":[2,2,2,1,1,1,2,2]},{"tileid":114,"wangid":[2,2,2,1,2,1,2,1]},{"tileid":115,"wangid":[2,2,2,2,2,1,1,1]},{"tileid":116,"wangid":[2,1,2,1,2,2,2,2]},{"tileid":117,"wangid":[2,1,2,2,2,1,2,2]},{"tileid":118,"wangid":[2,1,2,2,2,2,2,1]},{"tileid":119,"wangid":[2,2,2,1,2,1,2,2]},{"tileid":120,"wangid":[2,2,2,1,2,2,2,1]},{"tileid":121,"wangid":[2,2,2,2,2,1,2,1]},{"tileid":122,"wangid":[2,1,2,2,2,2,2,2]},{"tileid":123,"wangid":[2,2,2,1,2,2,2,2]},{"tileid":124,"wangid":[2,2,2,2,2,1,2,2]},{"tileid":125,"wangid":[2,2,2,2,2,2,2,1]},{"tileid":126,"wangid":[2,2,2,2,2,2,2,2]},{"tileid":10,"wangid":[1,1,1,1,1,1,1,1]},{"tileid":11,"wangid":[1,1,1,1,1,1,1,1]},{"tileid":23,"wangid":[1,1,1,1,1,1,1,1]},{"tileid":17,"wangid":[2,2,2,2,2,2,2,2]}]},{"name":"plaza-water","type":"mixed","tile":174,"colors":[{"name":"plaza","color":"#3070ff","tile":128,"probability":1.0},{"name":"water","color":"#ff3070","tile":174,"probability":1.0}],"wangtiles":[{"tileid":128,"wangid":[1,1,1,1,1,1,1,1]},{"tileid":129,"wangid":[1,1,1,1,1,1,2,1]},{"tileid":130,"wangid":[1,1,1,1,2,1,1,1]},{"tileid":131,"wangid":[1,1,2,1,1,1,1,1]},{"tileid":132,"wangid":[2,1,1,1,1,1,1,1]},{"tileid":133,"wangid":[1,1,1,1,2,1,2,1]},{"tileid":134,"wangid":[1,1,2,1,1,1,2,1]},{"tileid":135,"wangid":[1,1,2,1,2,1,1,1]},{"tileid":136,"wangid":[2,1,1,1,1,1,2,1]},{"tileid":137,"wangid":[2,1,1,1,2,1,1,1]},{"tileid":138,"wangid":[2,1,2,1,1,1,1,1]},{"tileid":139,"wangid":[1,1,1,1,2,2,2,1]},{"tileid":140,"wangid":[1,1,2,1,2,1,2,1]},{"tileid":141,"wangid":[1,1,2,2,2,1,1,1]},{"tileid":142,"wangid":[2,1,1,1,1,1,2,2]},{"tileid":143,"wangid":[2,1,1,1,2,1,2,1]},{"tileid":144,"wangid":[2,1,2,1,1,1,2,1]},{"tileid":145,"wangid":[2,1,2,1,2,1,1,1]},{"tileid":146,"wangid":[2,2,2,1,1,1,1,1]},{"tileid":147,"wangid":[1,1,2,1,2,2,2,1]},{"tileid":148,"wangid":[1,1,2,2,2,1,2,1]},{"tileid":149,"wangid":[2,1,1,1,2,1,2,2]},{"tileid":150,"wangid":[2,1,1,1,2,2,2,1]},{"tileid":151,"wangid":[2,1,2,1,1,1,2,2]},{"tileid":152,"wangid":[2,1,2,1,2,1,2,1]},{"tileid":153,"wangid":[2,1,2,2,2,1,1,1]},{"tileid":154,"wangid":[2,2,2,1,1,1,2,1]},{"tileid":155,"wangid":[2,2,2,1,2,1,1,1]},{"tileid":156,"wangid":[1,1,2,2,2,2,2,1]},{"tileid":157,"wangid":[2,1,1,1,2,2,2,2]},{"tileid":158,"wangid":[2,1,2,1,2,1,2,2]},{"tileid":159,"wangid":[2,1,2,1,2,2,2,1]},{"tileid":160,"wangid":[2,1,2,2,2,1,2,1]},{"tileid":161,"wangid":[2,2,2,1,1,1,2,2]},{"tileid":162,"wangid":[2,2,2,1,2,1,2,1]},{"tileid":163,"wangid":[2,2,2,2,2,1,1,1]},{"tileid":164,"wangid":[2,1,2,1,2,2,2,2]},{"tileid":165,"wangid":[2,1,2,2,2,1,2,2]},{"tileid":166,"wangid":[2,1,2,2,2,2,2,1]},{"tileid":167,"wangid":[2,2,2,1,2,1,2,2]},{"tileid":168,"wangid":[2,2,2,1,2,2,2,1]},{"tileid":169,"wangid":[2,2,2,2,2,1,2,1]},{"tileid":170,"wangid":[2,1,2,2,2,2,2,2]},{"tileid":171,"wangid":[2,2,2,1,2,2,2,2]},{"tileid":172,"wangid":[2,2,2,2,2,1,2,2]},{"tileid":173,"wangid":[2,2,2,2,2,2,2,1]},{"tileid":174,"wangid":[2,2,2,2,2,2,2,2]},{"tileid":13,"wangid":[1,1,1,1,1,1,1,1]},{"tileid":14,"wangid":[1,1,1,1,1,1,1,1]},{"tileid":19,"wangid":[2,2,2,2,2,2,2,2]}]},{"name":"sidewalk-grass","type":"mixed","tile":222,"colors":[{"name":"sidewalk","color":"#3070ff","tile":176,"probability":1.0},{"name":"grass","color":"#ff3070","tile":222,"probability":1.0}],"wangtiles":[{"tileid":176,"wangid":[1,1,1,1,1,1,1,1]},{"tileid":177,"wangid":[1,1,1,1,1,1,2,1]},{"tileid":178,"wangid":[1,1,1,1,2,1,1,1]},{"tileid":179,"wangid":[1,1,2,1,1,1,1,1]},{"tileid":180,"wangid":[2,1,1,1,1,1,1,1]},{"tileid":181,"wangid":[1,1,1,1,2,1,2,1]},{"tileid":182,"wangid":[1,1,2,1,1,1,2,1]},{"tileid":183,"wangid":[1,1,2,1,2,1,1,1]},{"tileid":184,"wangid":[2,1,1,1,1,1,2,1]},{"tileid":185,"wangid":[2,1,1,1,2,1,1,1]},{"tileid":186,"wangid":[2,1,2,1,1,1,1,1]},{"tileid":187,"wangid":[1,1,1,1,2,2,2,1]},{"tileid":188,"wangid":[1,1,2,1,2,1,2,1]},{"tileid":189,"wangid":[1,1,2,2,2,1,1,1]},{"tileid":190,"wangid":[2,1,1,1,1,1,2,2]},{"tileid":191,"wangid":[2,1,1,1,2,1,2,1]},{"tileid":192,"wangid":[2,1,2,1,1,1,2,1]},{"tileid":193,"wangid":[2,1,2,1,2,1,1,1]},{"tileid":194,"wangid":[2,2,2,1,1,1,1,1]},{"tileid":195,"wangid":[1,1,2,1,2,2,2,1]},{"tileid":196,"wangid":[1,1,2,2,2,1,2,1]},{"tileid":197,"wangid":[2,1,1,1,2,1,2,2]},{"tileid":198,"wangid":[2,1,1,1,2,2,2,1]},{"tileid":199,"wangid":[2,1,2,1,1,1,2,2]},{"tileid":200,"wangid":[2,1,2,1,2,1,2,1]},{"tileid":201,"wangid":[2,1,2,2,2,1,1,1]},{"tileid":202,"wangid":[2,2,2,1,1,1,2,1]},{"tileid":203,"wangid":[2,2,2,1,2,1,1,1]},{"tileid":204,"wangid":[1,1,2,2,2,2,2,1]},{"tileid":205,"wangid":[2,1,1,1,2,2,2,2]},{"tileid":206,"wangid":[2,1,2,1,2,1,2,2]},{"tileid":207,"wangid":[2,1,2,1,2,2,2,1]},{"tileid":208,"wangid":[2,1,2,2,2,1,2,1]},{"tileid":209,"wangid":[2,2,2,1,1,1,2,2]},{"tileid":210,"wangid":[2,2,2,1,2,1,2,1]},{"tileid":211,"wangid":[2,2,2,2,2,1,1,1]},{"tileid":212,"wangid":[2,1,2,1,2,2,2,2]},{"tileid":213,"wangid":[2,1,2,2,2,1,2,2]},{"tileid":214,"wangid":[2,1,2,2,2,2,2,1]},{"tileid":215,"wangid":[2,2,2,1,2,1,2,2]},{"tileid":216,"wangid":[2,2,2,1,2,2,2,1]},{"tileid":217,"wangid":[2,2,2,2,2,1,2,1]},{"tileid":218,"wangid":[2,1,2,2,2,2,2,2]},{"tileid":219,"wangid":[2,2,2,1,2,2,2,2]},{"tileid":220,"wangid":[2,2,2,2,2,1,2,2]},{"tileid":221,"wangid":[2,2,2,2,2,2,2,1]},{"tileid":222,"wangid":[2,2,2,2,2,2,2,2]},{"tileid":10,"wangid":[1,1,1,1,1,1,1,1]},{"tileid":11,"wangid":[1,1,1,1,1,1,1,1]},{"tileid":22,"wangid":[2,2,2,2,2,2,2,2]},{"tileid":23,"wangid":[1,1,1,1,1,1,1,1]}]}]},{"name":"buildings","columns":0,"margin":0,"spacing":0,"tilecount":7,"tilewidth":160,"tileheight":160,"grid":{"orientation":"orthogonal","width":1,"height":1},"objectalignment":"bottomleft","tiles":[{"id":0,"image":"buildings/noodle_shop.png","imagewidth":128,"imageheight":128,"type":"building","properties":[{"name":"building","type":"string","value":"noodle_shop"},{"name":"biome","type":"string","value":"city"},{"name":"door_x","type":"int","value":61},{"name":"door_y","type":"int","value":124}],"objectgroup":{"draworder":"index","id":2,"name":"","opacity":1,"type":"objectgroup","visible":true,"x":0,"y":0,"objects":[{"id":1,"name":"collision","type":"collision","x":12,"y":60,"width":104,"height":64,"rotation":0,"visible":true}]}},{"id":1,"image":"buildings/tea_house.png","imagewidth":128,"imageheight":128,"type":"building","properties":[{"name":"building","type":"string","value":"tea_house"},{"name":"biome","type":"string","value":"city"},{"name":"door_x","type":"int","value":64},{"name":"door_y","type":"int","value":124}],"objectgroup":{"draworder":"index","id":2,"name":"","opacity":1,"type":"objectgroup","visible":true,"x":0,"y":0,"objects":[{"id":1,"name":"collision","type":"collision","x":10,"y":60,"width":108,"height":64,"rotation":0,"visible":true}]}},{"id":2,"image":"buildings/greenhouse.png","imagewidth":128,"imageheight":128,"type":"building","properties":[{"name":"building","type":"string","value":"greenhouse"},{"name":"biome","type":"string","value":"city"},{"name":"door_x","type":"int","value":63},{"name":"door_y","type":"int","value":124}],"objectgroup":{"draworder":"index","id":2,"name":"","opacity":1,"type":"objectgroup","visible":true,"x":0,"y":0,"objects":[{"id":1,"name":"collision","type":"collision","x":12,"y":60,"width":104,"height":64,"rotation":0,"visible":true}]}},{"id":3,"image":"buildings/apartment_block.png","imagewidth":160,"imageheight":160,"type":"building","properties":[{"name":"building","type":"string","value":"apartment_block"},{"name":"biome","type":"string","value":"city"},{"name":"door_x","type":"int","value":80},{"name":"door_y","type":"int","value":142}],"objectgroup":{"draworder":"index","id":2,"name":"","opacity":1,"type":"objectgroup","visible":true,"x":0,"y":0,"objects":[{"id":1,"name":"collision","type":"collision","x":0,"y":78,"width":160,"height":64,"rotation":0,"visible":true}]}},{"id":4,"image":"buildings/archive_library.png","imagewidth":160,"imageheight":160,"type":"building","properties":[{"name":"building","type":"string","value":"archive_library"},{"name":"biome","type":"string","value":"city"},{"name":"door_x","type":"int","value":80},{"name":"door_y","type":"int","value":146}],"objectgroup":{"draworder":"index","id":2,"name":"","opacity":1,"type":"objectgroup","visible":true,"x":0,"y":0,"objects":[{"id":1,"name":"collision","type":"collision","x":8,"y":82,"width":142,"height":64,"rotation":0,"visible":true}]}},{"id":5,"image":"buildings/ranger_cabin.png","imagewidth":128,"imageheight":128,"type":"building","properties":[{"name":"building","type":"string","value":"ranger_cabin"},{"name":"biome","type":"string","value":"woods"},{"name":"door_x","type":"int","value":63},{"name":"door_y","type":"int","value":118}],"objectgroup":{"draworder":"index","id":2,"name":"","opacity":1,"type":"objectgroup","visible":true,"x":0,"y":0,"objects":[{"id":1,"name":"collision","type":"collision","x":6,"y":54,"width":108,"height":64,"rotation":0,"visible":true}]}},{"id":6,"image":"buildings/ruin_shrine.png","imagewidth":128,"imageheight":160,"type":"building","properties":[{"name":"building","type":"string","value":"ruin_shrine"},{"name":"biome","type":"string","value":"core"},{"name":"door_x","type":"int","value":64},{"name":"door_y","type":"int","value":152}],"objectgroup":{"draworder":"index","id":2,"name":"","opacity":1,"type":"objectgroup","visible":true,"x":0,"y":0,"objects":[{"id":1,"name":"collision","type":"collision","x":16,"y":88,"width":96,"height":64,"rotation":0,"visible":true}]}}],"firstgid":321}],"layers":[{"id":1,"name":"ground","type":"tilelayer","x":0,"y":0,"width":28,"height":28,"opacity":1,"visible":true,"data":[127,18,127,127,127,127,127,18,127,127,127,127,127,127,127,18,127,127,18,127,127,127,127,127,127,127,127,127,127,127,127,127,127,127,127,127,127,127,127,127,127,127,127,127,127,18,127,127,127,127,127,127,127,127,18,127,18,127,127,127,127,127,127,124,114,114,114,114,114,114,114,114,114,114,114,114,125,127,18,127,127,127,127,127,127,127,127,127,127,18,127,110,79,79,79,62,2,2,33,33,68,24,11,79,116,127,127,127,127,127,127,127,127,127,127,127,127,18,127,110,24,11,24,62,4,33,4,33,68,79,24,79,116,127,127,127,127,18,127,127,127,127,127,127,127,127,127,110,79,79,11,62,33,33,33,33,68,79,79,11,116,127,127,127,127,127,127,127,127,127,124,114,114,114,114,95,24,24,24,62,33,33,33,2,68,79,11,79,99,114,114,114,114,125,127,127,127,127,110,11,79,79,79,79,79,24,11,62,3,33,33,33,68,11,12,79,79,79,79,24,24,116,127,127,18,127,110,11,24,12,11,79,79,79,79,62,3,33,33,4,68,79,24,79,79,79,24,24,24,116,127,127,127,127,110,24,79,79,79,79,11,24,79,62,33,4,33,2,68,79,24,24,24,79,79,79,79,116,127,127,127,127,110,79,12,79,24,12,24,24,24,62,2,4,33,33,68,79,24,79,24,24,12,12,24,116,127,127,127,127,110,79,12,76,66,66,13,13,13,14,3,4,33,33,13,13,13,13,66,66,77,12,24,116,18,127,127,127,110,24,79,62,33,33,33,33,33,3,33,33,33,33,33,33,33,33,3,33,68,24,24,116,127,127,127,127,110,11,24,62,33,33,4,4,33,33,4,3,4,33,2,33,33,33,33,33,68,79,79,116,127,18,127,18,123,92,24,62,33,33,3,3,4,4,2,33,33,33,33,33,2,33,33,33,68,24,94,126,127,127,127,127,127,110,79,75,61,61,13,13,13,13,33,33,33,33,13,13,13,13,61,61,78,79,116,127,127,127,127,127,124,95,24,11,79,24,24,79,79,62,33,33,33,2,68,24,79,11,24,79,79,79,116,127,127,127,18,127,110,79,24,79,24,11,79,12,79,62,33,33,2,33,68,12,24,79,94,109,109,109,126,127,127,127,127,127,110,24,11,11,11,24,24,12,11,62,33,3,3,33,68,79,79,79,116,127,127,18,127,127,127,127,127,127,110,79,79,24,79,11,79,24,79,62,33,33,3,33,68,24,79,79,116,127,127,127,127,127,127,18,127,127,110,24,24,79,24,79,24,79,24,62,2,3,33,33,68,79,24,24,116,127,127,127,127,18,127,127,127,127,110,11,24,24,11,79,79,11,79,62,33,33,2,33,68,24,24,79,116,18,127,127,127,127,127,127,127,127,110,24,79,79,11,79,12,24,79,62,33,33,33,4,68,24,79,79,116,127,127,127,127,127,127,18,18,127,110,24,79,79,79,24,12,79,24,62,33,2,33,2,68,24,79,79,116,127,127,127,127,127,127,127,127,127,123,109,109,109,109,92,24,79,79,62,33,3,33,33,68,24,11,24,116,127,127,127,18,127,18,127,127,127,127,127,127,127,18,123,109,109,92,75,61,61,61,61,78,94,109,109,126,18,127,18,127,127,127,18,127,127,127,127,127,18,127,127,127,127,123,109,109,109,109,109,109,126,127,127,127,127,127,127,127,127,127,127,127,127,127,127,127,18,127,127,127,18,18,127,127,127,127,18,127,18,127,18,127,127,127,18,127,127,18,18]},{"id":2,"name":"props","type":"tilelayer","x":0,"y":0,"width":28,"height":28,"opacity":1,"visible":true,"data":[0,0,0,0,0,0,0,0,0,0,0,0,0,0,0,0,0,0,0,0,0,0,0,0,0,0,0,0,0,0,0,0,0,0,0,0,0,0,0,0,0,0,0,0,0,0,0,0,0,0,0,0,0,0,0,0,0,0,0,0,0,0,0,0,0,0,0,0,0,0,0,0,0,0,0,0,0,0,0,0,0,0,0,0,0,0,0,0,0,0,0,0,0,0,0,0,0,0,0,0,241,0,0,0,0,0,0,0,0,0,0,0,0,0,0,0,0,0,0,0,0,0,0,0,0,0,0,0,247,0,0,0,0,0,0,0,0,0,0,0,0,0,0,0,0,0,0,0,0,0,0,0,0,0,0,0,0,0,229,0,0,0,0,0,0,0,0,0,0,0,0,0,0,0,0,0,0,0,0,0,0,0,0,0,0,0,0,0,0,0,0,0,0,0,0,0,0,0,0,0,0,0,0,0,0,0,0,0,0,0,0,0,0,0,0,0,0,0,0,0,0,0,0,0,0,0,0,0,0,0,0,0,0,0,0,0,0,0,0,0,230,231,0,0,0,0,0,0,0,0,0,0,0,0,0,0,0,0,0,0,0,0,0,0,0,0,0,0,0,0,0,0,0,0,0,0,0,0,0,0,0,0,0,0,0,0,0,0,0,0,0,0,0,0,0,0,0,0,0,0,0,0,0,0,0,0,0,0,0,0,0,0,0,0,0,0,0,0,0,0,0,0,0,0,0,0,0,0,0,0,0,0,0,0,0,0,0,0,0,0,0,0,0,0,0,0,0,0,0,0,0,0,0,0,0,0,0,0,0,0,0,0,0,0,0,0,0,0,0,0,0,0,0,0,0,0,0,0,0,0,0,0,0,0,0,0,0,0,0,0,0,0,0,0,0,0,226,227,0,0,0,0,0,0,0,0,0,0,0,0,0,0,0,0,256,0,0,0,0,0,0,0,0,0,242,243,0,0,0,0,0,0,0,0,0,0,0,0,0,0,0,0,0,0,0,0,0,0,0,0,0,0,0,0,0,0,0,0,0,0,0,0,0,0,0,0,0,0,0,0,0,0,0,0,0,0,0,0,0,0,0,0,0,0,0,0,0,0,0,0,0,0,0,229,0,0,0,0,0,0,0,0,0,0,0,0,0,0,0,0,0,0,0,0,0,0,0,0,0,0,0,0,228,0,0,0,0,0,0,0,0,0,0,0,0,0,0,0,0,0,0,0,0,0,0,0,0,0,0,0,0,0,0,0,0,0,0,0,0,0,0,0,0,0,0,0,0,0,0,0,230,231,0,0,0,0,0,256,0,0,0,0,0,0,0,0,0,0,0,0,0,0,0,0,0,0,0,0,0,0,0,0,0,0,0,0,0,0,0,0,0,0,0,0,0,0,0,0,0,0,0,0,0,0,0,0,0,0,0,0,0,0,0,229,0,0,0,0,0,0,0,0,0,0,0,0,0,0,0,0,0,0,0,0,256,0,0,0,0,0,0,256,0,0,0,0,0,0,0,0,0,0,0,0,0,0,0,0,0,0,230,231,0,228,0,0,0,0,0,256,0,0,0,0,0,0,0,0,0,0,0,0,0,0,0,0,0,0,0,0,0,0,0,229,0,0,228,0,0,0,0,0,0,0,0,0,0,0,0,0,0,0,0,0,0,0,0,0,0,0,0,0,0,0,0,0,0,0,0,0,0,0,0,0,0,0,0,0,0,0,0,0,0,0,0,0,0,0,0,0,0,0,0,0,0,0,0,0,0,0,0,0,0,0]},{"id":3,"name":"gameplay","type":"objectgroup","draworder":"topdown","x":0,"y":0,"opacity":1,"visible":true,"objects":[{"id":1,"name":"spawn","type":"","rotation":0,"visible":true,"x":432.0,"y":160.0,"width":32.0,"height":32.0},{"id":2,"name":"npc","type":"","rotation":0,"visible":true,"x":321.0,"y":417.0,"width":30.0,"height":30.0,"properties":[{"name":"name","type":"string","value":"mira"},{"name":"sprite","type":"string","value":"asha"}]},{"id":3,"name":"health","type":"","rotation":0,"visible":true,"x":552.0,"y":392.0,"width":16.0,"height":16.0},{"id":4,"name":"stash","type":"","rotation":0,"visible":true,"x":640.0,"y":512.0,"width":32.0,"height":32.0,"properties":[{"name":"glimmer","type":"int","value":15}]},{"id":5,"name":"portal","type":"","rotation":0,"visible":true,"x":420.0,"y":692.0,"width":56.0,"height":56.0},{"id":6,"name":"checkpoint","type":"","rotation":0,"visible":true,"x":432.0,"y":160.0,"width":32.0,"height":32.0,"properties":[{"name":"label","type":"string","value":"Lantern Gate"}]},{"id":7,"name":"checkpoint","type":"","rotation":0,"visible":true,"x":320.0,"y":416.0,"width":32.0,"height":32.0,"properties":[{"name":"label","type":"string","value":"Market Square"}]},{"id":8,"name":"checkpoint","type":"","rotation":0,"visible":true,"x":432.0,"y":704.0,"width":32.0,"height":32.0,"properties":[{"name":"label","type":"string","value":"Return Portal"}]},{"id":9,"name":"building","type":"","gid":322,"rotation":0,"visible":true,"x":128.0,"y":384.0,"width":128.0,"height":128.0,"properties":[{"name":"building","type":"string","value":"tea_house"}]},{"id":10,"name":"building","type":"","gid":321,"rotation":0,"visible":true,"x":608.0,"y":384.0,"width":128.0,"height":128.0,"properties":[{"name":"building","type":"string","value":"noodle_shop"}]},{"id":11,"name":"building","type":"","gid":323,"rotation":0,"visible":true,"x":128.0,"y":704.0,"width":128.0,"height":128.0,"properties":[{"name":"building","type":"string","value":"greenhouse"}]}]}]}