{"compressionlevel":-1,"type":"map","version":"1.10","tiledversion":"1.10.2","orientation":"orthogonal","renderorder":"right-down","infinite":false,"width":46,"height":46,"tilewidth":32,"tileheight":32,"nextlayerid":4,"nextobjectid":37,"properties":[{"name":"generator","type":"string","value":"tools/make_tiled_maps.py"}],"tilesets":[{"firstgid":1,"name":"cyberpunk","image":"tilesets/cyberpunk.png","imagewidth":512,"imageheight":512,"tilewidth":32,"tileheight":32,"tilecount":256,"columns":16,"margin":0,"spacing":0,"tiles":[{"id":0,"properties":[{"name":"ground","type":"string","value":"asphalt"}]},{"id":1,"probability":0.12,"properties":[{"name":"ground","type":"string","value":"asphalt"}]},{"id":2,"probability":0.12,"properties":[{"name":"ground","type":"string","value":"asphalt"}]},{"id":3,"probability":0.12,"properties":[{"name":"ground","type":"string","value":"asphalt"}]},{"id":4,"probability":0.12,"properties":[{"name":"ground","type":"string","value":"asphalt"}]},{"id":5,"probability":0.12,"properties":[{"name":"ground","type":"string","value":"asphalt"}]},{"id":6,"probability":0.12,"properties":[{"name":"ground","type":"string","value":"asphalt"}]},{"id":7,"probability":0.12,"properties":[{"name":"ground","type":"string","value":"asphalt"}]},{"id":8,"probability":0.12,"properties":[{"name":"ground","type":"string","value":"asphalt"}]},{"id":9,"probability":0.12,"properties":[{"name":"ground","type":"string","value":"asphalt"}]},{"id":10,"probability":0.12,"properties":[{"name":"ground","type":"string","value":"asphalt"}]},{"id":11,"probability":0.12,"properties":[{"name":"ground","type":"string","value":"asphalt"}]},{"id":12,"properties":[{"name":"ground","type":"string","value":"hazard floor"}]},{"id":13,"properties":[{"name":"ground","type":"string","value":"metal"}]},{"id":14,"probability":0.12,"properties":[{"name":"ground","type":"string","value":"metal"}]},{"id":15,"probability":0.12,"properties":[{"name":"ground","type":"string","value":"asphalt"}]},{"id":16,"properties":[{"name":"collides","type":"bool","value":true},{"name":"ground","type":"string","value":"ruin roof"}],"objectgroup":{"draworder":"index","id":2,"name":"","opacity":1,"type":"objectgroup","visible":true,"x":0,"y":0,"objects":[{"id":1,"name":"","type":"collision","rotation":0,"visible":true,"x":0.0,"y":0.0,"width":32.0,"height":32.0}]}},{"id":17,"probability":0.12,"properties":[{"name":"collides","type":"bool","value":true},{"name":"ground","type":"string","value":"ruin roof (collapsed)"}],"objectgroup":{"draworder":"index","id":2,"name":"","opacity":1,"type":"objectgroup","visible":true,"x":0,"y":0,"objects":[{"id":1,"name":"","type":"collision","rotation":0,"visible":true,"x":0.0,"y":0.0,"width":32.0,"height":32.0}]}},{"id":18,"properties":[{"name":"collides","type":"bool","value":true},{"name":"ground","type":"string","value":"toxic sludge"}],"objectgroup":{"draworder":"index","id":2,"name":"","opacity":1,"type":"objectgroup","visible":true,"x":0,"y":0,"objects":[{"id":1,"name":"","type":"collision","rotation":0,"visible":true,"x":0.0,"y":0.0,"width":32.0,"height":32.0}]}},{"id":19,"probability":0.12,"properties":[{"name":"collides","type":"bool","value":true},{"name":"ground","type":"string","value":"toxic sludge"}],"objectgroup":{"draworder":"index","id":2,"name":"","opacity":1,"type":"objectgroup","visible":true,"x":0,"y":0,"objects":[{"id":1,"name":"","type":"collision","rotation":0,"visible":true,"x":0.0,"y":0.0,"width":32.0,"height":32.0}]}},{"id":20,"probability":0.12,"properties":[{"name":"ground","type":"string","value":"metal"}]},{"id":32,"properties":[{"name":"blob","type":"string","value":"asphalt-ruin"}]},{"id":33,"properties":[{"name":"blob","type":"string","value":"asphalt-ruin"},{"name":"collides","type":"bool","value":true}],"objectgroup":{"draworder":"index","id":2,"name":"","opacity":1,"type":"objectgroup","visible":true,"x":0,"y":0,"objects":[{"id":1,"name":"","type":"collision","rotation":0,"visible":true,"x":0.0,"y":0.0,"width":16.0,"height":32.0}]}},{"id":34,"properties":[{"name":"blob","type":"string","value":"asphalt-ruin"},{"name":"collides","type":"bool","value":true}],"objectgroup":{"draworder":"index","id":2,"name":"","opacity":1,"type":"objectgroup","visible":true,"x":0,"y":0,"objects":[{"id":1,"name":"","type":"collision","rotation":0,"visible":true,"x":0.0,"y":16.0,"width":32.0,"height":16.0}]}},{"id":35,"properties":[{"name":"blob","type":"string","value":"asphalt-ruin"},{"name":"collides","type":"bool","value":true}],"objectgroup":{"draworder":"index","id":2,"name":"","opacity":1,"type":"objectgroup","visible":true,"x":0,"y":0,"objects":[{"id":1,"name":"","type":"collision","rotation":0,"visible":true,"x":16.0,"y":0.0,"width":16.0,"height":32.0}]}},{"id":36,"properties":[{"name":"blob","type":"string","value":"asphalt-ruin"},{"name":"collides","type":"bool","value":true}],"objectgroup":{"draworder":"index","id":2,"name":"","opacity":1,"type":"objectgroup","visible":true,"x":0,"y":0,"objects":[{"id":1,"name":"","type":"collision","rotation":0,"visible":true,"x":0.0,"y":0.0,"width":32.0,"height":16.0}]}},{"id":37,"properties":[{"name":"blob","type":"string","value":"asphalt-ruin"},{"name":"collides","type":"bool","value":true}],"objectgroup":{"draworder":"index","id":2,"name":"","opacity":1,"type":"objectgroup","visible":true,"x":0,"y":0,"objects":[{"id":1,"name":"","type":"collision","rotation":0,"visible":true,"x":0.0,"y":16.0,"width":32.0,"height":16.0},{"id":2,"name":"","type":"collision","rotation":0,"visible":true,"x":0.0,"y":0.0,"width":16.0,"height":16.0}]}},{"id":38,"properties":[{"name":"blob","type":"string","value":"asphalt-ruin"},{"name":"collides","type":"bool","value":true}],"objectgroup":{"draworder":"index","id":2,"name":"","opacity":1,"type":"objectgroup","visible":true,"x":0,"y":0,"objects":[{"id":1,"name":"","type":"collision","rotation":0,"visible":true,"x":0.0,"y":0.0,"width":32.0,"height":32.0}]}},{"id":39,"properties":[{"name":"blob","type":"string","value":"asphalt-ruin"},{"name":"collides","type":"bool","value":true}],"objectgroup":{"draworder":"index","id":2,"name":"","opacity":1,"type":"objectgroup","visible":true,"x":0,"y":0,"objects":[{"id":1,"name":"","type":"collision","rotation":0,"visible":true,"x":0.0,"y":16.0,"width":32.0,"height":16.0},{"id":2,"name":"","type":"collision","rotation":0,"visible":true,"x":16.0,"y":0.0,"width":16.0,"height":16.0}]}},{"id":40,"properties":[{"name":"blob","type":"string","value":"asphalt-ruin"},{"name":"collides","type":"bool","value":true}],"objectgroup":{"draworder":"index","id":2,"name":"","opacity":1,"type":"objectgroup","visible":true,"x":0,"y":0,"objects":[{"id":1,"name":"","type":"collision","rotation":0,"visible":true,"x":0.0,"y":0.0,"width":32.0,"height":16.0},{"id":2,"name":"","type":"collision","rotation":0,"visible":true,"x":0.0,"y":16.0,"width":16.0,"height":16.0}]}},{"id":41,"properties":[{"name":"blob","type":"string","value":"asphalt-ruin"},{"name":"collides","type":"bool","value":true}],"objectgroup":{"draworder":"index","id":2,"name":"","opacity":1,"type":"objectgroup","visible":true,"x":0,"y":0,"objects":[{"id":1,"name":"","type":"collision","rotation":0,"visible":true,"x":0.0,"y":0.0,"width":32.0,"height":32.0}]}},{"id":42,"properties":[{"name":"blob","type":"string","value":"asphalt-ruin"},{"name":"collides","type":"bool","value":true}],"objectgroup":{"draworder":"index","id":2,"name":"","opacity":1,"type":"objectgroup","visible":true,"x":0,"y":0,"objects":[{"id":1,"name":"","type":"collision","rotation":0,"visible":true,"x":0.0,"y":0.0,"width":32.0,"height":16.0},{"id":2,"name":"","type":"collision","rotation":0,"visible":true,"x":16.0,"y":16.0,"width":16.0,"height":16.0}]}},{"id":43,"properties":[{"name":"blob","type":"string","value":"asphalt-ruin"},{"name":"collides","type":"bool","value":true}],"objectgroup":{"draworder":"index","id":2,"name":"","opacity":1,"type":"objectgroup","visible":true,"x":0,"y":0,"objects":[{"id":1,"name":"","type":"collision","rotation":0,"visible":true,"x":0.0,"y":16.0,"width":32.0,"height":16.0},{"id":2,"name":"","type":"collision","rotation":0,"visible":true,"x":0.0,"y":0.0,"width":16.0,"height":16.0}]}},{"id":44,"properties":[{"name":"blob","type":"string","value":"asphalt-ruin"},{"name":"collides","type":"bool","value":true}],"objectgroup":{"draworder":"index","id":2,"name":"","opacity":1,"type":"objectgroup","visible":true,"x":0,"y":0,"objects":[{"id":1,"name":"","type":"collision","rotation":0,"visible":true,"x":0.0,"y":0.0,"width":32.0,"height":32.0}]}},{"id":45,"properties":[{"name":"blob","type":"string","value":"asphalt-ruin"},{"name":"collides","type":"bool","value":true}],"objectgroup":{"draworder":"index","id":2,"name":"","opacity":1,"type":"objectgroup","visible":true,"x":0,"y":0,"objects":[{"id":1,"name":"","type":"collision","rotation":0,"visible":true,"x":0.0,"y":16.0,"width":32.0,"height":16.0},{"id":2,"name":"","type":"collision","rotation":0,"visible":true,"x":16.0,"y":0.0,"width":16.0,"height":16.0}]}},{"id":46,"properties":[{"name":"blob","type":"string","value":"asphalt-ruin"},{"name":"collides","type":"bool","value":true}],"objectgroup":{"draworder":"index","id":2,"name":"","opacity":1,"type":"objectgroup","visible":true,"x":0,"y":0,"objects":[{"id":1,"name":"","type":"collision","rotation":0,"visible":true,"x":0.0,"y":0.0,"width":32.0,"height":16.0},{"id":2,"name":"","type":"collision","rotation":0,"visible":true,"x":0.0,"y":16.0,"width":16.0,"height":16.0}]}},{"id":47,"properties":[{"name":"blob","type":"string","value":"asphalt-ruin"},{"name":"collides","type":"bool","value":true}],"objectgroup":{"draworder":"index","id":2,"name":"","opacity":1,"type":"objectgroup","visible":true,"x":0,"y":0,"objects":[{"id":1,"name":"","type":"collision","rotation":0,"visible":true,"x":0.0,"y":0.0,"width":32.0,"height":32.0}]}},{"id":48,"properties":[{"name":"blob","type":"string","value":"asphalt-ruin"},{"name":"collides","type":"bool","value":true}],"objectgroup":{"draworder":"index","id":2,"name":"","opacity":1,"type":"objectgroup","visible":true,"x":0,"y":0,"objects":[{"id":1,"name":"","type":"collision","rotation":0,"visible":true,"x":0.0,"y":0.0,"width":32.0,"height":32.0}]}},{"id":49,"properties":[{"name":"blob","type":"string","value":"asphalt-ruin"},{"name":"collides","type":"bool","value":true}],"objectgroup":{"draworder":"index","id":2,"name":"","opacity":1,"type":"objectgroup","visible":true,"x":0,"y":0,"objects":[{"id":1,"name":"","type":"collision","rotation":0,"visible":true,"x":0.0,"y":0.0,"width":32.0,"height":32.0}]}},{"id":50,"properties":[{"name":"blob","type":"string","value":"asphalt-ruin"},{"name":"collides","type":"bool","value":true}],"objectgroup":{"draworder":"index","id":2,"name":"","opacity":1,"type":"objectgroup","visible":true,"x":0,"y":0,"objects":[{"id":1,"name":"","type":"collision","rotation":0,"visible":true,"x":0.0,"y":0.0,"width":32.0,"height":16.0},{"id":2,"name":"","type":"collision","rotation":0,"visible":true,"x":16.0,"y":16.0,"width":16.0,"height":16.0}]}},{"id":51,"properties":[{"name":"blob","type":"string","value":"asphalt-ruin"},{"name":"collides","type":"bool","value":true}],"objectgroup":{"draworder":"index","id":2,"name":"","opacity":1,"type":"objectgroup","visible":true,"x":0,"y":0,"objects":[{"id":1,"name":"","type":"collision","rotation":0,"visible":true,"x":0.0,"y":0.0,"width":32.0,"height":32.0}]}},{"id":52,"properties":[{"name":"blob","type":"string","value":"asphalt-ruin"},{"name":"collides","type":"bool","value":true}],"objectgroup":{"draworder":"index","id":2,"name":"","opacity":1,"type":"objectgroup","visible":true,"x":0,"y":0,"objects":[{"id":1,"name":"","type":"collision","rotation":0,"visible":true,"x":0.0,"y":0.0,"width":32.0,"height":32.0}]}},{"id":53,"properties":[{"name":"blob","type":"string","value":"asphalt-ruin"},{"name":"collides","type":"bool","value":true}],"objectgroup":{"draworder":"index","id":2,"name":"","opacity":1,"type":"objectgroup","visible":true,"x":0,"y":0,"objects":[{"id":1,"name":"","type":"collision","rotation":0,"visible":true,"x":0.0,"y":0.0,"width":32.0,"height":32.0}]}},{"id":54,"properties":[{"name":"blob","type":"string","value":"asphalt-ruin"},{"name":"collides","type":"bool","value":true}],"objectgroup":{"draworder":"index","id":2,"name":"","opacity":1,"type":"objectgroup","visible":true,"x":0,"y":0,"objects":[{"id":1,"name":"","type":"collision","rotation":0,"visible":true,"x":0.0,"y":0.0,"width":32.0,"height":32.0}]}},{"id":55,"properties":[{"name":"blob","type":"string","value":"asphalt-ruin"},{"name":"collides","type":"bool","value":true}],"objectgroup":{"draworder":"index","id":2,"name":"","opacity":1,"type":"objectgroup","visible":true,"x":0,"y":0,"objects":[{"id":1,"name":"","type":"collision","rotation":0,"visible":true,"x":0.0,"y":0.0,"width":32.0,"height":32.0}]}},{"id":56,"properties":[{"name":"blob","type":"string","value":"asphalt-ruin"},{"name":"collides","type":"bool","value":true}],"objectgroup":{"draworder":"index","id":2,"name":"","opacity":1,"type":"objectgroup","visible":true,"x":0,"y":0,"objects":[{"id":1,"name":"","type":"collision","rotation":0,"visible":true,"x":0.0,"y":0.0,"width":32.0,"height":32.0}]}},{"id":57,"properties":[{"name":"blob","type":"string","value":"asphalt-ruin"},{"name":"collides","type":"bool","value":true}],"objectgroup":{"draworder":"index","id":2,"name":"","opacity":1,"type":"objectgroup","visible":true,"x":0,"y":0,"objects":[{"id":1,"name":"","type":"collision","rotation":0,"visible":true,"x":0.0,"y":0.0,"width":32.0,"height":32.0}]}},{"id":58,"properties":[{"name":"blob","type":"string","value":"asphalt-ruin"},{"name":"collides","type":"bool","value":true}],"objectgroup":{"draworder":"index","id":2,"name":"","opacity":1,"type":"objectgroup","visible":true,"x":0,"y":0,"objects":[{"id":1,"name":"","type":"collision","rotation":0,"visible":true,"x":0.0,"y":0.0,"width":32.0,"height":32.0}]}},{"id":59,"properties":[{"name":"blob","type":"string","value":"asphalt-ruin"},{"name":"collides","type":"bool","value":true}],"objectgroup":{"draworder":"index","id":2,"name":"","opacity":1,"type":"objectgroup","visible":true,"x":0,"y":0,"objects":[{"id":1,"name":"","type":"collision","rotation":0,"visible":true,"x":0.0,"y":0.0,"width":32.0,"height":32.0}]}},{"id":60,"properties":[{"name":"blob","type":"string","value":"asphalt-ruin"},{"name":"collides","type":"bool","value":true}],"objectgroup":{"draworder":"index","id":2,"name":"","opacity":1,"type":"objectgroup","visible":true,"x":0,"y":0,"objects":[{"id":1,"name":"","type":"collision","rotation":0,"visible":true,"x":0.0,"y":0.0,"width":32.0,"height":32.0}]}},{"id":61,"properties":[{"name":"blob","type":"string","value":"asphalt-ruin"},{"name":"collides","type":"bool","value":true}],"objectgroup":{"draworder":"index","id":2,"name":"","opacity":1,"type":"objectgroup","visible":true,"x":0,"y":0,"objects":[{"id":1,"name":"","type":"collision","rotation":0,"visible":true,"x":0.0,"y":0.0,"width":32.0,"height":32.0}]}},{"id":62,"properties":[{"name":"blob","type":"string","value":"asphalt-ruin"},{"name":"collides","type":"bool","value":true}],"objectgroup":{"draworder":"index","id":2,"name":"","opacity":1,"type":"objectgroup","visible":true,"x":0,"y":0,"objects":[{"id":1,"name":"","type":"collision","rotation":0,"visible":true,"x":0.0,"y":0.0,"width":32.0,"height":32.0}]}},{"id":63,"properties":[{"name":"blob","type":"string","value":"asphalt-ruin"},{"name":"collides","type":"bool","value":true}],"objectgroup":{"draworder":"index","id":2,"name":"","opacity":1,"type":"objectgroup","visible":true,"x":0,"y":0,"objects":[{"id":1,"name":"","type":"collision","rotation":0,"visible":true,"x":0.0,"y":0.0,"width":32.0,"height":32.0}]}},{"id":64,"properties":[{"name":"blob","type":"string","value":"asphalt-ruin"},{"name":"collides","type":"bool","value":true}],"objectgroup":{"draworder":"index","id":2,"name":"","opacity":1,"type":"objectgroup","visible":true,"x":0,"y":0,"objects":[{"id":1,"name":"","type":"collision","rotation":0,"visible":true,"x":0.0,"y":0.0,"width":32.0,"height":32.0}]}},{"id":65,"properties":[{"name":"blob","type":"string","value":"asphalt-ruin"},{"name":"collides","type":"bool","value":true}],"objectgroup":{"draworder":"index","id":2,"name":"","opacity":1,"type":"objectgroup","visible":true,"x":0,"y":0,"objects":[{"id":1,"name":"","type":"collision","rotation":0,"visible":true,"x":0.0,"y":0.0,"width":32.0,"height":32.0}]}},{"id":66,"properties":[{"name":"blob","type":"string","value":"asphalt-ruin"},{"name":"collides","type":"bool","value":true}],"objectgroup":{"draworder":"index","id":2,"name":"","opacity":1,"type":"objectgroup","visible":true,"x":0,"y":0,"objects":[{"id":1,"name":"","type":"collision","rotation":0,"visible":true,"x":0.0,"y":0.0,"width":32.0,"height":32.0}]}},{"id":67,"properties":[{"name":"blob","type":"string","value":"asphalt-ruin"},{"name":"collides","type":"bool","value":true}],"objectgroup":{"draworder":"index","id":2,"name":"","opacity":1,"type":"objectgroup","visible":true,"x":0,"y":0,"objects":[{"id":1,"name":"","type":"collision","rotation":0,"visible":true,"x":0.0,"y":0.0,"width":32.0,"height":32.0}]}},{"id":68,"properties":[{"name":"blob","type":"string","value":"asphalt-ruin"},{"name":"collides","type":"bool","value":true}],"objectgroup":{"draworder":"index","id":2,"name":"","opacity":1,"type":"objectgroup","visible":true,"x":0,"y":0,"objects":[{"id":1,"name":"","type":"collision","rotation":0,"visible":true,"x":0.0,"y":0.0,"width":32.0,"height":32.0}]}},{"id":69,"properties":[{"name":"blob","type":"string","value":"asphalt-ruin"},{"name":"collides","type":"bool","value":true}],"objectgroup":{"draworder":"index","id":2,"name":"","opacity":1,"type":"objectgroup","visible":true,"x":0,"y":0,"objects":[{"id":1,"name":"","type":"collision","rotation":0,"visible":true,"x":0.0,"y":0.0,"width":32.0,"height":32.0}]}},{"id":70,"properties":[{"name":"blob","type":"string","value":"asphalt-ruin"},{"name":"collides","type":"bool","value":true}],"objectgroup":{"draworder":"index","id":2,"name":"","opacity":1,"type":"objectgroup","visible":true,"x":0,"y":0,"objects":[{"id":1,"name":"","type":"collision","rotation":0,"visible":true,"x":0.0,"y":0.0,"width":32.0,"height":32.0}]}},{"id":71,"properties":[{"name":"blob","type":"string","value":"asphalt-ruin"},{"name":"collides","type":"bool","value":true}],"objectgroup":{"draworder":"index","id":2,"name":"","opacity":1,"type":"objectgroup","visible":true,"x":0,"y":0,"objects":[{"id":1,"name":"","type":"collision","rotation":0,"visible":true,"x":0.0,"y":0.0,"width":32.0,"height":32.0}]}},{"id":72,"properties":[{"name":"blob","type":"string","value":"asphalt-ruin"},{"name":"collides","type":"bool","value":true}],"objectgroup":{"draworder":"index","id":2,"name":"","opacity":1,"type":"objectgroup","visible":true,"x":0,"y":0,"objects":[{"id":1,"name":"","type":"collision","rotation":0,"visible":true,"x":0.0,"y":0.0,"width":32.0,"height":32.0}]}},{"id":73,"properties":[{"name":"blob","type":"string","value":"asphalt-ruin"},{"name":"collides","type":"bool","value":true}],"objectgroup":{"draworder":"index","id":2,"name":"","opacity":1,"type":"objectgroup","visible":true,"x":0,"y":0,"objects":[{"id":1,"name":"","type":"collision","rotation":0,"visible":true,"x":0.0,"y":0.0,"width":32.0,"height":32.0}]}},{"id":74,"properties":[{"name":"blob","type":"string","value":"asphalt-ruin"},{"name":"collides","type":"bool","value":true}],"objectgroup":{"draworder":"index","id":2,"name":"","opacity":1,"type":"objectgroup","visible":true,"x":0,"y":0,"objects":[{"id":1,"name":"","type":"collision","rotation":0,"visible":true,"x":0.0,"y":0.0,"width":32.0,"height":32.0}]}},{"id":75,"properties":[{"name":"blob","type":"string","value":"asphalt-ruin"},{"name":"collides","type":"bool","value":true}],"objectgroup":{"draworder":"index","id":2,"name":"","opacity":1,"type":"objectgroup","visible":true,"x":0,"y":0,"objects":[{"id":1,"name":"","type":"collision","rotation":0,"visible":true,"x":0.0,"y":0.0,"width":32.0,"height":32.0}]}},{"id":76,"properties":[{"name":"blob","type":"string","value":"asphalt-ruin"},{"name":"collides","type":"bool","value":true}],"objectgroup":{"draworder":"index","id":2,"name":"","opacity":1,"type":"objectgroup","visible":true,"x":0,"y":0,"objects":[{"id":1,"name":"","type":"collision","rotation":0,"visible":true,"x":0.0,"y":0.0,"width":32.0,"height":32.0}]}},{"id":77,"properties":[{"name":"blob","type":"string","value":"asphalt-ruin"},{"name":"collides","type":"bool","value":true}],"objectgroup":{"draworder":"index","id":2,"name":"","opacity":1,"type":"objectgroup","visible":true,"x":0,"y":0,"objects":[{"id":1,"name":"","type":"collision","rotation":0,"visible":true,"x":0.0,"y":0.0,"width":32.0,"height":32.0}]}},{"id":78,"properties":[{"name":"blob","type":"string","value":"asphalt-ruin"},{"name":"collides","type":"bool","value":true}],"objectgroup":{"draworder":"index","id":2,"name":"","opacity":1,"type":"objectgroup","visible":true,"x":0,"y":0,"objects":[{"id":1,"name":"","type":"collision","rotation":0,"visible":true,"x":0.0,"y":0.0,"width":32.0,"height":32.0}]}},{"id":80,"properties":[{"name":"blob","type":"string","value":"asphalt-sludge"}]},{"id":81,"properties":[{"name":"blob","type":"string","value":"asphalt-sludge"},{"name":"collides","type":"bool","value":true}],"objectgroup":{"draworder":"index","id":2,"name":"","opacity":1,"type":"objectgroup","visible":true,"x":0,"y":0,"objects":[{"id":1,"name":"","type":"collision","rotation":0,"visible":true,"x":0.0,"y":0.0,"width":16.0,"height":32.0}]}},{"id":82,"properties":[{"name":"blob","type":"string","value":"asphalt-sludge"},{"name":"collides","type":"bool","value":true}],"objectgroup":{"draworder":"index","id":2,"name":"","opacity":1,"type":"objectgroup","visible":true,"x":0,"y":0,"objects":[{"id":1,"name":"","type":"collision","rotation":0,"visible":true,"x":0.0,"y":16.0,"width":32.0,"height":16.0}]}},{"id":83,"properties":[{"name":"blob","type":"string","value":"asphalt-sludge"},{"name":"collides","type":"bool","value":true}],"objectgroup":{"draworder":"index","id":2,"name":"","opacity":1,"type":"objectgroup","visible":true,"x":0,"y":0,"objects":[{"id":1,"name":"","type":"collision","rotation":0,"visible":true,"x":16.0,"y":0.0,"width":16.0,"height":32.0}]}},{"id":84,"properties":[{"name":"blob","type":"string","value":"asphalt-sludge"},{"name":"collides","type":"bool","value":true}],"objectgroup":{"draworder":"index","id":2,"name":"","opacity":1,"type":"objectgroup","visible":true,"x":0,"y":0,"objects":[{"id":1,"name":"","type":"collision","rotation":0,"visible":true,"x":0.0,"y":0.0,"width":32.0,"height":16.0}]}},{"id":85,"properties":[{"name":"blob","type":"string","value":"asphalt-sludge"},{"name":"collides","type":"bool","value":true}],"objectgroup":{"draworder":"index","id":2,"name":"","opacity":1,"type":"objectgroup","visible":true,"x":0,"y":0,"objects":[{"id":1,"name":"","type":"collision","rotation":0,"visible":true,"x":0.0,"y":16.0,"width":32.0,"height":16.0},{"id":2,"name":"","type":"collision","rotation":0,"visible":true,"x":0.0,"y":0.0,"width":16.0,"height":16.0}]}},{"id":86,"properties":[{"name":"blob","type":"string","value":"asphalt-sludge"},{"name":"collides","type":"bool","value":true}],"objectgroup":{"draworder":"index","id":2,"name":"","opacity":1,"type":"objectgroup","visible":true,"x":0,"y":0,"objects":[{"id":1,"name":"","type":"collision","rotation":0,"visible":true,"x":0.0,"y":0.0,"width":32.0,"height":32.0}]}},{"id":87,"properties":[{"name":"blob","type":"string","value":"asphalt-sludge"},{"name":"collides","type":"bool","value":true}],"objectgroup":{"draworder":"index","id":2,"name":"","opacity":1,"type":"objectgroup","visible":true,"x":0,"y":0,"objects":[{"id":1,"name":"","type":"collision","rotation":0,"visible":true,"x":0.0,"y":16.0,"width":32.0,"height":16.0},{"id":2,"name":"","type":"collision","rotation":0,"visible":true,"x":16.0,"y":0.0,"width":16.0,"height":16.0}]}},{"id":88,"properties":[{"name":"blob","type":"string","value":"asphalt-sludge"},{"name":"collides","type":"bool","value":true}],"objectgroup":{"draworder":"index","id":2,"name":"","opacity":1,"type":"objectgroup","visible":true,"x":0,"y":0,"objects":[{"id":1,"name":"","type":"collision","rotation":0,"visible":true,"x":0.0,"y":0.0,"width":32.0,"height":16.0},{"id":2,"name":"","type":"collision","rotation":0,"visible":true,"x":0.0,"y":16.0,"width":16.0,"height":16.0}]}},{"id":89,"properties":[{"name":"blob","type":"string","value":"asphalt-sludge"},{"name":"collides","type":"bool","value":true}],"objectgroup":{"draworder":"index","id":2,"name":"","opacity":1,"type":"objectgroup","visible":true,"x":0,"y":0,"objects":[{"id":1,"name":"","type":"collision","rotation":0,"visible":true,"x":0.0,"y":0.0,"width":32.0,"height":32.0}]}},{"id":90,"properties":[{"name":"blob","type":"string","value":"asphalt-sludge"},{"name":"collides","type":"bool","value":true}],"objectgroup":{"draworder":"index","id":2,"name":"","opacity":1,"type":"objectgroup","visible":true,"x":0,"y":0,"objects":[{"id":1,"name":"","type":"collision","rotation":0,"visible":true,"x":0.0,"y":0.0,"width":32.0,"height":16.0},{"id":2,"name":"","type":"collision","rotation":0,"visible":true,"x":16.0,"y":16.0,"width":16.0,"height":16.0}]}},{"id":91,"properties":[{"name":"blob","type":"string","value":"asphalt-sludge"},{"name":"collides","type":"bool","value":true}],"objectgroup":{"draworder":"index","id":2,"name":"","opacity":1,"type":"objectgroup","visible":true,"x":0,"y":0,"objects":[{"id":1,"name":"","type":"collision","rotation":0,"visible":true,"x":0.0,"y":16.0,"width":32.0,"height":16.0},{"id":2,"name":"","type":"collision","rotation":0,"visible":true,"x":0.0,"y":0.0,"width":16.0,"height":16.0}]}},{"id":92,"properties":[{"name":"blob","type":"string","value":"asphalt-sludge"},{"name":"collides","type":"bool","value":true}],"objectgroup":{"draworder":"index","id":2,"name":"","opacity":1,"type":"objectgroup","visible":true,"x":0,"y":0,"objects":[{"id":1,"name":"","type":"collision","rotation":0,"visible":true,"x":0.0,"y":0.0,"width":32.0,"height":32.0}]}},{"id":93,"properties":[{"name":"blob","type":"string","value":"asphalt-sludge"},{"name":"collides","type":"bool","value":true}],"objectgroup":{"draworder":"index","id":2,"name":"","opacity":1,"type":"objectgroup","visible":true,"x":0,"y":0,"objects":[{"id":1,"name":"","type":"collision","rotation":0,"visible":true,"x":0.0,"y":16.0,"width":32.0,"height":16.0},{"id":2,"name":"","type":"collision","rotation":0,"visible":true,"x":16.0,"y":0.0,"width":16.0,"height":16.0}]}},{"id":94,"properties":[{"name":"blob","type":"string","value":"asphalt-sludge"},{"name":"collides","type":"bool","value":true}],"objectgroup":{"draworder":"index","id":2,"name":"","opacity":1,"type":"objectgroup","visible":true,"x":0,"y":0,"objects":[{"id":1,"name":"","type":"collision","rotation":0,"visible":true,"x":0.0,"y":0.0,"width":32.0,"height":16.0},{"id":2,"name":"","type":"collision","rotation":0,"visible":true,"x":0.0,"y":16.0,"width":16.0,"height":16.0}]}},{"id":95,"properties":[{"name":"blob","type":"string","value":"asphalt-sludge"},{"name":"collides","type":"bool","value":true}],"objectgroup":{"draworder":"index","id":2,"name":"","opacity":1,"type":"objectgroup","visible":true,"x":0,"y":0,"objects":[{"id":1,"name":"","type":"collision","rotation":0,"visible":true,"x":0.0,"y":0.0,"width":32.0,"height":32.0}]}},{"id":96,"properties":[{"name":"blob","type":"string","value":"asphalt-sludge"},{"name":"collides","type":"bool","value":true}],"objectgroup":{"draworder":"index","id":2,"name":"","opacity":1,"type":"objectgroup","visible":true,"x":0,"y":0,"objects":[{"id":1,"name":"","type":"collision","rotation":0,"visible":true,"x":0.0,"y":0.0,"width":32.0,"height":32.0}]}},{"id":97,"properties":[{"name":"blob","type":"string","value":"asphalt-sludge"},{"name":"collides","type":"bool","value":true}],"objectgroup":{"draworder":"index","id":2,"name":"","opacity":1,"type":"objectgroup","visible":true,"x":0,"y":0,"objects":[{"id":1,"name":"","type":"collision","rotation":0,"visible":true,"x":0.0,"y":0.0,"width":32.0,"height":32.0}]}},{"id":98,"properties":[{"name":"blob","type":"string","value":"asphalt-sludge"},{"name":"collides","type":"bool","value":true}],"objectgroup":{"draworder":"index","id":2,"name":"","opacity":1,"type":"objectgroup","visible":true,"x":0,"y":0,"objects":[{"id":1,"name":"","type":"collision","rotation":0,"visible":true,"x":0.0,"y":0.0,"width":32.0,"height":16.0},{"id":2,"name":"","type":"collision","rotation":0,"visible":true,"x":16.0,"y":16.0,"width":16.0,"height":16.0}]}},{"id":99,"properties":[{"name":"blob","type":"string","value":"asphalt-sludge"},{"name":"collides","type":"bool","value":true}],"objectgroup":{"draworder":"index","id":2,"name":"","opacity":1,"type":"objectgroup","visible":true,"x":0,"y":0,"objects":[{"id":1,"name":"","type":"collision","rotation":0,"visible":true,"x":0.0,"y":0.0,"width":32.0,"height":32.0}]}},{"id":100,"properties":[{"name":"blob","type":"string","value":"asphalt-sludge"},{"name":"collides","type":"bool","value":true}],"objectgroup":{"draworder":"index","id":2,"name":"","opacity":1,"type":"objectgroup","visible":true,"x":0,"y":0,"objects":[{"id":1,"name":"","type":"collision","rotation":0,"visible":true,"x":0.0,"y":0.0,"width":32.0,"height":32.0}]}},{"id":101,"properties":[{"name":"blob","type":"string","value":"asphalt-sludge"},{"name":"collides","type":"bool","value":true}],"objectgroup":{"draworder":"index","id":2,"name":"","opacity":1,"type":"objectgroup","visible":true,"x":0,"y":0,"objects":[{"id":1,"name":"","type":"collision","rotation":0,"visible":true,"x":0.0,"y":0.0,"width":32.0,"height":32.0}]}},{"id":102,"properties":[{"name":"blob","type":"string","value":"asphalt-sludge"},{"name":"collides","type":"bool","value":true}],"objectgroup":{"draworder":"index","id":2,"name":"","opacity":1,"type":"objectgroup","visible":true,"x":0,"y":0,"objects":[{"id":1,"name":"","type":"collision","rotation":0,"visible":true,"x":0.0,"y":0.0,"width":32.0,"height":32.0}]}},{"id":103,"properties":[{"name":"blob","type":"string","value":"asphalt-sludge"},{"name":"collides","type":"bool","value":true}],"objectgroup":{"draworder":"index","id":2,"name":"","opacity":1,"type":"objectgroup","visible":true,"x":0,"y":0,"objects":[{"id":1,"name":"","type":"collision","rotation":0,"visible":true,"x":0.0,"y":0.0,"width":32.0,"height":32.0}]}},{"id":104,"properties":[{"name":"blob","type":"string","value":"asphalt-sludge"},{"name":"collides","type":"bool","value":true}],"objectgroup":{"draworder":"index","id":2,"name":"","opacity":1,"type":"objectgroup","visible":true,"x":0,"y":0,"objects":[{"id":1,"name":"","type":"collision","rotation":0,"visible":true,"x":0.0,"y":0.0,"width":32.0,"height":32.0}]}},{"id":105,"properties":[{"name":"blob","type":"string","value":"asphalt-sludge"},{"name":"collides","type":"bool","value":true}],"objectgroup":{"draworder":"index","id":2,"name":"","opacity":1,"type":"objectgroup","visible":true,"x":0,"y":0,"objects":[{"id":1,"name":"","type":"collision","rotation":0,"visible":true,"x":0.0,"y":0.0,"width":32.0,"height":32.0}]}},{"id":106,"properties":[{"name":"blob","type":"string","value":"asphalt-sludge"},{"name":"collides","type":"bool","value":true}],"objectgroup":{"draworder":"index","id":2,"name":"","opacity":1,"type":"objectgroup","visible":true,"x":0,"y":0,"objects":[{"id":1,"name":"","type":"collision","rotation":0,"visible":true,"x":0.0,"y":0.0,"width":32.0,"height":32.0}]}},{"id":107,"properties":[{"name":"blob","type":"string","value":"asphalt-sludge"},{"name":"collides","type":"bool","value":true}],"objectgroup":{"draworder":"index","id":2,"name":"","opacity":1,"type":"objectgroup","visible":true,"x":0,"y":0,"objects":[{"id":1,"name":"","type":"collision","rotation":0,"visible":true,"x":0.0,"y":0.0,"width":32.0,"height":32.0}]}},{"id":108,"properties":[{"name":"blob","type":"string","value":"asphalt-sludge"},{"name":"collides","type":"bool","value":true}],"objectgroup":{"draworder":"index","id":2,"name":"","opacity":1,"type":"objectgroup","visible":true,"x":0,"y":0,"objects":[{"id":1,"name":"","type":"collision","rotation":0,"visible":true,"x":0.0,"y":0.0,"width":32.0,"height":32.0}]}},{"id":109,"properties":[{"name":"blob","type":"string","value":"asphalt-sludge"},{"name":"collides","type":"bool","value":true}],"objectgroup":{"draworder":"index","id":2,"name":"","opacity":1,"type":"objectgroup","visible":true,"x":0,"y":0,"objects":[{"id":1,"name":"","type":"collision","rotation":0,"visible":true,"x":0.0,"y":0.0,"width":32.0,"height":32.0}]}},{"id":110,"properties":[{"name":"blob","type":"string","value":"asphalt-sludge"},{"name":"collides","type":"bool","value":true}],"objectgroup":{"draworder":"index","id":2,"name":"","opacity":1,"type":"objectgroup","visible":true,"x":0,"y":0,"objects":[{"id":1,"name":"","type":"collision","rotation":0,"visible":true,"x":0.0,"y":0.0,"width":32.0,"height":32.0}]}},{"id":111,"properties":[{"name":"blob","type":"string","value":"asphalt-sludge"},{"name":"collides","type":"bool","value":true}],"objectgroup":{"draworder":"index","id":2,"name":"","opacity":1,"type":"objectgroup","visible":true,"x":0,"y":0,"objects":[{"id":1,"name":"","type":"collision","rotation":0,"visible":true,"x":0.0,"y":0.0,"width":32.0,"height":32.0}]}},{"id":112,"properties":[{"name":"blob","type":"string","value":"asphalt-sludge"},{"name":"collides","type":"bool","value":true}],"objectgroup":{"draworder":"index","id":2,"name":"","opacity":1,"type":"objectgroup","visible":true,"x":0,"y":0,"objects":[{"id":1,"name":"","type":"collision","rotation":0,"visible":true,"x":0.0,"y":0.0,"width":32.0,"height":32.0}]}},{"id":113,"properties":[{"name":"blob","type":"string","value":"asphalt-sludge"},{"name":"collides","type":"bool","value":true}],"objectgroup":{"draworder":"index","id":2,"name":"","opacity":1,"type":"objectgroup","visible":true,"x":0,"y":0,"objects":[{"id":1,"name":"","type":"collision","rotation":0,"visible":true,"x":0.0,"y":0.0,"width":32.0,"height":32.0}]}},{"id":114,"properties":[{"name":"blob","type":"string","value":"asphalt-sludge"},{"name":"collides","type":"bool","value":true}],"objectgroup":{"draworder":"index","id":2,"name":"","opacity":1,"type":"objectgroup","visible":true,"x":0,"y":0,"objects":[{"id":1,"name":"","type":"collision","rotation":0,"visible":true,"x":0.0,"y":0.0,"width":32.0,"height":32.0}]}},{"id":115,"properties":[{"name":"blob","type":"string","value":"asphalt-sludge"},{"name":"collides","type":"bool","value":true}],"objectgroup":{"draworder":"index","id":2,"name":"","opacity":1,"type":"objectgroup","visible":true,"x":0,"y":0,"objects":[{"id":1,"name":"","type":"collision","rotation":0,"visible":true,"x":0.0,"y":0.0,"width":32.0,"height":32.0}]}},{"id":116,"properties":[{"name":"blob","type":"string","value":"asphalt-sludge"},{"name":"collides","type":"bool","value":true}],"objectgroup":{"draworder":"index","id":2,"name":"","opacity":1,"type":"objectgroup","visible":true,"x":0,"y":0,"objects":[{"id":1,"name":"","type":"collision","rotation":0,"visible":true,"x":0.0,"y":0.0,"width":32.0,"height":32.0}]}},{"id":117,"properties":[{"name":"blob","type":"string","value":"asphalt-sludge"},{"name":"collides","type":"bool","value":true}],"objectgroup":{"draworder":"index","id":2,"name":"","opacity":1,"type":"objectgroup","visible":true,"x":0,"y":0,"objects":[{"id":1,"name":"","type":"collision","rotation":0,"visible":true,"x":0.0,"y":0.0,"width":32.0,"height":32.0}]}},{"id":118,"properties":[{"name":"blob","type":"string","value":"asphalt-sludge"},{"name":"collides","type":"bool","value":true}],"objectgroup":{"draworder":"index","id":2,"name":"","opacity":1,"type":"objectgroup","visible":true,"x":0,"y":0,"objects":[{"id":1,"name":"","type":"collision","rotation":0,"visible":true,"x":0.0,"y":0.0,"width":32.0,"height":32.0}]}},{"id":119,"properties":[{"name":"blob","type":"string","value":"asphalt-sludge"},{"name":"collides","type":"bool","value":true}],"objectgroup":{"draworder":"index","id":2,"name":"","opacity":1,"type":"objectgroup","visible":true,"x":0,"y":0,"objects":[{"id":1,"name":"","type":"collision","rotation":0,"visible":true,"x":0.0,"y":0.0,"width":32.0,"height":32.0}]}},{"id":120,"properties":[{"name":"blob","type":"string","value":"asphalt-sludge"},{"name":"collides","type":"bool","value":true}],"objectgroup":{"draworder":"index","id":2,"name":"","opacity":1,"type":"objectgroup","visible":true,"x":0,"y":0,"objects":[{"id":1,"name":"","type":"collision","rotation":0,"visible":true,"x":0.0,"y":0.0,"width":32.0,"height":32.0}]}},{"id":121,"properties":[{"name":"blob","type":"string","value":"asphalt-sludge"},{"name":"collides","type":"bool","value":true}],"objectgroup":{"draworder":"index","id":2,"name":"","opacity":1,"type":"objectgroup","visible":true,"x":0,"y":0,"objects":[{"id":1,"name":"","type":"collision","rotation":0,"visible":true,"x":0.0,"y":0.0,"width":32.0,"height":32.0}]}},{"id":122,"properties":[{"name":"blob","type":"string","value":"asphalt-sludge"},{"name":"collides","type":"bool","value":true}],"objectgroup":{"draworder":"index","id":2,"name":"","opacity":1,"type":"objectgroup","visible":true,"x":0,"y":0,"objects":[{"id":1,"name":"","type":"collision","rotation":0,"visible":true,"x":0.0,"y":0.0,"width":32.0,"height":32.0}]}},{"id":123,"properties":[{"name":"blob","type":"string","value":"asphalt-sludge"},{"name":"collides","type":"bool","value":true}],"objectgroup":{"draworder":"index","id":2,"name":"","opacity":1,"type":"objectgroup","visible":true,"x":0,"y":0,"objects":[{"id":1,"name":"","type":"collision","rotation":0,"visible":true,"x":0.0,"y":0.0,"width":32.0,"height":32.0}]}},{"id":124,"properties":[{"name":"blob","type":"string","value":"asphalt-sludge"},{"name":"collides","type":"bool","value":true}],"objectgroup":{"draworder":"index","id":2,"name":"","opacity":1,"type":"objectgroup","visible":true,"x":0,"y":0,"objects":[{"id":1,"name":"","type":"collision","rotation":0,"visible":true,"x":0.0,"y":0.0,"width":32.0,"height":32.0}]}},{"id":125,"properties":[{"name":"blob","type":"string","value":"asphalt-sludge"},{"name":"collides","type":"bool","value":true}],"objectgroup":{"draworder":"index","id":2,"name":"","opacity":1,"type":"objectgroup","visible":true,"x":0,"y":0,"objects":[{"id":1,"name":"","type":"collision","rotation":0,"visible":true,"x":0.0,"y":0.0,"width":32.0,"height":32.0}]}},{"id":126,"properties":[{"name":"blob","type":"string","value":"asphalt-sludge"},{"name":"collides","type":"bool","value":true}],"objectgroup":{"draworder":"index","id":2,"name":"","opacity":1,"type":"objectgroup","visible":true,"x":0,"y":0,"objects":[{"id":1,"name":"","type":"collision","rotation":0,"visible":true,"x":0.0,"y":0.0,"width":32.0,"height":32.0}]}},{"id":128,"properties":[{"name":"blob","type":"string","value":"asphalt-metal"}]},{"id":129,"properties":[{"name":"blob","type":"string","value":"asphalt-metal"}]},{"id":130,"properties":[{"name":"blob","type":"string","value":"asphalt-metal"}]},{"id":131,"properties":[{"name":"blob","type":"string","value":"asphalt-metal"}]},{"id":132,"properties":[{"name":"blob","type":"string","value":"asphalt-metal"}]},{"id":133,"properties":[{"name":"blob","type":"string","value":"asphalt-metal"}]},{"id":134,"properties":[{"name":"blob","type":"string","value":"asphalt-metal"}]},{"id":135,"properties":[{"name":"blob","type":"string","value":"asphalt-metal"}]},{"id":136,"properties":[{"name":"blob","type":"string","value":"asphalt-metal"}]},{"id":137,"properties":[{"name":"blob","type":"string","value":"asphalt-metal"}]},{"id":138,"properties":[{"name":"blob","type":"string","value":"asphalt-metal"}]},{"id":139,"properties":[{"name":"blob","type":"string","value":"asphalt-metal"}]},{"id":140,"properties":[{"name":"blob","type":"string","value":"asphalt-metal"}]},{"id":141,"properties":[{"name":"blob","type":"string","value":"asphalt-metal"}]},{"id":142,"properties":[{"name":"blob","type":"string","value":"asphalt-metal"}]},{"id":143,"properties":[{"name":"blob","type":"string","value":"asphalt-metal"}]},{"id":144,"properties":[{"name":"blob","type":"string","value":"asphalt-metal"}]},{"id":145,"properties":[{"name":"blob","type":"string","value":"asphalt-metal"}]},{"id":146,"properties":[{"name":"blob","type":"string","value":"asphalt-metal"}]},{"id":147,"properties":[{"name":"blob","type":"string","value":"asphalt-metal"}]},{"id":148,"properties":[{"name":"blob","type":"string","value":"asphalt-metal"}]},{"id":149,"properties":[{"name":"blob","type":"string","value":"asphalt-metal"}]},{"id":150,"properties":[{"name":"blob","type":"string","value":"asphalt-metal"}]},{"id":151,"properties":[{"name":"blob","type":"string","value":"asphalt-metal"}]},{"id":152,"properties":[{"name":"blob","type":"string","value":"asphalt-metal"}]},{"id":153,"properties":[{"name":"blob","type":"string","value":"asphalt-metal"}]},{"id":154,"properties":[{"name":"blob","type":"string","value":"asphalt-metal"}]},{"id":155,"properties":[{"name":"blob","type":"string","value":"asphalt-metal"}]},{"id":156,"properties":[{"name":"blob","type":"string","value":"asphalt-metal"}]},{"id":157,"properties":[{"name":"blob","type":"string","value":"asphalt-metal"}]},{"id":158,"properties":[{"name":"blob","type":"string","value":"asphalt-metal"}]},{"id":159,"properties":[{"name":"blob","type":"string","value":"asphalt-metal"}]},{"id":160,"properties":[{"name":"blob","type":"string","value":"asphalt-metal"}]},{"id":161,"properties":[{"name":"blob","type":"string","value":"asphalt-metal"}]},{"id":162,"properties":[{"name":"blob","type":"string","value":"asphalt-metal"}]},{"id":163,"properties":[{"name":"blob","type":"string","value":"asphalt-metal"}]},{"id":164,"properties":[{"name":"blob","type":"string","value":"asphalt-metal"}]},{"id":165,"properties":[{"name":"blob","type":"string","value":"asphalt-metal"}]},{"id":166,"properties":[{"name":"blob","type":"string","value":"asphalt-metal"}]},{"id":167,"properties":[{"name":"blob","type":"string","value":"asphalt-metal"}]},{"id":168,"properties":[{"name":"blob","type":"string","value":"asphalt-metal"}]},{"id":169,"properties":[{"name":"blob","type":"string","value":"asphalt-metal"}]},{"id":170,"properties":[{"name":"blob","type":"string","value":"asphalt-metal"}]},{"id":171,"properties":[{"name":"blob","type":"string","value":"asphalt-metal"}]},{"id":172,"properties":[{"name":"blob","type":"string","value":"asphalt-metal"}]},{"id":173,"properties":[{"name":"blob","type":"string","value":"asphalt-metal"}]},{"id":174,"properties":[{"name":"blob","type":"string","value":"asphalt-metal"}]},{"id":176,"properties":[{"name":"collides","type":"bool","value":true},{"name":"prop","type":"string","value":"rubble_small"}],"objectgroup":{"draworder":"index","id":2,"name":"","opacity":1,"type":"objectgroup","visible":true,"x":0,"y":0,"objects":[{"id":1,"name":"","type":"collision","rotation":0,"visible":true,"x":0.0,"y":1.0,"width":32.0,"height":31.0}]}},{"id":177,"properties":[{"name":"collides","type":"bool","value":true},{"name":"prop","type":"string","value":"rubble_large"}],"objectgroup":{"draworder":"index","id":2,"name":"","opacity":1,"type":"objectgroup","visible":true,"x":0,"y":0,"objects":[{"id":1,"name":"","type":"collision","rotation":0,"visible":true,"x":0.0,"y":0.0,"width":32.0,"height":32.0}]}},{"id":178,"properties":[{"name":"collides","type":"bool","value":true},{"name":"prop","type":"string","value":"rubble_large"}],"objectgroup":{"draworder":"index","id":2,"name":"","opacity":1,"type":"objectgroup","visible":true,"x":0,"y":0,"objects":[{"id":1,"name":"","type":"collision","rotation":0,"visible":true,"x":0.0,"y":2.0,"width":32.0,"height":30.0}]}},{"id":179,"properties":[{"name":"collides","type":"bool","value":true},{"name":"prop","type":"string","value":"wrecked_car_v"}],"objectgroup":{"draworder":"index","id":2,"name":"","opacity":1,"type":"objectgroup","visible":true,"x":0,"y":0,"objects":[{"id":1,"name":"","type":"collision","rotation":0,"visible":true,"x":5.0,"y":3.0,"width":24.0,"height":29.0}]}},{"id":180,"properties":[{"name":"collides","type":"bool","value":true},{"name":"prop","type":"string","value":"wrecked_car_h"}],"objectgroup":{"draworder":"index","id":2,"name":"","opacity":1,"type":"objectgroup","visible":true,"x":0,"y":0,"objects":[{"id":1,"name":"","type":"collision","rotation":0,"visible":true,"x":3.0,"y":5.0,"width":29.0,"height":25.0}]}},{"id":181,"properties":[{"name":"collides","type":"bool","value":true},{"name":"prop","type":"string","value":"wrecked_car_h"}],"objectgroup":{"draworder":"index","id":2,"name":"","opacity":1,"type":"objectgroup","visible":true,"x":0,"y":0,"objects":[{"id":1,"name":"","type":"collision","rotation":0,"visible":true,"x":0.0,"y":5.0,"width":31.0,"height":25.0}]}},{"id":182,"properties":[{"name":"collides","type":"bool","value":true},{"name":"prop","type":"string","value":"barrel_purple"}],"objectgroup":{"draworder":"index","id":2,"name":"","opacity":1,"type":"objectgroup","visible":true,"x":0,"y":0,"objects":[{"id":1,"name":"","type":"collision","rotation":0,"visible":true,"x":6.0,"y":6.0,"width":22.0,"height":23.0}]}},{"id":183,"properties":[{"name":"collides","type":"bool","value":true},{"name":"prop","type":"string","value":"barrel_toxic"}],"objectgroup":{"draworder":"index","id":2,"name":"","opacity":1,"type":"objectgroup","visible":true,"x":0,"y":0,"objects":[{"id":1,"name":"","type":"collision","rotation":0,"visible":true,"x":6.0,"y":6.0,"width":22.0,"height":23.0}]}},{"id":184,"properties":[{"name":"collides","type":"bool","value":true},{"name":"prop","type":"string","value":"neon_kiosk"}],"objectgroup":{"draworder":"index","id":2,"name":"","opacity":1,"type":"objectgroup","visible":true,"x":0,"y":0,"objects":[{"id":1,"name":"","type":"collision","rotation":0,"visible":true,"x":1.0,"y":3.0,"width":31.0,"height":29.0}]}},{"id":185,"properties":[{"name":"collides","type":"bool","value":true},{"name":"prop","type":"string","value":"neon_kiosk"}],"objectgroup":{"draworder":"index","id":2,"name":"","opacity":1,"type":"objectgroup","visible":true,"x":0,"y":0,"objects":[{"id":1,"name":"","type":"collision","rotation":0,"visible":true,"x":0.0,"y":3.0,"width":32.0,"height":29.0}]}},{"id":186,"properties":[{"name":"collides","type":"bool","value":true},{"name":"prop","type":"string","value":"vending_broken"}],"objectgroup":{"draworder":"index","id":2,"name":"","opacity":1,"type":"objectgroup","visible":true,"x":0,"y":0,"objects":[{"id":1,"name":"","type":"collision","rotation":0,"visible":true,"x":4.0,"y":2.0,"width":26.0,"height":30.0}]}},{"id":187,"properties":[{"name":"collides","type":"bool","value":true},{"name":"prop","type":"string","value":"terminal"}],"objectgroup":{"draworder":"index","id":2,"name":"","opacity":1,"type":"objectgroup","visible":true,"x":0,"y":0,"objects":[{"id":1,"name":"","type":"collision","rotation":0,"visible":true,"x":5.0,"y":3.0,"width":24.0,"height":29.0}]}},{"id":188,"properties":[{"name":"collides","type":"bool","value":true},{"name":"prop","type":"string","value":"holo_billboard"}],"objectgroup":{"draworder":"index","id":2,"name":"","opacity":1,"type":"objectgroup","visible":true,"x":0,"y":0,"objects":[{"id":1,"name":"","type":"collision","rotation":0,"visible":true,"x":3.0,"y":3.0,"width":29.0,"height":29.0}]}},{"id":189,"properties":[{"name":"collides","type":"bool","value":true},{"name":"prop","type":"string","value":"holo_billboard"}],"objectgroup":{"draworder":"index","id":2,"name":"","opacity":1,"type":"objectgroup","visible":true,"x":0,"y":0,"objects":[{"id":1,"name":"","type":"collision","rotation":0,"visible":true,"x":0.0,"y":3.0,"width":31.0,"height":29.0}]}},{"id":190,"properties":[{"name":"collides","type":"bool","value":true},{"name":"prop","type":"string","value":"neon_sign"}],"objectgroup":{"draworder":"index","id":2,"name":"","opacity":1,"type":"objectgroup","visible":true,"x":0,"y":0,"objects":[{"id":1,"name":"","type":"collision","rotation":0,"visible":true,"x":1.0,"y":5.0,"width":31.0,"height":25.0}]}},{"id":191,"properties":[{"name":"collides","type":"bool","value":true},{"name":"prop","type":"string","value":"neon_sign"}],"objectgroup":{"draworder":"index","id":2,"name":"","opacity":1,"type":"objectgroup","visible":true,"x":0,"y":0,"objects":[{"id":1,"name":"","type":"collision","rotation":0,"visible":true,"x":0.0,"y":5.0,"width":32.0,"height":25.0}]}},{"id":192,"properties":[{"name":"collides","type":"bool","value":true},{"name":"prop","type":"string","value":"crate"}],"objectgroup":{"draworder":"index","id":2,"name":"","opacity":1,"type":"objectgroup","visible":true,"x":0,"y":0,"objects":[{"id":1,"name":"","type":"collision","rotation":0,"visible":true,"x":3.0,"y":3.0,"width":28.0,"height":29.0}]}},{"id":193,"properties":[{"name":"collides","type":"bool","value":true},{"name":"prop","type":"string","value":"rubble_large"}],"objectgroup":{"draworder":"index","id":2,"name":"","opacity":1,"type":"objectgroup","visible":true,"x":0,"y":0,"objects":[{"id":1,"name":"","type":"collision","rotation":0,"visible":true,"x":0.0,"y":0.0,"width":32.0,"height":32.0}]}},{"id":194,"properties":[{"name":"collides","type":"bool","value":true},{"name":"prop","type":"string","value":"rubble_large"}],"objectgroup":{"draworder":"index","id":2,"name":"","opacity":1,"type":"objectgroup","visible":true,"x":0,"y":0,"objects":[{"id":1,"name":"","type":"collision","rotation":0,"visible":true,"x":0.0,"y":0.0,"width":32.0,"height":32.0}]}},{"id":195,"properties":[{"name":"collides","type":"bool","value":true},{"name":"prop","type":"string","value":"wrecked_car_v"}],"objectgroup":{"draworder":"index","id":2,"name":"","opacity":1,"type":"objectgroup","visible":true,"x":0,"y":0,"objects":[{"id":1,"name":"","type":"collision","rotation":0,"visible":true,"x":5.0,"y":0.0,"width":24.0,"height":32.0}]}},{"id":196,"properties":[{"name":"collides","type":"bool","value":true},{"name":"prop","type":"string","value":"dumpster"}],"objectgroup":{"draworder":"index","id":2,"name":"","opacity":1,"type":"objectgroup","visible":true,"x":0,"y":0,"objects":[{"id":1,"name":"","type":"collision","rotation":0,"visible":true,"x":2.0,"y":5.0,"width":30.0,"height":27.0}]}},{"id":197,"properties":[{"name":"collides","type":"bool","value":true},{"name":"prop","type":"string","value":"dumpster"}],"objectgroup":{"draworder":"index","id":2,"name":"","opacity":1,"type":"objectgroup","visible":true,"x":0,"y":0,"objects":[{"id":1,"name":"","type":"collision","rotation":0,"visible":true,"x":0.0,"y":5.0,"width":32.0,"height":27.0}]}},{"id":198,"properties":[{"name":"prop","type":"string","value":"steam_vent"}]},{"id":199,"properties":[{"name":"collides","type":"bool","value":true},{"name":"prop","type":"string","value":"broken_pillar"}],"objectgroup":{"draworder":"index","id":2,"name":"","opacity":1,"type":"objectgroup","visible":true,"x":0,"y":0,"objects":[{"id":1,"name":"","type":"collision","rotation":0,"visible":true,"x":6.0,"y":2.0,"width":22.0,"height":27.0}]}},{"id":200,"properties":[{"name":"collides","type":"bool","value":true},{"name":"prop","type":"string","value":"neon_streetlight"}],"objectgroup":{"draworder":"index","id":2,"name":"","opacity":1,"type":"objectgroup","visible":true,"x":0,"y":0,"objects":[{"id":1,"name":"","type":"collision","rotation":0,"visible":true,"x":6.0,"y":3.0,"width":20.0,"height":26.0}]}},{"id":201,"properties":[{"name":"collides","type":"bool","value":true},{"name":"prop","type":"string","value":"satellite_dish"}],"objectgroup":{"draworder":"index","id":2,"name":"","opacity":1,"type":"objectgroup","visible":true,"x":0,"y":0,"objects":[{"id":1,"name":"","type":"collision","rotation":0,"visible":true,"x":3.0,"y":3.0,"width":29.0,"height":29.0}]}},{"id":202,"properties":[{"name":"collides","type":"bool","value":true},{"name":"prop","type":"string","value":"satellite_dish"}],"objectgroup":{"draworder":"index","id":2,"name":"","opacity":1,"type":"objectgroup","visible":true,"x":0,"y":0,"objects":[{"id":1,"name":"","type":"collision","rotation":0,"visible":true,"x":0.0,"y":3.0,"width":31.0,"height":29.0}]}},{"id":203,"properties":[{"name":"collides","type":"bool","value":true},{"name":"prop","type":"string","value":"drone_wreck"}],"objectgroup":{"draworder":"index","id":2,"name":"","opacity":1,"type":"objectgroup","visible":true,"x":0,"y":0,"objects":[{"id":1,"name":"","type":"collision","rotation":0,"visible":true,"x":1.0,"y":1.0,"width":31.0,"height":31.0}]}},{"id":204,"properties":[{"name":"collides","type":"bool","value":true},{"name":"prop","type":"string","value":"holo_billboard"}],"objectgroup":{"draworder":"index","id":2,"name":"","opacity":1,"type":"objectgroup","visible":true,"x":0,"y":0,"objects":[{"id":1,"name":"","type":"collision","rotation":0,"visible":true,"x":3.0,"y":0.0,"width":29.0,"height":32.0}]}},{"id":205,"properties":[{"name":"collides","type":"bool","value":true},{"name":"prop","type":"string","value":"holo_billboard"}],"objectgroup":{"draworder":"index","id":2,"name":"","opacity":1,"type":"objectgroup","visible":true,"x":0,"y":0,"objects":[{"id":1,"name":"","type":"collision","rotation":0,"visible":true,"x":0.0,"y":0.0,"width":31.0,"height":32.0}]}},{"id":206,"properties":[{"name":"collides","type":"bool","value":true},{"name":"prop","type":"string","value":"barricade"}],"objectgroup":{"draworder":"index","id":2,"name":"","opacity":1,"type":"objectgroup","visible":true,"x":0,"y":0,"objects":[{"id":1,"name":"","type":"collision","rotation":0,"visible":true,"x":1.0,"y":11.0,"width":31.0,"height":18.0}]}},{"id":207,"properties":[{"name":"collides","type":"bool","value":true},{"name":"prop","type":"string","value":"barricade"}],"objectgroup":{"draworder":"index","id":2,"name":"","opacity":1,"type":"objectgroup","visible":true,"x":0,"y":0,"objects":[{"id":1,"name":"","type":"collision","rotation":0,"visible":true,"x":0.0,"y":11.0,"width":32.0,"height":18.0}]}},{"id":208,"properties":[{"name":"prop","type":"string","value":"portal_hexpad"}]},{"id":209,"properties":[{"name":"prop","type":"string","value":"portal_hexpad"}]},{"id":210,"properties":[{"name":"prop","type":"string","value":"portal_hexpad"}]},{"id":211,"properties":[{"name":"collides","type":"bool","value":true},{"name":"prop","type":"string","value":"generator"}],"objectgroup":{"draworder":"index","id":2,"name":"","opacity":1,"type":"objectgroup","visible":true,"x":0,"y":0,"objects":[{"id":1,"name":"","type":"collision","rotation":0,"visible":true,"x":0.0,"y":5.0,"width":32.0,"height":27.0}]}},{"id":212,"properties":[{"name":"collides","type":"bool","value":true},{"name":"prop","type":"string","value":"generator"}],"objectgroup":{"draworder":"index","id":2,"name":"","opacity":1,"type":"objectgroup","visible":true,"x":0,"y":0,"objects":[{"id":1,"name":"","type":"collision","rotation":0,"visible":true,"x":0.0,"y":5.0,"width":31.0,"height":27.0}]}},{"id":213,"properties":[{"name":"prop","type":"string","value":"loose_cables"}]},{"id":217,"properties":[{"name":"collides","type":"bool","value":true},{"name":"prop","type":"string","value":"satellite_dish"}],"objectgroup":{"draworder":"index","id":2,"name":"","opacity":1,"type":"objectgroup","visible":true,"x":0,"y":0,"objects":[{"id":1,"name":"","type":"collision","rotation":0,"visible":true,"x":3.0,"y":0.0,"width":29.0,"height":32.0}]}},{"id":218,"properties":[{"name":"collides","type":"bool","value":true},{"name":"prop","type":"string","value":"satellite_dish"}],"objectgroup":{"draworder":"index","id":2,"name":"","opacity":1,"type":"objectgroup","visible":true,"x":0,"y":0,"objects":[{"id":1,"name":"","type":"collision","rotation":0,"visible":true,"x":0.0,"y":0.0,"width":31.0,"height":32.0}]}},{"id":224,"properties":[{"name":"prop","type":"string","value":"portal_hexpad"}]},{"id":225,"properties":[{"name":"prop","type":"string","value":"portal_hexpad"}]},{"id":226,"properties":[{"name":"prop","type":"string","value":"portal_hexpad"}]},{"id":227,"properties":[{"name":"collides","type":"bool","value":true},{"name":"prop","type":"string","value":"generator"}],"objectgroup":{"draworder":"index","id":2,"name":"","opacity":1,"type":"objectgroup","visible":true,"x":0,"y":0,"objects":[{"id":1,"name":"","type":"collision","rotation":0,"visible":true,"x":0.0,"y":0.0,"width":32.0,"height":30.0}]}},{"id":228,"properties":[{"name":"collides","type":"bool","value":true},{"name":"prop","type":"string","value":"generator"}],"objectgroup":{"draworder":"index","id":2,"name":"","opacity":1,"type":"objectgroup","visible":true,"x":0,"y":0,"objects":[{"id":1,"name":"","type":"collision","rotation":0,"visible":true,"x":0.0,"y":0.0,"width":31.0,"height":30.0}]}},{"id":240,"properties":[{"name":"prop","type":"string","value":"portal_hexpad"}]},{"id":241,"properties":[{"name":"prop","type":"string","value":"portal_hexpad"}]},{"id":242,"properties":[{"name":"prop","type":"string","value":"portal_hexpad"}]}],"wangsets":[{"name":"asphalt-ruin","type":"mixed","tile":78,"colors":[{"name":"asphalt","color":"#3070ff","tile":32,"probability":1.0},{"name":"ruin","color":"#ff3070","tile":78,"probability":1.0}],"wangtiles":[{"tileid":32,"wangid":[1,1,1,1,1,1,1,1]},{"tileid":33,"wangid":[1,1,1,1,1,1,2,1]},{"tileid":34,"wangid":[1,1,1,1,2,1,1,1]},{"tileid":35,"wangid":[1,1,2,1,1,1,1,1]},{"tileid":36,"wangid":[2,1,1,1,1,1,1,1]},{"tileid":37,"wangid":[1,1,1,1,2,1,2,1]},{"tileid":38,"wangid":[1,1,2,1,1,1,2,1]},{"tileid":39,"wangid":[1,1,2,1,2,1,1,1]},{"tileid":40,"wangid":[2,1,1,1,1,1,2,1]},{"tileid":41,"wangid":[2,1,1,1,2,1,1,1]},{"tileid":42,"wangid":[2,1,2,1,1,1,1,1]},{"tileid":43,"wangid":[1,1,1,1,2,2,2,1]},{"tileid":44,"wangid":[1,1,2,1,2,1,2,1]},{"tileid":45,"wangid":[1,1,2,2,2,1,1,1]},{"tileid":46,"wangid":[2,1,1,1,1,1,2,2]},{"tileid":47,"wangid":[2,1,1,1,2,1,2,1]},{"tileid":48,"wangid":[2,1,2,1,1,1,2,1]},{"tileid":49,"wangid":[2,1,2,1,2,1,1,1]},{"tileid":50,"wangid":[2,2,2,1,1,1,1,1]},{"tileid":51,"wangid":[1,1,2,1,2,2,2,1]},{"tileid":52,"wangid":[1,1,2,2,2,1,2,1]},{"tileid":53,"wangid":[2,1,1,1,2,1,2,2]},{"tileid":54,"wangid":[2,1,1,1,2,2,2,1]},{"tileid":55,"wangid":[2,1,2,1,1,1,2,2]},{"tileid":56,"wangid":[2,1,2,1,2,1,2,1]},{"tileid":57,"wangid":[2,1,2,2,2,1,1,1]},{"tileid":58,"wangid":[2,2,2,1,1,1,2,1]},{"tileid":59,"wangid":[2,2,2,1,2,1,1,1]},{"tileid":60,"wangid":[1,1,2,2,2,2,2,1]},{"tileid":61,"wangid":[2,1,1,1,2,2,2,2]},{"tileid":62,"wangid":[2,1,2,1,2,1,2,2]},{"tileid":63,"wangid":[2,1,2,1,2,2,2,1]},{"tileid":64,"wangid":[2,1,2,2,2,1,2,1]},{"tileid":65,"wangid":[2,2,2,1,1,1,2,2]},{"tileid":66,"wangid":[2,2,2,1,2,1,2,1]},{"tileid":67,"wangid":[2,2,2,2,2,1,1,1]},{"tileid":68,"wangid":[2,1,2,1,2,2,2,2]},{"tileid":69,"wangid":[2,1,2,2,2,1,2,2]},{"tileid":70,"wangid":[2,1,2,2,2,2,2,1]},{"tileid":71,"wangid":[2,2,2,1,2,1,2,2]},{"tileid":72,"wangid":[2,2,2,1,2,2,2,1]},{"tileid":73,"wangid":[2,2,2,2,2,1,2,1]},{"tileid":74,"wangid":[2,1,2,2,2,2,2,2]},{"tileid":75,"wangid":[2,2,2,1,2,2,2,2]},{"tileid":76,"wangid":[2,2,2,2,2,1,2,2]},{"tileid":77,"wangid":[2,2,2,2,2,2,2,1]},{"tileid":78,"wangid":[2,2,2,2,2,2,2,2]},{"tileid":1,"wangid":[1,1,1,1,1,1,1,1]},{"tileid":2,"wangid":[1,1,1,1,1,1,1,1]},{"tileid":3,"wangid":[1,1,1,1,1,1,1,1]},{"tileid":4,"wangid":[1,1,1,1,1,1,1,1]},{"tileid":5,"wangid":[1,1,1,1,1,1,1,1]},{"tileid":10,"wangid":[1,1,1,1,1,1,1,1]},{"tileid":11,"wangid":[1,1,1,1,1,1,1,1]},{"tileid":15,"wangid":[1,1,1,1,1,1,1,1]},{"tileid":17,"wangid":[2,2,2,2,2,2,2,2]}]},{"name":"asphalt-sludge","type":"mixed","tile":126,"colors":[{"name":"asphalt","color":"#3070ff","tile":80,"probability":1.0},{"name":"sludge","color":"#ff3070","tile":126,"probability":1.0}],"wangtiles":[{"tileid":80,"wangid":[1,1,1,1,1,1,1,1]},{"tileid":81,"wangid":[1,1,1,1,1,1,2,1]},{"tileid":82,"wangid":[1,1,1,1,2,1,1,1]},{"tileid":83,"wangid":[1,1,2,1,1,1,1,1]},{"tileid":84,"wangid":[2,1,1,1,1,1,1,1]},{"tileid":85,"wangid":[1,1,1,1,2,1,2,1]},{"tileid":86,"wangid":[1,1,2,1,1,1,2,1]},{"tileid":87,"wangid":[1,1,2,1,2,1,1,1]},{"tileid":88,"wangid":[2,1,1,1,1,1,2,1]},{"tileid":89,"wangid":[2,1,1,1,2,1,1,1]},{"tileid":90,"wangid":[2,1,2,1,1,1,1,1]},{"tileid":91,"wangid":[1,1,1,1,2,2,2,1]},{"tileid":92,"wangid":[1,1,2,1,2,1,2,1]},{"tileid":93,"wangid":[1,1,2,2,2,1,1,1]},{"tileid":94,"wangid":[2,1,1,1,1,1,2,2]},{"tileid":95,"wangid":[2,1,1,1,2,1,2,1]},{"tileid":96,"wangid":[2,1,2,1,1,1,2,1]},{"tileid":97,"wangid":[2,1,2,1,2,1,1,1]},{"tileid":98,"wangid":[2,2,2,1,1,1,1,1]},{"tileid":99,"wangid":[1,1,2,1,2,2,2,1]},{"tileid":100,"wangid":[1,1,2,2,2,1,2,1]},{"tileid":101,"wangid":[2,1,1,1,2,1,2,2]},{"tileid":102,"wangid":[2,1,1,1,2,2,2,1]},{"tileid":103,"wangid":[2,1,2,1,1,1,2,2]},{"tileid":104,"wangid":[2,1,2,1,2,1,2,1]},{"tileid":105,"wangid":[2,1,2,2,2,1,1,1]},{"tileid":106,"wangid":[2,2,2,1,1,1,2,1]},{"tileid":107,"wangid":[2,2,2,1,2,1,1,1]},{"tileid":108,"wangid":[1,1,2,2,2,2,2,1]},{"tileid":109,"wangid":[2,1,1,1,2,2,2,2]},{"tileid":110,"wangid":[2,1,2,1,2,1,2,2]},{"tileid":111,"wangid":[2,1,2,1,2,2,2,1]},{"tileid":112,"wangid":[2,1,2,2,2,1,2,1]},{"tileid":113,"wangid":[2,2,2,1,1,1,2,2]},{"tileid":114,"wangid":[2,2,2,1,2,1,2,1]},{"tileid":115,"wangid":[2,2,2,2,2,1,1,1]},{"tileid":116,"wangid":[2,1,2,1,2,2,2,2]},{"tileid":117,"wangid":[2,1,2,2,2,1,2,2]},{"tileid":118,"wangid":[2,1,2,2,2,2,2,1]},{"tileid":119,"wangid":[2,2,2,1,2,1,2,2]},{"tileid":120,"wangid":[2,2,2,1,2,2,2,1]},{"tileid":121,"wangid":[2,2,2,2,2,1,2,1]},{"tileid":122,"wangid":[2,1,2,2,2,2,2,2]},{"tileid":123,"wangid":[2,2,2,1,2,2,2,2]},{"tileid":124,"wangid":[2,2,2,2,2,1,2,2]},{"tileid":125,"wangid":[2,2,2,2,2,2,2,1]},{"tileid":126,"wangid":[2,2,2,2,2,2,2,2]},{"tileid":1,"wangid":[1,1,1,1,1,1,1,1]},{"tileid":2,"wangid":[1,1,1,1,1,1,1,1]},{"tileid":3,"wangid":[1,1,1,1,1,1,1,1]},{"tileid":4,"wangid":[1,1,1,1,1,1,1,1]},{"tileid":5,"wangid":[1,1,1,1,1,1,1,1]},{"tileid":10,"wangid":[1,1,1,1,1,1,1,1]},{"tileid":11,"wangid":[1,1,1,1,1,1,1,1]},{"tileid":15,"wangid":[1,1,1,1,1,1,1,1]},{"tileid":19,"wangid":[2,2,2,2,2,2,2,2]}]},{"name":"asphalt-metal","type":"mixed","tile":174,"colors":[{"name":"asphalt","color":"#3070ff","tile":128,"probability":1.0},{"name":"metal","color":"#ff3070","tile":174,"probability":1.0}],"wangtiles":[{"tileid":128,"wangid":[1,1,1,1,1,1,1,1]},{"tileid":129,"wangid":[1,1,1,1,1,1,2,1]},{"tileid":130,"wangid":[1,1,1,1,2,1,1,1]},{"tileid":131,"wangid":[1,1,2,1,1,1,1,1]},{"tileid":132,"wangid":[2,1,1,1,1,1,1,1]},{"tileid":133,"wangid":[1,1,1,1,2,1,2,1]},{"tileid":134,"wangid":[1,1,2,1,1,1,2,1]},{"tileid":135,"wangid":[1,1,2,1,2,1,1,1]},{"tileid":136,"wangid":[2,1,1,1,1,1,2,1]},{"tileid":137,"wangid":[2,1,1,1,2,1,1,1]},{"tileid":138,"wangid":[2,1,2,1,1,1,1,1]},{"tileid":139,"wangid":[1,1,1,1,2,2,2,1]},{"tileid":140,"wangid":[1,1,2,1,2,1,2,1]},{"tileid":141,"wangid":[1,1,2,2,2,1,1,1]},{"tileid":142,"wangid":[2,1,1,1,1,1,2,2]},{"tileid":143,"wangid":[2,1,1,1,2,1,2,1]},{"tileid":144,"wangid":[2,1,2,1,1,1,2,1]},{"tileid":145,"wangid":[2,1,2,1,2,1,1,1]},{"tileid":146,"wangid":[2,2,2,1,1,1,1,1]},{"tileid":147,"wangid":[1,1,2,1,2,2,2,1]},{"tileid":148,"wangid":[1,1,2,2,2,1,2,1]},{"tileid":149,"wangid":[2,1,1,1,2,1,2,2]},{"tileid":150,"wangid":[2,1,1,1,2,2,2,1]},{"tileid":151,"wangid":[2,1,2,1,1,1,2,2]},{"tileid":152,"wangid":[2,1,2,1,2,1,2,1]},{"tileid":153,"wangid":[2,1,2,2,2,1,1,1]},{"tileid":154,"wangid":[2,2,2,1,1,1,2,1]},{"tileid":155,"wangid":[2,2,2,1,2,1,1,1]},{"tileid":156,"wangid":[1,1,2,2,2,2,2,1]},{"tileid":157,"wangid":[2,1,1,1,2,2,2,2]},{"tileid":158,"wangid":[2,1,2,1,2,1,2,2]},{"tileid":159,"wangid":[2,1,2,1,2,2,2,1]},{"tileid":160,"wangid":[2,1,2,2,2,1,2,1]},{"tileid":161,"wangid":[2,2,2,1,1,1,2,2]},{"tileid":162,"wangid":[2,2,2,1,2,1,2,1]},{"tileid":163,"wangid":[2,2,2,2,2,1,1,1]},{"tileid":164,"wangid":[2,1,2,1,2,2,2,2]},{"tileid":165,"wangid":[2,1,2,2,2,1,2,2]},{"tileid":166,"wangid":[2,1,2,2,2,2,2,1]},{"tileid":167,"wangid":[2,2,2,1,2,1,2,2]},{"tileid":168,"wangid":[2,2,2,1,2,2,2,1]},{"tileid":169,"wangid":[2,2,2,2,2,1,2,1]},{"tileid":170,"wangid":[2,1,2,2,2,2,2,2]},{"tileid":171,"wangid":[2,2,2,1,2,2,2,2]},{"tileid":172,"wangid":[2,2,2,2,2,1,2,2]},{"tileid":173,"wangid":[2,2,2,2,2,2,2,1]},{"tileid":174,"wangid":[2,2,2,2,2,2,2,2]},{"tileid":1,"wangid":[1,1,1,1,1,1,1,1]},{"tileid":2,"wangid":[1,1,1,1,1,1,1,1]},{"tileid":3,"wangid":[1,1,1,1,1,1,1,1]},{"tileid":4,"wangid":[1,1,1,1,1,1,1,1]},{"tileid":5,"wangid":[1,1,1,1,1,1,1,1]},{"tileid":10,"wangid":[1,1,1,1,1,1,1,1]},{"tileid":11,"wangid":[1,1,1,1,1,1,1,1]},{"tileid":15,"wangid":[1,1,1,1,1,1,1,1]},{"tileid":14,"wangid":[2,2,2,2,2,2,2,2]},{"tileid":20,"wangid":[2,2,2,2,2,2,2,2]}]}]},{"name":"buildings","columns":0,"margin":0,"spacing":0,"tilecount":7,"tilewidth":160,"tileheight":160,"grid":{"orientation":"orthogonal","width":1,"height":1},"objectalignment":"bottomleft","tiles":[{"id":0,"image":"buildings/noodle_shop.png","imagewidth":128,"imageheight":128,"type":"building","properties":[{"name":"building","type":"string","value":"noodle_shop"},{"name":"biome","type":"string","value":"city"},{"name":"door_x","type":"int","value":61},{"name":"door_y","type":"int","value":124}],"objectgroup":{"draworder":"index","id":2,"name":"","opacity":1,"type":"objectgroup","visible":true,"x":0,"y":0,"objects":[{"id":1,"name":"collision","type":"collision","x":12,"y":60,"width":104,"height":64,"rotation":0,"visible":true}]}},{"id":1,"image":"buildings/tea_house.png","imagewidth":128,"imageheight":128,"type":"building","properties":[{"name":"building","type":"string","value":"tea_house"},{"name":"biome","type":"string","value":"city"},{"name":"door_x","type":"int","value":64},{"name":"door_y","type":"int","value":124}],"objectgroup":{"draworder":"index","id":2,"name":"","opacity":1,"type":"objectgroup","visible":true,"x":0,"y":0,"objects":[{"id":1,"name":"collision","type":"collision","x":10,"y":60,"width":108,"height":64,"rotation":0,"visible":true}]}},{"id":2,"image":"buildings/greenhouse.png","imagewidth":128,"imageheight":128,"type":"building","properties":[{"name":"building","type":"string","value":"greenhouse"},{"name":"biome","type":"string","value":"city"},{"name":"door_x","type":"int","value":63},{"name":"door_y","type":"int","value":124}],"objectgroup":{"draworder":"index","id":2,"name":"","opacity":1,"type":"objectgroup","visible":true,"x":0,"y":0,"objects":[{"id":1,"name":"collision","type":"collision","x":12,"y":60,"width":104,"height":64,"rotation":0,"visible":true}]}},{"id":3,"image":"buildings/apartment_block.png","imagewidth":160,"imageheight":160,"type":"building","properties":[{"name":"building","type":"string","value":"apartment_block"},{"name":"biome","type":"string","value":"city"},{"name":"door_x","type":"int","value":80},{"name":"door_y","type":"int","value":142}],"objectgroup":{"draworder":"index","id":2,"name":"","opacity":1,"type":"objectgroup","visible":true,"x":0,"y":0,"objects":[{"id":1,"name":"collision","type":"collision","x":0,"y":78,"width":160,"height":64,"rotation":0,"visible":true}]}},{"id":4,"image":"buildings/archive_library.png","imagewidth":160,"imageheight":160,"type":"building","properties":[{"name":"building","type":"string","value":"archive_library"},{"name":"biome","type":"string","value":"city"},{"name":"door_x","type":"int","value":80},{"name":"door_y","type":"int","value":146}],"objectgroup":{"draworder":"index","id":2,"name":"","opacity":1,"type":"objectgroup","visible":true,"x":0,"y":0,"objects":[{"id":1,"name":"collision","type":"collision","x":8,"y":82,"width":142,"height":64,"rotation":0,"visible":true}]}},{"id":5,"image":"buildings/ranger_cabin.png","imagewidth":128,"imageheight":128,"type":"building","properties":[{"name":"building","type":"string","value":"ranger_cabin"},{"name":"biome","type":"string","value":"woods"},{"name":"door_x","type":"int","value":63},{"name":"door_y","type":"int","value":118}],"objectgroup":{"draworder":"index","id":2,"name":"","opacity":1,"type":"objectgroup","visible":true,"x":0,"y":0,"objects":[{"id":1,"name":"collision","type":"collision","x":6,"y":54,"width":108,"height":64,"rotation":0,"visible":true}]}},{"id":6,"image":"buildings/ruin_shrine.png","imagewidth":128,"imageheight":160,"type":"building","properties":[{"name":"building","type":"string","value":"ruin_shrine"},{"name":"biome","type":"string","value":"core"},{"name":"door_x","type":"int","value":64},{"name":"door_y","type":"int","value":152}],"objectgroup":{"draworder":"index","id":2,"name":"","opacity":1,"type":"objectgroup","visible":true,"x":0,"y":0,"objects":[{"id":1,"name":"collision","type":"collision","x":16,"y":88,"width":96,"height":64,"rotation":0,"visible":true}]}}],"firstgid":257}],"layers":[{"id":1,"name":"ground","type":"tilelayer","x":0,"y":0,"width":46,"height":46,"opacity":1,"visible":true,"data":[79,79,18,79,79,79,79,79,79,79,79,79,79,79,79,79,79,79,79,79,79,79,18,79,18,79,79,79,79,79,79,79,79,79,79,79,79,79,79,79,79,79,79,18,79,79,79,79,76,66,66,66,66,66,77,79,79,79,79,79,79,79,79,79,79,79,79,79,79,76,66,66,66,66,77,79,18,79,79,79,79,79,79,79,79,79,79,79,79,79,79,79,79,76,47,33,33,3,3,33,51,77,79,18,79,76,66,66,66,66,77,79,79,76,66,47,4,12,33,2,51,77,18,79,79,18,79,79,79,76,66,66,66,77,79,18,79,79,79,62,5,33,142,157,140,2,33,51,66,66,66,47,3,4,33,33,51,66,66,47,33,16,33,33,33,4,12,51,66,66,66,77,79,79,76,47,4,12,33,51,77,79,79,79,79,62,33,142,174,15,171,140,33,6,12,33,33,3,4,16,11,33,4,33,4,6,2,33,33,33,33,12,33,33,33,33,33,51,66,66,47,5,33,33,33,6,51,77,79,79,79,62,33,164,15,175,15,158,33,5,2,5,6,33,3,11,33,12,33,5,33,16,2,33,33,4,4,33,16,33,33,6,12,5,33,33,5,33,33,33,33,11,6,68,79,79,79,62,6,147,173,175,172,143,33,33,3,33,3,33,6,12,11,11,4,11,33,5,5,2,33,5,33,33,33,12,2,33,33,33,12,33,33,11,12,33,33,33,33,68,79,79,18,62,33,33,147,162,143,4,33,3,33,33,2,33,33,2,33,2,33,2,46,61,61,44,11,33,33,33,33,16,33,33,33,33,33,33,33,4,5,33,33,33,33,68,79,79,18,75,44,33,6,33,3,6,46,61,61,61,61,44,33,11,33,4,33,33,68,79,79,75,61,61,61,44,6,11,2,33,33,4,11,33,16,33,3,33,33,3,46,78,79,79,79,79,75,44,33,3,2,3,68,79,79,79,18,75,44,33,11,6,33,5,51,77,18,79,79,79,79,75,44,2,5,33,33,33,46,61,61,44,33,11,33,46,78,79,79,79,79,79,76,47,33,33,4,33,51,77,79,79,79,79,62,33,12,33,33,33,5,68,79,79,79,79,79,79,75,44,4,33,33,2,68,79,79,75,61,61,61,78,79,79,79,79,18,79,62,6,16,12,33,33,11,68,79,79,79,79,62,3,2,11,3,33,16,68,79,79,79,79,79,79,79,62,33,33,33,5,68,79,79,79,79,79,79,79,79,79,79,79,79,79,62,33,4,11,6,33,33,51,66,66,77,79,62,16,33,12,33,12,16,68,79,79,79,79,79,79,79,62,33,3,4,5,68,79,79,79,79,79,79,18,79,79,79,79,79,79,62,3,33,33,33,6,6,33,3,33,51,66,47,33,33,33,33,33,33,68,79,79,18,79,79,79,79,62,33,11,33,6,68,79,79,79,79,79,79,79,79,79,18,79,79,79,62,2,16,16,33,33,6,5,33,4,33,33,5,5,12,6,11,4,46,78,79,79,79,79,79,79,79,62,33,11,11,3,68,79,18,79,79,79,79,18,79,79,79,79,18,79,75,44,33,33,5,33,33,33,12,2,3,16,33,33,33,3,33,4,51,66,66,77,79,79,79,79,79,62,33,11,33,33,51,77,18,79,18,79,79,79,18,79,79,79,79,79,79,75,61,61,61,61,44,33,33,2,33,2,33,33,16,16,2,33,94,109,92,51,66,66,66,66,66,47,33,3,5,33,4,51,77,18,79,18,79,79,79,79,79,79,79,79,79,79,79,79,79,79,75,61,44,3,33,6,16,33,33,3,33,5,99,114,95,12,5,33,11,33,33,11,33,12,33,11,33,3,68,79,79,79,79,79,79,79,79,79,18,79,79,79,79,79,79,18,79,79,75,61,61,44,33,33,4,33,33,4,16,12,5,5,33,5,33,33,33,33,33,33,2,5,4,33,68,18,79,18,79,79,79,79,79,79,79,79,18,79,79,79,79,79,79,79,79,79,79,62,33,33,3,33,33,33,2,33,33,5,33,33,5,33,33,5,16,12,16,2,33,2,68,79,79,79,79,79,79,79,79,18,79,18,79,79,79,79,79,79,79,79,79,79,79,75,44,16,4,33,12,33,33,46,61,61,61,61,44,6,11,33,33,33,33,33,33,33,68,79,79,79,79,79,79,79,79,18,79,79,79,79,79,79,18,79,79,79,79,79,79,18,75,61,44,33,4,11,4,51,77,79,79,79,75,61,61,61,44,6,11,12,33,33,68,79,79,79,79,79,79,79,79,18,79,79,79,79,79,79,79,18,79,79,18,79,79,18,79,79,62,33,33,33,33,4,68,18,79,79,79,79,79,79,75,44,33,33,5,2,68,79,79,79,79,79,79,79,79,79,79,79,79,79,79,18,79,79,79,79,79,79,79,18,79,79,75,44,2,4,33,11,51,77,79,79,79,79,79,79,79,62,33,12,33,5,51,77,79,79,18,79,79,79,79,79,18,79,79,79,79,79,79,79,79,79,79,18,79,79,18,79,79,62,12,2,33,33,33,68,79,79,79,18,79,79,79,62,33,33,6,11,5,51,77,79,79,18,18,79,79,79,79,79,79,79,79,79,79,79,79,79,79,79,79,79,79,79,79,75,44,33,33,33,11,51,66,77,79,18,79,79,79,62,33,6,33,33,3,6,68,79,79,18,79,79,18,79,79,79,79,79,79,79,79,79,79,79,79,79,79,79,79,79,79,79,62,5,33,5,33,33,33,51,77,18,79,79,79,62,6,5,33,33,33,2,68,79,79,79,79,79,79,79,79,79,79,18,79,79,79,79,79,79,79,18,79,79,79,18,79,79,75,44,33,33,33,33,33,4,68,79,79,79,79,62,11,16,33,6,33,33,68,79,18,79,79,79,18,79,79,79,79,79,79,79,79,79,18,79,79,79,79,79,79,79,79,79,76,47,11,33,33,3,3,33,68,79,79,79,79,62,33,12,2,16,33,33,68,79,79,79,79,79,79,79,79,18,79,79,79,79,18,79,76,66,66,66,66,66,66,77,76,66,47,16,3,33,2,5,33,12,68,79,79,79,79,75,44,33,33,33,12,4,68,79,18,79,79,79,79,79,79,79,79,18,79,79,79,79,62,11,11,12,3,2,12,51,47,5,12,2,33,11,33,33,16,2,68,79,79,79,79,79,75,44,33,33,33,11,51,77,79,79,79,79,79,79,79,79,18,79,79,79,79,79,62,3,33,33,33,2,3,33,33,11,12,33,33,33,33,33,33,46,78,79,79,79,79,79,79,75,44,33,33,33,12,68,79,18,79,79,18,79,79,79,79,79,79,79,79,79,62,33,2,33,16,4,12,33,33,5,11,33,33,46,61,61,61,78,79,79,79,79,79,79,79,79,75,44,33,11,4,68,79,79,79,79,79,79,18,79,79,79,79,79,79,79,62,4,2,11,4,4,5,33,6,12,33,46,61,78,18,79,79,79,79,79,79,79,79,79,79,79,79,62,33,5,33,68,79,79,18,79,79,79,18,79,79,79,79,79,79,79,62,33,33,33,33,33,2,33,12,33,46,78,79,79,79,79,79,79,79,79,18,79,18,79,79,79,79,62,33,5,12,51,66,77,79,79,79,79,79,79,79,79,79,79,79,79,62,4,4,33,4,12,33,33,46,61,78,79,79,79,79,79,79,79,79,79,18,18,79,79,79,79,79,62,3,16,4,33,6,51,77,79,79,79,79,79,79,79,79,76,66,66,47,4,6,5,2,2,33,46,78,79,79,79,79,79,79,79,79,18,18,79,79,79,79,18,18,79,79,62,5,33,142,157,140,6,51,77,79,79,18,79,79,18,76,47,33,6,4,33,33,11,2,33,4,68,79,79,79,18,79,79,79,79,79,79,79,79,79,79,79,79,79,79,76,47,33,142,174,175,171,140,5,51,77,79,79,79,76,66,47,33,33,16,6,12,33,33,33,33,46,78,79,79,18,18,79,79,79,79,79,79,79,79,79,79,79,79,79,79,62,33,142,174,175,175,175,171,140,33,68,79,18,76,47,33,33,33,5,33,33,33,11,46,61,61,78,79,79,79,79,79,79,18,79,79,18,79,79,79,79,79,79,79,79,79,62,33,164,175,175,175,175,175,158,33,68,79,79,62,12,33,33,3,33,33,3,33,33,68,79,79,79,79,79,79,79,79,79,79,79,79,79,79,79,79,79,79,79,79,79,79,62,4,147,173,21,175,21,172,143,2,68,79,79,62,3,12,4,33,6,16,33,16,6,68,79,79,79,79,79,79,79,79,79,79,79,79,79,18,18,79,79,79,79,79,79,18,75,44,33,147,173,175,172,143,33,46,78,18,18,62,33,33,16,33,5,33,33,6,46,78,79,79,79,79,79,79,79,79,79,18,79,79,79,79,79,79,79,79,79,79,79,79,79,75,44,16,147,162,143,33,46,78,79,79,79,62,33,33,16,33,2,4,46,61,78,79,79,79,79,79,18,79,79,79,79,18,79,79,79,79,79,18,79,18,18,79,18,18,79,79,75,44,33,33,4,46,78,79,79,79,79,75,61,61,61,61,61,61,78,79,79,79,79,79,79,18,79,79,18,18,79,79,79,18,79,79,79,79,79,79,79,79,79,79,79,79,79,75,61,61,61,78,79,79,79,18,79,79,79,79,79,79,79,79,79,79,79,79,79,79,18,79,79,79,18,79,79,18,79,79,79,79,79,79,79,79,79,79,79,79,79,79,79,79,79,79,18,79,79,79,79,79]},{"id":2,"name":"props","type":"tilelayer","x":0,"y":0,"width":46,"height":46,"opacity":1,"visible":true,"data":[0,0,0,0,0,0,0,0,0,0,0,0,0,0,0,0,0,0,0,0,0,0,0,0,0,0,0,0,0,0,0,0,0,0,0,0,0,0,0,0,0,0,0,0,0,0,0,0,0,0,0,0,0,0,0,0,0,0,0,0,0,0,0,0,0,0,0,0,0,0,0,0,0,0,0,0,0,0,0,0,0,0,0,0,0,0,0,0,0,0,0,0,0,0,0,0,177,204,177,0,0,0,0,0,0,0,0,0,0,0,0,0,0,0,0,0,0,214,0,200,0,0,0,0,0,0,0,0,0,0,0,0,0,0,0,0,0,0,0,0,199,0,0,0,0,0,0,0,0,0,0,0,0,0,0,0,0,0,0,0,0,0,0,0,0,0,199,0,0,0,0,0,0,0,0,0,207,208,0,0,0,0,0,0,0,0,183,0,0,0,0,0,0,0,0,0,0,0,0,0,0,0,0,0,0,0,0,0,0,0,0,0,0,214,0,0,0,0,0,0,0,0,0,0,0,199,0,0,0,0,0,0,199,0,0,0,0,0,0,0,0,0,0,0,0,0,0,0,0,0,0,0,0,0,0,0,0,0,0,0,0,0,0,0,0,0,0,0,0,0,0,0,0,0,0,0,0,0,0,0,0,0,0,0,0,0,0,0,0,0,0,0,0,0,0,0,0,0,0,0,0,0,0,0,0,0,0,0,0,0,0,0,0,0,0,0,0,0,0,0,0,0,0,0,177,0,0,0,0,0,0,0,0,0,0,0,0,0,0,0,0,0,0,0,0,0,0,0,0,0,0,0,0,0,0,0,0,0,0,0,0,0,0,0,200,0,0,0,0,0,0,0,0,0,0,0,0,0,0,0,0,0,0,0,0,0,0,0,0,0,0,0,0,0,0,0,0,0,0,0,0,0,0,0,0,0,0,0,0,200,0,0,0,0,0,0,0,0,0,0,0,0,0,0,0,0,0,0,0,0,0,0,0,0,0,0,0,0,0,0,0,0,0,0,0,0,0,0,0,0,0,0,0,207,208,0,0,0,0,0,0,0,0,0,0,0,0,0,0,0,0,0,0,0,0,0,0,0,0,0,0,0,0,0,0,0,0,0,0,0,0,0,0,0,0,0,0,0,0,0,0,0,0,0,0,0,0,0,0,200,0,0,0,0,0,0,0,0,0,0,0,0,0,0,0,0,0,0,0,0,0,0,0,0,0,0,0,0,0,0,0,0,0,0,0,0,0,0,0,0,0,0,0,0,0,0,0,0,0,0,0,0,0,0,0,0,0,0,0,0,0,0,0,0,0,0,0,0,0,0,0,0,0,0,0,0,0,0,0,0,0,0,0,0,0,0,0,0,0,0,0,0,0,0,0,0,0,0,0,0,0,0,0,0,0,0,0,0,201,0,0,0,0,0,0,0,0,0,0,0,0,0,0,0,0,0,0,0,0,0,0,0,0,0,0,0,0,0,0,0,0,0,0,0,0,0,0,0,0,0,0,0,0,0,0,0,0,0,0,0,0,0,0,0,0,0,0,0,0,0,0,0,0,0,0,0,0,0,0,0,0,0,0,0,0,0,0,0,0,0,0,0,0,0,0,0,0,0,0,0,0,0,0,0,0,0,0,0,0,0,0,0,0,0,0,0,0,0,0,0,0,0,0,0,0,0,0,0,0,0,0,0,0,0,0,0,0,0,0,0,0,0,0,0,0,0,0,0,0,0,0,0,0,0,0,0,0,0,0,0,0,0,0,0,0,0,0,0,0,0,0,0,0,0,0,0,0,0,0,0,0,0,0,0,0,0,0,0,0,0,0,0,0,0,0,0,0,0,0,0,0,0,0,0,0,0,0,183,0,0,0,0,0,0,0,0,0,0,0,0,0,0,0,0,0,0,0,0,0,0,0,0,0,0,0,0,0,0,0,0,0,0,0,0,0,0,0,0,0,0,0,0,0,0,0,0,0,0,0,0,0,0,0,0,0,0,0,0,0,0,0,0,0,0,0,0,0,0,0,0,0,0,0,0,0,0,0,0,0,0,0,0,0,0,0,0,0,0,0,0,0,0,0,0,0,0,0,0,0,0,0,0,0,0,0,0,0,0,0,0,0,0,0,0,0,177,0,0,0,0,0,0,0,0,0,0,0,0,0,214,0,0,0,0,0,0,0,0,0,0,0,0,0,0,0,0,0,0,0,0,0,0,0,0,0,0,0,0,0,0,0,0,0,0,0,0,0,0,0,0,0,0,0,0,0,0,0,0,0,0,0,0,0,0,0,0,0,0,0,0,0,0,0,0,0,0,0,0,0,0,0,0,0,0,0,0,0,0,0,0,0,0,0,0,0,0,0,0,0,0,0,0,0,0,0,0,0,0,0,0,0,0,0,0,0,0,0,0,0,0,0,0,0,0,0,0,0,0,0,0,0,0,0,0,0,0,0,0,0,0,0,0,0,0,0,0,0,0,0,0,0,0,0,0,0,0,0,0,0,0,0,0,0,0,0,0,0,0,0,0,0,0,0,0,0,0,0,0,0,0,0,0,0,0,0,0,0,0,0,0,0,0,0,0,0,0,0,0,0,0,0,0,0,0,0,0,0,0,0,0,0,0,0,0,0,0,0,0,0,0,0,0,0,0,0,0,0,0,0,0,0,0,0,0,0,0,0,0,0,0,0,0,0,0,0,0,0,0,0,0,0,0,0,0,0,0,0,0,0,0,0,0,0,0,0,0,0,0,0,0,0,0,0,0,0,0,0,0,0,0,0,0,0,0,0,0,0,0,0,0,0,0,0,0,0,0,0,0,0,0,0,0,0,0,0,0,0,0,0,0,0,0,0,0,0,0,0,0,0,0,0,0,0,0,0,0,0,0,0,0,0,0,0,0,0,0,0,0,0,0,0,0,0,0,0,0,0,0,0,0,0,0,0,0,0,0,0,0,0,0,0,0,0,0,0,0,0,0,0,0,0,0,0,214,0,0,0,0,0,0,200,0,0,0,0,0,0,0,0,0,0,0,0,0,0,0,0,0,0,0,0,0,0,0,0,0,0,0,0,0,0,0,0,0,0,0,0,0,0,0,0,0,0,0,0,0,0,0,0,0,0,0,0,0,0,0,0,0,0,0,0,0,0,0,0,0,0,0,0,0,0,0,0,0,0,0,0,0,0,0,0,0,0,0,0,200,0,0,0,0,0,0,0,0,0,0,0,0,0,0,0,0,0,0,0,0,0,0,0,0,0,0,0,0,0,0,0,0,0,0,0,0,0,0,0,0,0,0,0,0,0,0,0,0,0,0,0,0,0,0,0,0,0,0,0,0,0,0,0,0,0,0,0,0,0,0,0,0,0,0,0,0,0,0,0,0,0,0,0,0,0,0,0,0,0,0,0,0,0,0,0,0,0,0,0,0,0,0,0,0,0,0,0,0,0,0,0,0,0,0,0,0,0,0,0,0,0,0,0,0,0,0,0,0,0,0,0,0,0,0,0,0,0,0,0,0,0,0,0,0,0,0,0,0,0,0,0,0,0,0,0,0,0,0,0,0,0,0,0,0,0,0,0,0,0,0,0,0,0,0,0,0,0,0,0,0,0,0,0,0,0,0,0,0,0,0,0,0,0,0,0,0,0,0,0,0,0,0,0,0,0,0,0,0,0,0,0,0,0,0,0,0,0,0,0,0,0,0,0,0,0,0,0,0,0,0,0,0,0,0,0,0,0,0,0,0,0,0,0,0,0,0,0,0,0,0,0,0,0,0,0,0,0,0,0,0,0,0,0,0,0,0,0,0,0,0,0,0,0,0,0,0,0,0,0,0,0,0,0,0,0,0,0,0,0,0,0,0,0,0,0,0,0,0,0,0,0,0,204,199,0,0,0,0,0,0,0,0,0,0,0,0,0,0,0,0,0,0,0,0,0,0,0,0,0,0,0,0,0,0,0,0,0,187,0,0,0,0,0,0,0,0,0,0,0,0,0,0,0,0,0,0,0,0,0,0,0,0,0,0,0,0,0,0,0,0,0,0,0,0,0,0,0,197,198,0,0,0,0,0,201,199,0,0,0,0,0,177,201,0,0,0,0,0,0,0,0,0,0,0,0,0,0,0,0,0,0,0,0,0,0,0,0,0,0,0,0,0,0,199,184,0,0,0,0,0,193,0,0,0,0,0,0,0,0,0,0,0,0,0,0,0,0,0,0,0,0,0,0,0,0,0,0,0,0,0,0,0,0,0,0,0,0,0,0,207,208,0,0,0,0,0,184,0,0,0,0,0,0,0,0,0,0,0,0,0,199,0,0,0,0,0,0,0,0,0,0,0,0,0,0,0,0,0,0,0,0,0,0,0,0,0,0,201,0,0,0,201,193,0,0,0,0,0,0,0,0,0,0,0,0,0,0,0,0,0,0,0,0,0,0,0,0,0,0,0,0,0,0,0,0,0,0,0,0,0,0,0,0,0,184,0,199,184,0,0,0,0,0,0,0,0,0,0,0,0,0,0,0,0,0,0,0,0,0,0,0,0,0,0,0,0,0,0,0,0,0,0,0,0,0,0,0,0,0,0,0,0,0,0,0,0,0,0,0,0,0,0,0,0,0,0,0,0,0,0,0,0,0,0,0,0,0,0,0,0,0,0,0,0,0,0,0,0,0,0,0,0,0,0,0,0,0,0,0,0,0,0,0,0,0,0,0,0,0,0,0,0,0,0,0,0,0,0,0,0,0,0,0,0,0,0,0,0,0,0,0,0,0,0,0,0,0,0,0,0,0,0,0,0,0,0,0,0,0,0]},{"id":3,"name":"gameplay","type":"objectgroup","draworder":"topdown","x":0,"y":0,"opacity":1,"visible":true,"objects":[{"id":1,"name":"spawn","type":"","rotation":0,"visible":true,"x":160.0,"y":160.0,"width":32.0,"height":32.0},{"id":2,"name":"health","type":"","rotation":0,"visible":true,"x":184.0,"y":408.0,"width":16.0,"height":16.0},{"id":3,"name":"health","type":"","rotation":0,"visible":true,"x":536.0,"y":568.0,"width":16.0,"height":16.0},{"id":4,"name":"health","type":"","rotation":0,"visible":true,"x":984.0,"y":216.0,"width":16.0,"height":16.0},{"id":5,"name":"health","type":"","rotation":0,"visible":true,"x":1112.0,"y":856.0,"width":16.0,"height":16.0},{"id":6,"name":"drone","type":"","rotation":0,"visible":true,"x":500.0,"y":180.0,"width":24.0,"height":24.0,"properties":[{"name":"startAngle","type":"float","value":0.5},{"name":"kind","type":"string","value":"sniper"}]},{"id":7,"name":"drone","type":"","rotation":0,"visible":true,"x":820.0,"y":148.0,"width":24.0,"height":24.0,"properties":[{"name":"startAngle","type":"float","value":3.1},{"name":"kind","type":"string","value":"shield"}]},{"id":8,"name":"drone","type":"","rotation":0,"visible":true,"x":1044.0,"y":596.0,"width":24.0,"height":24.0,"properties":[{"name":"startAngle","type":"float","value":4.5},{"name":"kind","type":"string","value":"scout"}]},{"id":9,"name":"drone","type":"","rotation":0,"visible":true,"x":724.0,"y":916.0,"width":24.0,"height":24.0,"properties":[{"name":"startAngle","type":"float","value":2.3},{"name":"kind","type":"string","value":"swarm"}]},{"id":10,"name":"examine","type":"","rotation":0,"visible":true,"x":1254.0,"y":198.0,"width":20.0,"height":20.0,"properties":[{"name":"id","type":"string","value":"ruins_gate_key"},{"name":"title","type":"string","value":"AETHERIAN KEYSTONE"},{"name":"text","type":"string","value":"A cold keystone. The SE gate toward the Core will accept this."},{"name":"give","type":"string","value":"ruins_gate_key"},{"name":"clue","type":"string","value":"ruins_keystone"}]},{"id":11,"name":"drone","type":"","rotation":0,"visible":true,"x":1214.0,"y":222.0,"width":24.0,"height":24.0,"properties":[{"name":"startAngle","type":"float","value":2.0},{"name":"kind","type":"string","value":"shield"}]},{"id":12,"name":"storygate","type":"","rotation":0,"visible":true,"x":1152.0,"y":1024.0,"width":96.0,"height":96.0,"properties":[{"name":"flag","type":"string","value":"ruins_gate_open"}]},{"id":13,"name":"examine","type":"","rotation":0,"visible":true,"x":1190.0,"y":1001.0,"width":20.0,"height":20.0,"properties":[{"name":"id","type":"string","value":"ruins_se_gate"},{"name":"title","type":"string","value":"SEALED GATE"},{"name":"text","type":"string","value":"Lattice lock. The Aetherian Keystone is in the north-east wing \u2014 bring it back and USE it here."},{"name":"item","type":"string","value":"ruins_gate_key"},{"name":"consume","type":"bool","value":true},{"name":"flag","type":"string","value":"ruins_gate_open"},{"name":"clue","type":"string","value":"ruins_gate_open"}]},{"id":14,"name":"fragment","type":"","rotation":0,"visible":true,"x":135.0,"y":1351.0,"width":18.0,"height":18.0},{"id":15,"name":"drone","type":"","rotation":0,"visible":true,"x":270.0,"y":1255.0,"width":24.0,"height":24.0,"properties":[{"name":"startAngle","type":"float","value":1.2},{"name":"kind","type":"string","value":"swarm"}]},{"id":16,"name":"drone","type":"","rotation":0,"visible":true,"x":164.0,"y":1329.0,"width":24.0,"height":24.0,"properties":[{"name":"startAngle","type":"float","value":4.0},{"name":"kind","type":"string","value":"swarm"}]},{"id":17,"name":"stash","type":"","rotation":0,"visible":true,"x":214.0,"y":1280.0,"width":32.0,"height":32.0,"properties":[{"name":"glimmer","type":"int","value":22}]},{"id":18,"name":"portal","type":"","rotation":0,"visible":true,"x":1236.0,"y":1236.0,"width":56.0,"height":56.0},{"id":19,"name":"checkpoint","type":"","rotation":0,"visible":true,"x":160.0,"y":160.0,"width":32.0,"height":32.0,"properties":[{"name":"label","type":"string","value":"Ruined Landing"}]},{"id":20,"name":"checkpoint","type":"","rotation":0,"visible":true,"x":528.0,"y":560.0,"width":32.0,"height":32.0,"properties":[{"name":"label","type":"string","value":"Central Clearing"}]},{"id":21,"name":"checkpoint","type":"","rotation":0,"visible":true,"x":1168.0,"y":1168.0,"width":32.0,"height":32.0,"properties":[{"name":"label","type":"string","value":"Extraction Approach"}]},{"id":22,"name":"examine","type":"","rotation":0,"visible":true,"x":214.0,"y":198.0,"width":20.0,"height":20.0,"properties":[{"name":"id","type":"string","value":"ruins_landing_mark"},{"name":"title","type":"string","value":"LANDING MARK"},{"name":"text","type":"string","value":"UEC paint over Aetherian stone: \"Wipe authorized.\" Someone scratched it out."},{"name":"clue","type":"string","value":"ruins_landing"}]},{"id":23,"name":"examine","type":"","rotation":0,"visible":true,"x":502.0,"y":592.0,"width":20.0,"height":20.0,"properties":[{"name":"id","type":"string","value":"ruins_clearing_ring"},{"name":"title","type":"string","value":"BROKEN RING"},{"name":"text","type":"string","value":"SE path to the Core is sealed. Go NORTH-EAST for the Aetherian Keystone, then return. SW shrine is optional."},{"name":"clue","type":"string","value":"ruins_ring"}]},{"id":24,"name":"stash","type":"","rotation":0,"visible":true,"x":672.0,"y":944.0,"width":32.0,"height":32.0,"properties":[{"name":"glimmer","type":"int","value":20}]},{"id":25,"name":"health","type":"","rotation":0,"visible":true,"x":776.0,"y":936.0,"width":16.0,"height":16.0},{"id":26,"name":"examine","type":"","rotation":0,"visible":true,"x":726.0,"y":880.0,"width":20.0,"height":20.0,"properties":[{"name":"id","type":"string","value":"ruins_dead_end"},{"name":"title","type":"string","value":"WAYMARKER"},{"name":"text","type":"string","value":"Offline UEC pad: \"Shrine sector SW \u2014 anomaly deep past the ruin. Optional.\""},{"name":"clue","type":"string","value":"ruins_dead_end"}]},{"id":27,"name":"ambient","type":"","rotation":0,"visible":true,"x":1284.0,"y":1336.8,"width":24.0,"height":24.0,"properties":[{"name":"kind","type":"string","value":"steam"}]},{"id":28,"name":"ambient","type":"","rotation":0,"visible":true,"x":1316.0,"y":120.80000000000001,"width":24.0,"height":24.0,"properties":[{"name":"kind","type":"string","value":"steam"}]},{"id":29,"name":"ambient","type":"","rotation":0,"visible":true,"x":228.0,"y":1176.8,"width":24.0,"height":24.0,"properties":[{"name":"kind","type":"string","value":"steam"}]},{"id":30,"name":"ambient","type":"","rotation":0,"visible":true,"x":68.0,"y":88.8,"width":24.0,"height":24.0,"properties":[{"name":"kind","type":"string","value":"steam"}]},{"id":31,"name":"ambient","type":"","rotation":0,"visible":true,"x":900.0,"y":88.8,"width":24.0,"height":24.0,"properties":[{"name":"kind","type":"string","value":"steam"}]},{"id":32,"name":"ambient","type":"","rotation":0,"visible":true,"x":1380.0,"y":1208.8,"width":24.0,"height":24.0,"properties":[{"name":"kind","type":"string","value":"steam"}]},{"id":33,"name":"ambient","type":"","rotation":0,"visible":true,"x":68.0,"y":152.8,"width":24.0,"height":24.0,"properties":[{"name":"kind","type":"string","value":"steam"}]},{"id":34,"name":"ambient","type":"","rotation":0,"visible":true,"x":324.0,"y":1304.8,"width":24.0,"height":24.0,"properties":[{"name":"kind","type":"string","value":"steam"}]},{"id":35,"name":"ambient","type":"","rotation":0,"visible":true,"x":1124.0,"y":1240.8,"width":24.0,"height":24.0,"properties":[{"name":"kind","type":"string","value":"steam"}]},{"id":36,"name":"building","type":"","gid":263,"rotation":0,"visible":true,"x":320.0,"y":1152.0,"width":128.0,"height":160.0,"properties":[{"name":"building","type":"string","value":"ruin_shrine"}]}]}]}